P3
# Synthetic schematic only; not a camera capture
320 160
255
25 100 65 25 100 65 25 100 65 25 100 65 25 100 65 25 100 65 25 100 65 25 100 65 25 100 65 25 100 65 25 100 65 25 100 65 25 100 65 25 100 65 25 100 65 25 100 65 25 100 65 25 100 65 25 100 65 25 100 65 25 100 65 25 100 65 25 100 65 25 100 65 25 100 65 25 100 65 25 100 65 25 100 65 25 100 65 25 100 65 25 100 65 25 100 65 25 100 65 25 100 65 25 100 65 25 100 65 25 100 65 25 100 65 25 100 65 25 100 65 25 100 65 25 100 65 25 100 65 25 100 65 25 100 65 25 100 65 25 100 65 25 100 65 25 100 65 25 100 65 25 100 65 25 100 65 25 100 65 25 100 65 25 100 65 25 100 65 25 100 65 25 100 65 25 100 65 25 100 65 25 100 65 25 100 65 25 100 65 25 100 65 25 100 65 25 100 65 25 100 65 25 100 65 25 100 65 25 100 65 25 100 65 25 100 65 25 100 65 25 100 65 25 100 65 25 100 65 25 100 65 25 100 65 25 100 65 25 100 65 25 100 65 25 100 65 25 100 65 25 100 65 25 100 65 25 100 65 25 100 65 25 100 65 25 100 65 25 100 65 25 100 65 25 100 65 25 100 65 25 100 65 25 100 65 25 100 65 25 100 65 25 100 65 25 100 65 25 100 65 25 100 65 25 100 65 25 100 65 25 100 65 25 100 65 25 100 65 25 100 65 25 100 65 25 100 65 25 100 65 25 100 65 25 100 65 25 100 65 25 100 65 25 100 65 25 100 65 25 100 65 25 100 65 25 100 65 25 100 65 25 100 65 25 100 65 25 100 65 25 100 65 25 100 65 25 100 65 25 100 65 25 100 65 25 100 65 25 100 65 25 100 65 25 100 65 25 100 65 25 100 65 25 100 65 25 100 65 25 100 65 25 100 65 25 100 65 25 100 65 25 100 65 25 100 65 25 100 65 25 100 65 25 100 65 25 100 65 25 100 65 25 100 65 25 100 65 25 100 65 25 100 65 25 100 65 25 100 65 25 100 65 25 100 65 25 100 65 25 100 65 25 100 65 25 100 65 25 100 65 25 100 65 25 100 65 25 100 65 25 100 65 25 100 65 25 100 65 25 100 65 25 100 65 25 100 65 25 100 65 25 100 65 25 100 65 25 100 65 25 100 65 25 100 65 25 100 65 25 100 65 25 100 65 25 100 65 25 100 65 25 100 65 25 100 65 25 100 65 25 100 65 25 100 65 25 100 65 25 100 65 25 100 65 25 100 65 25 100 65 25 100 65 25 100 65 25 100 65 25 100 65 25 100 65 25 100 65 25 100 65 25 100 65 25 100 65 25 100 65 25 100 65 25 100 65 25 100 65 25 100 65 25 100 65 25 100 65 25 100 65 25 100 65 25 100 65 25 100 65 25 100 65 25 100 65 25 100 65 25 100 65 25 100 65 25 100 65 25 100 65 25 100 65 25 100 65 25 100 65 25 100 65 25 100 65 25 100 65 25 100 65 25 100 65 25 100 65 25 100 65 25 100 65 25 100 65 25 100 65 25 100 65 25 100 65 25 100 65 25 100 65 25 100 65 25 100 65 25 100 65 25 100 65 25 100 65 25 100 65 25 100 65 25 100 65 25 100 65 25 100 65 25 100 65 25 100 65 25 100 65 25 100 65 25 100 65 25 100 65 25 100 65 25 100 65 25 100 65 25 100 65 25 100 65 25 100 65 25 100 65 25 100 65 25 100 65 25 100 65 25 100 65 25 100 65 25 100 65 25 100 65 25 100 65 25 100 65 25 100 65 25 100 65 25 100 65 25 100 65 25 100 65 25 100 65 25 100 65 25 100 65 25 100 65 25 100 65 25 100 65 25 100 65 25 100 65 25 100 65 25 100 65 25 100 65 25 100 65 25 100 65 25 100 65 25 100 65 25 100 65 25 100 65 25 100 65 25 100 65 25 100 65 25 100 65 25 100 65 25 100 65 25 100 65 25 100 65 25 100 65 25 100 65 25 100 65 25 100 65 25 100 65 25 100 65 25 100 65 25 100 65 25 100 65 25 100 65 25 100 65 25 100 65 25 100 65 25 100 65 25 100 65 25 100 65 25 100 65 25 100 65 25 100 65 25 100 65 25 100 65 25 100 65 25 100 65 25 100 65
25 100 65 25 100 65 25 100 65 25 100 65 25 100 65 25 100 65 25 100 65 25 100 65 25 100 65 25 100 65 25 100 65 25 100 65 25 100 65 25 100 65 25 100 65 25 100 65 25 100 65 25 100 65 25 100 65 25 100 65 25 100 65 25 100 65 25 100 65 25 100 65 25 100 65 25 100 65 25 100 65 25 100 65 25 100 65 25 100 65 25 100 65 25 100 65 25 100 65 25 100 65 25 100 65 25 100 65 25 100 65 25 100 65 25 100 65 25 100 65 25 100 65 25 100 65 25 100 65 25 100 65 25 100 65 25 100 65 25 100 65 25 100 65 25 100 65 25 100 65 25 100 65 25 100 65 25 100 65 25 100 65 25 100 65 25 100 65 25 100 65 25 100 65 25 100 65 25 100 65 25 100 65 25 100 65 25 100 65 25 100 65 25 100 65 25 100 65 25 100 65 25 100 65 25 100 65 25 100 65 25 100 65 25 100 65 25 100 65 25 100 65 25 100 65 25 100 65 25 100 65 25 100 65 25 100 65 25 100 65 25 100 65 25 100 65 25 100 65 25 100 65 25 100 65 25 100 65 25 100 65 25 100 65 25 100 65 25 100 65 25 100 65 25 100 65 25 100 65 25 100 65 25 100 65 25 100 65 25 100 65 25 100 65 25 100 65 25 100 65 25 100 65 25 100 65 25 100 65 25 100 65 25 100 65 25 100 65 25 100 65 25 100 65 25 100 65 25 100 65 25 100 65 25 100 65 25 100 65 25 100 65 25 100 65 25 100 65 25 100 65 25 100 65 25 100 65 25 100 65 25 100 65 25 100 65 25 100 65 25 100 65 25 100 65 25 100 65 25 100 65 25 100 65 25 100 65 25 100 65 25 100 65 25 100 65 25 100 65 25 100 65 25 100 65 25 100 65 25 100 65 25 100 65 25 100 65 25 100 65 25 100 65 25 100 65 25 100 65 25 100 65 25 100 65 25 100 65 25 100 65 25 100 65 25 100 65 25 100 65 25 100 65 25 100 65 25 100 65 25 100 65 25 100 65 25 100 65 25 100 65 25 100 65 25 100 65 25 100 65 25 100 65 25 100 65 25 100 65 25 100 65 25 100 65 25 100 65 25 100 65 25 100 65 25 100 65 25 100 65 25 100 65 25 100 65 25 100 65 25 100 65 25 100 65 25 100 65 25 100 65 25 100 65 25 100 65 25 100 65 25 100 65 25 100 65 25 100 65 25 100 65 25 100 65 25 100 65 25 100 65 25 100 65 25 100 65 25 100 65 25 100 65 25 100 65 25 100 65 25 100 65 25 100 65 25 100 65 25 100 65 25 100 65 25 100 65 25 100 65 25 100 65 25 100 65 25 100 65 25 100 65 25 100 65 25 100 65 25 100 65 25 100 65 25 100 65 25 100 65 25 100 65 25 100 65 25 100 65 25 100 65 25 100 65 25 100 65 25 100 65 25 100 65 25 100 65 25 100 65 25 100 65 25 100 65 25 100 65 25 100 65 25 100 65 25 100 65 25 100 65 25 100 65 25 100 65 25 100 65 25 100 65 25 100 65 25 100 65 25 100 65 25 100 65 25 100 65 25 100 65 25 100 65 25 100 65 25 100 65 25 100 65 25 100 65 25 100 65 25 100 65 25 100 65 25 100 65 25 100 65 25 100 65 25 100 65 25 100 65 25 100 65 25 100 65 25 100 65 25 100 65 25 100 65 25 100 65 25 100 65 25 100 65 25 100 65 25 100 65 25 100 65 25 100 65 25 100 65 25 100 65 25 100 65 25 100 65 25 100 65 25 100 65 25 100 65 25 100 65 25 100 65 25 100 65 25 100 65 25 100 65 25 100 65 25 100 65 25 100 65 25 100 65 25 100 65 25 100 65 25 100 65 25 100 65 25 100 65 25 100 65 25 100 65 25 100 65 25 100 65 25 100 65 25 100 65 25 100 65 25 100 65 25 100 65 25 100 65 25 100 65 25 100 65 25 100 65 25 100 65 25 100 65 25 100 65 25 100 65 25 100 65 25 100 65 25 100 65 25 100 65 25 100 65 25 100 65 25 100 65 25 100 65 25 100 65 25 100 65 25 100 65 25 100 65 25 100 65 25 100 65 25 100 65 25 100 65 25 100 65 25 100 65 25 100 65 25 100 65
25 100 65 25 100 65 25 100 65 25 100 65 25 100 65 25 100 65 25 100 65 25 100 65 25 100 65 25 100 65 25 100 65 25 100 65 25 100 65 25 100 65 25 100 65 25 100 65 25 100 65 25 100 65 25 100 65 25 100 65 25 100 65 25 100 65 25 100 65 25 100 65 25 100 65 25 100 65 25 100 65 25 100 65 25 100 65 25 100 65 25 100 65 25 100 65 25 100 65 25 100 65 25 100 65 25 100 65 25 100 65 25 100 65 25 100 65 25 100 65 25 100 65 25 100 65 25 100 65 25 100 65 25 100 65 25 100 65 25 100 65 25 100 65 25 100 65 25 100 65 25 100 65 25 100 65 25 100 65 25 100 65 25 100 65 25 100 65 25 100 65 25 100 65 25 100 65 25 100 65 25 100 65 25 100 65 25 100 65 25 100 65 25 100 65 25 100 65 25 100 65 25 100 65 25 100 65 25 100 65 25 100 65 25 100 65 25 100 65 25 100 65 25 100 65 25 100 65 25 100 65 25 100 65 25 100 65 25 100 65 25 100 65 25 100 65 25 100 65 25 100 65 25 100 65 25 100 65 25 100 65 25 100 65 25 100 65 25 100 65 25 100 65 25 100 65 25 100 65 25 100 65 25 100 65 25 100 65 25 100 65 25 100 65 25 100 65 25 100 65 25 100 65 25 100 65 25 100 65 25 100 65 25 100 65 25 100 65 25 100 65 25 100 65 25 100 65 25 100 65 25 100 65 25 100 65 25 100 65 25 100 65 25 100 65 25 100 65 25 100 65 25 100 65 25 100 65 25 100 65 25 100 65 25 100 65 25 100 65 25 100 65 25 100 65 25 100 65 25 100 65 25 100 65 25 100 65 25 100 65 25 100 65 25 100 65 25 100 65 25 100 65 25 100 65 25 100 65 25 100 65 25 100 65 25 100 65 25 100 65 25 100 65 25 100 65 25 100 65 25 100 65 25 100 65 25 100 65 25 100 65 25 100 65 25 100 65 25 100 65 25 100 65 25 100 65 25 100 65 25 100 65 25 100 65 25 100 65 25 100 65 25 100 65 25 100 65 25 100 65 25 100 65 25 100 65 25 100 65 25 100 65 25 100 65 25 100 65 25 100 65 25 100 65 25 100 65 25 100 65 25 100 65 25 100 65 25 100 65 25 100 65 25 100 65 25 100 65 25 100 65 25 100 65 25 100 65 25 100 65 25 100 65 25 100 65 25 100 65 25 100 65 25 100 65 25 100 65 25 100 65 25 100 65 25 100 65 25 100 65 25 100 65 25 100 65 25 100 65 25 100 65 25 100 65 25 100 65 25 100 65 25 100 65 25 100 65 25 100 65 25 100 65 25 100 65 25 100 65 25 100 65 25 100 65 25 100 65 25 100 65 25 100 65 25 100 65 25 100 65 25 100 65 25 100 65 25 100 65 25 100 65 25 100 65 25 100 65 25 100 65 25 100 65 25 100 65 25 100 65 25 100 65 25 100 65 25 100 65 25 100 65 25 100 65 25 100 65 25 100 65 25 100 65 25 100 65 25 100 65 25 100 65 25 100 65 25 100 65 25 100 65 25 100 65 25 100 65 25 100 65 25 100 65 25 100 65 25 100 65 25 100 65 25 100 65 25 100 65 25 100 65 25 100 65 25 100 65 25 100 65 25 100 65 25 100 65 25 100 65 25 100 65 25 100 65 25 100 65 25 100 65 25 100 65 25 100 65 25 100 65 25 100 65 25 100 65 25 100 65 25 100 65 25 100 65 25 100 65 25 100 65 25 100 65 25 100 65 25 100 65 25 100 65 25 100 65 25 100 65 25 100 65 25 100 65 25 100 65 25 100 65 25 100 65 25 100 65 25 100 65 25 100 65 25 100 65 25 100 65 25 100 65 25 100 65 25 100 65 25 100 65 25 100 65 25 100 65 25 100 65 25 100 65 25 100 65 25 100 65 25 100 65 25 100 65 25 100 65 25 100 65 25 100 65 25 100 65 25 100 65 25 100 65 25 100 65 25 100 65 25 100 65 25 100 65 25 100 65 25 100 65 25 100 65 25 100 65 25 100 65 25 100 65 25 100 65 25 100 65 25 100 65 25 100 65 25 100 65 25 100 65 25 100 65 25 100 65 25 100 65 25 100 65 25 100 65 25 100 65
25 100 65 25 100 65 25 100 65 25 100 65 25 100 65 25 100 65 25 100 65 25 100 65 25 100 65 25 100 65 25 100 65 25 100 65 25 100 65 25 100 65 25 100 65 25 100 65 25 100 65 25 100 65 25 100 65 25 100 65 25 100 65 25 100 65 25 100 65 25 100 65 25 100 65 25 100 65 25 100 65 25 100 65 25 100 65 25 100 65 25 100 65 25 100 65 25 100 65 25 100 65 25 100 65 25 100 65 25 100 65 25 100 65 25 100 65 25 100 65 25 100 65 25 100 65 25 100 65 25 100 65 25 100 65 25 100 65 25 100 65 25 100 65 25 100 65 25 100 65 25 100 65 25 100 65 25 100 65 25 100 65 25 100 65 25 100 65 25 100 65 25 100 65 25 100 65 25 100 65 25 100 65 25 100 65 25 100 65 25 100 65 25 100 65 25 100 65 25 100 65 25 100 65 25 100 65 25 100 65 25 100 65 25 100 65 25 100 65 25 100 65 25 100 65 25 100 65 25 100 65 25 100 65 25 100 65 25 100 65 25 100 65 25 100 65 25 100 65 25 100 65 25 100 65 25 100 65 25 100 65 25 100 65 25 100 65 25 100 65 25 100 65 25 100 65 25 100 65 25 100 65 25 100 65 25 100 65 25 100 65 25 100 65 25 100 65 25 100 65 25 100 65 25 100 65 25 100 65 25 100 65 25 100 65 25 100 65 25 100 65 25 100 65 25 100 65 25 100 65 25 100 65 25 100 65 25 100 65 25 100 65 25 100 65 25 100 65 25 100 65 25 100 65 25 100 65 25 100 65 25 100 65 25 100 65 25 100 65 25 100 65 25 100 65 25 100 65 25 100 65 25 100 65 25 100 65 25 100 65 25 100 65 25 100 65 25 100 65 25 100 65 25 100 65 25 100 65 25 100 65 25 100 65 25 100 65 25 100 65 25 100 65 25 100 65 25 100 65 25 100 65 25 100 65 25 100 65 25 100 65 25 100 65 25 100 65 25 100 65 25 100 65 25 100 65 25 100 65 25 100 65 25 100 65 25 100 65 25 100 65 25 100 65 25 100 65 25 100 65 25 100 65 25 100 65 25 100 65 25 100 65 25 100 65 25 100 65 25 100 65 25 100 65 25 100 65 25 100 65 25 100 65 25 100 65 25 100 65 25 100 65 25 100 65 25 100 65 25 100 65 25 100 65 25 100 65 25 100 65 25 100 65 25 100 65 25 100 65 25 100 65 25 100 65 25 100 65 25 100 65 25 100 65 25 100 65 25 100 65 25 100 65 25 100 65 25 100 65 25 100 65 25 100 65 25 100 65 25 100 65 25 100 65 25 100 65 25 100 65 25 100 65 25 100 65 25 100 65 25 100 65 25 100 65 25 100 65 25 100 65 25 100 65 25 100 65 25 100 65 25 100 65 25 100 65 25 100 65 25 100 65 25 100 65 25 100 65 25 100 65 25 100 65 25 100 65 25 100 65 25 100 65 25 100 65 25 100 65 25 100 65 25 100 65 25 100 65 25 100 65 25 100 65 25 100 65 25 100 65 25 100 65 25 100 65 25 100 65 25 100 65 25 100 65 25 100 65 25 100 65 25 100 65 25 100 65 25 100 65 25 100 65 25 100 65 25 100 65 25 100 65 25 100 65 25 100 65 25 100 65 25 100 65 25 100 65 25 100 65 25 100 65 25 100 65 25 100 65 25 100 65 25 100 65 25 100 65 25 100 65 25 100 65 25 100 65 25 100 65 25 100 65 25 100 65 25 100 65 25 100 65 25 100 65 25 100 65 25 100 65 25 100 65 25 100 65 25 100 65 25 100 65 25 100 65 25 100 65 25 100 65 25 100 65 25 100 65 25 100 65 25 100 65 25 100 65 25 100 65 25 100 65 25 100 65 25 100 65 25 100 65 25 100 65 25 100 65 25 100 65 25 100 65 25 100 65 25 100 65 25 100 65 25 100 65 25 100 65 25 100 65 25 100 65 25 100 65 25 100 65 25 100 65 25 100 65 25 100 65 25 100 65 25 100 65 25 100 65 25 100 65 25 100 65 25 100 65 25 100 65 25 100 65 25 100 65 25 100 65 25 100 65 25 100 65 25 100 65 25 100 65 25 100 65 25 100 65 25 100 65 25 100 65 25 100 65 25 100 65
25 100 65 25 100 65 25 100 65 25 100 65 25 100 65 25 100 65 25 100 65 25 100 65 25 100 65 25 100 65 25 100 65 25 100 65 25 100 65 25 100 65 25 100 65 25 100 65 25 100 65 25 100 65 25 100 65 25 100 65 25 100 65 25 100 65 25 100 65 25 100 65 25 100 65 25 100 65 25 100 65 25 100 65 25 100 65 25 100 65 25 100 65 25 100 65 25 100 65 25 100 65 25 100 65 25 100 65 25 100 65 25 100 65 25 100 65 25 100 65 25 100 65 25 100 65 25 100 65 25 100 65 25 100 65 25 100 65 25 100 65 25 100 65 25 100 65 25 100 65 25 100 65 25 100 65 25 100 65 25 100 65 25 100 65 25 100 65 25 100 65 25 100 65 25 100 65 25 100 65 25 100 65 25 100 65 25 100 65 25 100 65 25 100 65 25 100 65 25 100 65 25 100 65 25 100 65 25 100 65 25 100 65 25 100 65 25 100 65 25 100 65 25 100 65 25 100 65 25 100 65 25 100 65 25 100 65 25 100 65 25 100 65 25 100 65 25 100 65 25 100 65 25 100 65 25 100 65 25 100 65 25 100 65 25 100 65 25 100 65 25 100 65 25 100 65 25 100 65 25 100 65 25 100 65 25 100 65 25 100 65 25 100 65 25 100 65 25 100 65 25 100 65 25 100 65 25 100 65 25 100 65 25 100 65 25 100 65 25 100 65 25 100 65 25 100 65 25 100 65 25 100 65 25 100 65 25 100 65 25 100 65 25 100 65 25 100 65 25 100 65 25 100 65 25 100 65 25 100 65 25 100 65 25 100 65 25 100 65 25 100 65 25 100 65 25 100 65 25 100 65 25 100 65 25 100 65 25 100 65 25 100 65 25 100 65 25 100 65 25 100 65 25 100 65 25 100 65 25 100 65 25 100 65 25 100 65 25 100 65 25 100 65 25 100 65 25 100 65 25 100 65 25 100 65 25 100 65 25 100 65 25 100 65 25 100 65 25 100 65 25 100 65 25 100 65 25 100 65 25 100 65 25 100 65 25 100 65 25 100 65 25 100 65 25 100 65 25 100 65 25 100 65 25 100 65 25 100 65 25 100 65 25 100 65 25 100 65 25 100 65 25 100 65 25 100 65 25 100 65 25 100 65 25 100 65 25 100 65 25 100 65 25 100 65 25 100 65 25 100 65 25 100 65 25 100 65 25 100 65 25 100 65 25 100 65 25 100 65 25 100 65 25 100 65 25 100 65 25 100 65 25 100 65 25 100 65 25 100 65 25 100 65 25 100 65 25 100 65 25 100 65 25 100 65 25 100 65 25 100 65 25 100 65 25 100 65 25 100 65 25 100 65 25 100 65 25 100 65 25 100 65 25 100 65 25 100 65 25 100 65 25 100 65 25 100 65 25 100 65 25 100 65 25 100 65 25 100 65 25 100 65 25 100 65 25 100 65 25 100 65 25 100 65 25 100 65 25 100 65 25 100 65 25 100 65 25 100 65 25 100 65 25 100 65 25 100 65 25 100 65 25 100 65 25 100 65 25 100 65 25 100 65 25 100 65 25 100 65 25 100 65 25 100 65 25 100 65 25 100 65 25 100 65 25 100 65 25 100 65 25 100 65 25 100 65 25 100 65 25 100 65 25 100 65 25 100 65 25 100 65 25 100 65 25 100 65 25 100 65 25 100 65 25 100 65 25 100 65 25 100 65 25 100 65 25 100 65 25 100 65 25 100 65 25 100 65 25 100 65 25 100 65 25 100 65 25 100 65 25 100 65 25 100 65 25 100 65 25 100 65 25 100 65 25 100 65 25 100 65 25 100 65 25 100 65 25 100 65 25 100 65 25 100 65 25 100 65 25 100 65 25 100 65 25 100 65 25 100 65 25 100 65 25 100 65 25 100 65 25 100 65 25 100 65 25 100 65 25 100 65 25 100 65 25 100 65 25 100 65 25 100 65 25 100 65 25 100 65 25 100 65 25 100 65 25 100 65 25 100 65 25 100 65 25 100 65 25 100 65 25 100 65 25 100 65 25 100 65 25 100 65 25 100 65 25 100 65 25 100 65 25 100 65 25 100 65 25 100 65 25 100 65 25 100 65 25 100 65 25 100 65 25 100 65 25 100 65 25 100 65 25 100 65 25 100 65 25 100 65
25 100 65 25 100 65 25 100 65 25 100 65 25 100 65 25 100 65 25 100 65 25 100 65 25 100 65 25 100 65 25 100 65 25 100 65 25 100 65 25 100 65 25 100 65 25 100 65 25 100 65 25 100 65 25 100 65 25 100 65 25 100 65 25 100 65 25 100 65 25 100 65 25 100 65 25 100 65 25 100 65 25 100 65 25 100 65 25 100 65 25 100 65 25 100 65 25 100 65 25 100 65 25 100 65 25 100 65 25 100 65 25 100 65 25 100 65 25 100 65 25 100 65 25 100 65 25 100 65 25 100 65 25 100 65 25 100 65 25 100 65 25 100 65 25 100 65 25 100 65 25 100 65 25 100 65 25 100 65 25 100 65 25 100 65 25 100 65 25 100 65 25 100 65 25 100 65 25 100 65 25 100 65 25 100 65 25 100 65 25 100 65 25 100 65 25 100 65 25 100 65 25 100 65 25 100 65 25 100 65 25 100 65 25 100 65 25 100 65 25 100 65 25 100 65 25 100 65 25 100 65 25 100 65 25 100 65 25 100 65 25 100 65 25 100 65 25 100 65 25 100 65 25 100 65 25 100 65 25 100 65 25 100 65 25 100 65 25 100 65 25 100 65 25 100 65 25 100 65 25 100 65 25 100 65 25 100 65 25 100 65 25 100 65 25 100 65 25 100 65 25 100 65 25 100 65 25 100 65 25 100 65 25 100 65 25 100 65 25 100 65 25 100 65 25 100 65 25 100 65 25 100 65 25 100 65 25 100 65 25 100 65 25 100 65 25 100 65 25 100 65 25 100 65 25 100 65 25 100 65 25 100 65 25 100 65 25 100 65 25 100 65 25 100 65 25 100 65 25 100 65 25 100 65 25 100 65 25 100 65 25 100 65 25 100 65 25 100 65 25 100 65 25 100 65 25 100 65 25 100 65 25 100 65 25 100 65 25 100 65 25 100 65 25 100 65 25 100 65 25 100 65 25 100 65 25 100 65 25 100 65 25 100 65 25 100 65 25 100 65 25 100 65 25 100 65 25 100 65 25 100 65 25 100 65 25 100 65 25 100 65 25 100 65 25 100 65 25 100 65 25 100 65 25 100 65 25 100 65 25 100 65 25 100 65 25 100 65 25 100 65 25 100 65 25 100 65 25 100 65 25 100 65 25 100 65 25 100 65 25 100 65 25 100 65 25 100 65 25 100 65 25 100 65 25 100 65 25 100 65 25 100 65 25 100 65 25 100 65 25 100 65 25 100 65 25 100 65 25 100 65 25 100 65 25 100 65 25 100 65 25 100 65 25 100 65 25 100 65 25 100 65 25 100 65 25 100 65 25 100 65 25 100 65 25 100 65 25 100 65 25 100 65 25 100 65 25 100 65 25 100 65 25 100 65 25 100 65 25 100 65 25 100 65 25 100 65 25 100 65 25 100 65 25 100 65 25 100 65 25 100 65 25 100 65 25 100 65 25 100 65 25 100 65 25 100 65 25 100 65 25 100 65 25 100 65 25 100 65 25 100 65 25 100 65 25 100 65 25 100 65 25 100 65 25 100 65 25 100 65 25 100 65 25 100 65 25 100 65 25 100 65 25 100 65 25 100 65 25 100 65 25 100 65 25 100 65 25 100 65 25 100 65 25 100 65 25 100 65 25 100 65 25 100 65 25 100 65 25 100 65 25 100 65 25 100 65 25 100 65 25 100 65 25 100 65 25 100 65 25 100 65 25 100 65 25 100 65 25 100 65 25 100 65 25 100 65 25 100 65 25 100 65 25 100 65 25 100 65 25 100 65 25 100 65 25 100 65 25 100 65 25 100 65 25 100 65 25 100 65 25 100 65 25 100 65 25 100 65 25 100 65 25 100 65 25 100 65 25 100 65 25 100 65 25 100 65 25 100 65 25 100 65 25 100 65 25 100 65 25 100 65 25 100 65 25 100 65 25 100 65 25 100 65 25 100 65 25 100 65 25 100 65 25 100 65 25 100 65 25 100 65 25 100 65 25 100 65 25 100 65 25 100 65 25 100 65 25 100 65 25 100 65 25 100 65 25 100 65 25 100 65 25 100 65 25 100 65 25 100 65 25 100 65 25 100 65 25 100 65 25 100 65 25 100 65 25 100 65 25 100 65 25 100 65 25 100 65 25 100 65 25 100 65 25 100 65 25 100 65
25 100 65 25 100 65 25 100 65 25 100 65 25 100 65 25 100 65 25 100 65 25 100 65 25 100 65 25 100 65 25 100 65 25 100 65 25 100 65 25 100 65 25 100 65 25 100 65 25 100 65 25 100 65 25 100 65 25 100 65 25 100 65 25 100 65 25 100 65 25 100 65 25 100 65 25 100 65 25 100 65 25 100 65 25 100 65 25 100 65 25 100 65 25 100 65 25 100 65 25 100 65 25 100 65 25 100 65 25 100 65 25 100 65 25 100 65 25 100 65 25 100 65 25 100 65 25 100 65 25 100 65 25 100 65 25 100 65 25 100 65 25 100 65 25 100 65 25 100 65 25 100 65 25 100 65 25 100 65 25 100 65 25 100 65 25 100 65 25 100 65 25 100 65 25 100 65 25 100 65 25 100 65 25 100 65 25 100 65 25 100 65 25 100 65 25 100 65 25 100 65 25 100 65 25 100 65 25 100 65 25 100 65 25 100 65 25 100 65 25 100 65 25 100 65 25 100 65 25 100 65 25 100 65 25 100 65 25 100 65 25 100 65 25 100 65 25 100 65 25 100 65 25 100 65 25 100 65 25 100 65 25 100 65 25 100 65 25 100 65 25 100 65 25 100 65 25 100 65 25 100 65 25 100 65 25 100 65 25 100 65 25 100 65 25 100 65 25 100 65 25 100 65 25 100 65 25 100 65 25 100 65 25 100 65 25 100 65 25 100 65 25 100 65 25 100 65 25 100 65 25 100 65 25 100 65 25 100 65 25 100 65 25 100 65 25 100 65 25 100 65 25 100 65 25 100 65 25 100 65 25 100 65 25 100 65 25 100 65 25 100 65 25 100 65 25 100 65 25 100 65 25 100 65 25 100 65 25 100 65 25 100 65 25 100 65 25 100 65 25 100 65 25 100 65 25 100 65 25 100 65 25 100 65 25 100 65 25 100 65 25 100 65 25 100 65 25 100 65 25 100 65 25 100 65 25 100 65 25 100 65 25 100 65 25 100 65 25 100 65 25 100 65 25 100 65 25 100 65 25 100 65 25 100 65 25 100 65 25 100 65 25 100 65 25 100 65 25 100 65 25 100 65 25 100 65 25 100 65 25 100 65 25 100 65 25 100 65 25 100 65 25 100 65 25 100 65 25 100 65 25 100 65 25 100 65 25 100 65 25 100 65 25 100 65 25 100 65 25 100 65 25 100 65 25 100 65 25 100 65 25 100 65 25 100 65 25 100 65 25 100 65 25 100 65 25 100 65 25 100 65 25 100 65 25 100 65 25 100 65 25 100 65 25 100 65 25 100 65 25 100 65 25 100 65 25 100 65 25 100 65 25 100 65 25 100 65 25 100 65 25 100 65 25 100 65 25 100 65 25 100 65 25 100 65 25 100 65 25 100 65 25 100 65 25 100 65 25 100 65 25 100 65 25 100 65 25 100 65 25 100 65 25 100 65 25 100 65 25 100 65 25 100 65 25 100 65 25 100 65 25 100 65 25 100 65 25 100 65 25 100 65 25 100 65 25 100 65 25 100 65 25 100 65 25 100 65 25 100 65 25 100 65 25 100 65 25 100 65 25 100 65 25 100 65 25 100 65 25 100 65 25 100 65 25 100 65 25 100 65 25 100 65 25 100 65 25 100 65 25 100 65 25 100 65 25 100 65 25 100 65 25 100 65 25 100 65 25 100 65 25 100 65 25 100 65 25 100 65 25 100 65 25 100 65 25 100 65 25 100 65 25 100 65 25 100 65 25 100 65 25 100 65 25 100 65 25 100 65 25 100 65 25 100 65 25 100 65 25 100 65 25 100 65 25 100 65 25 100 65 25 100 65 25 100 65 25 100 65 25 100 65 25 100 65 25 100 65 25 100 65 25 100 65 25 100 65 25 100 65 25 100 65 25 100 65 25 100 65 25 100 65 25 100 65 25 100 65 25 100 65 25 100 65 25 100 65 25 100 65 25 100 65 25 100 65 25 100 65 25 100 65 25 100 65 25 100 65 25 100 65 25 100 65 25 100 65 25 100 65 25 100 65 25 100 65 25 100 65 25 100 65 25 100 65 25 100 65 25 100 65 25 100 65 25 100 65 25 100 65 25 100 65 25 100 65 25 100 65 25 100 65 25 100 65 25 100 65 25 100 65 25 100 65 25 100 65 25 100 65
25 100 65 25 100 65 25 100 65 25 100 65 25 100 65 25 100 65 25 100 65 25 100 65 25 100 65 25 100 65 25 100 65 25 100 65 25 100 65 25 100 65 25 100 65 25 100 65 25 100 65 25 100 65 25 100 65 25 100 65 25 100 65 25 100 65 25 100 65 25 100 65 25 100 65 25 100 65 25 100 65 25 100 65 25 100 65 25 100 65 25 100 65 25 100 65 25 100 65 25 100 65 25 100 65 25 100 65 25 100 65 25 100 65 25 100 65 25 100 65 25 100 65 25 100 65 25 100 65 25 100 65 25 100 65 25 100 65 25 100 65 25 100 65 25 100 65 25 100 65 25 100 65 25 100 65 25 100 65 25 100 65 25 100 65 25 100 65 25 100 65 25 100 65 25 100 65 25 100 65 25 100 65 25 100 65 25 100 65 25 100 65 25 100 65 25 100 65 25 100 65 25 100 65 25 100 65 25 100 65 25 100 65 25 100 65 25 100 65 25 100 65 25 100 65 25 100 65 25 100 65 25 100 65 25 100 65 25 100 65 25 100 65 25 100 65 25 100 65 25 100 65 25 100 65 25 100 65 25 100 65 25 100 65 25 100 65 25 100 65 25 100 65 25 100 65 25 100 65 25 100 65 25 100 65 25 100 65 25 100 65 25 100 65 25 100 65 25 100 65 25 100 65 25 100 65 25 100 65 25 100 65 25 100 65 25 100 65 25 100 65 25 100 65 25 100 65 25 100 65 25 100 65 25 100 65 25 100 65 25 100 65 25 100 65 25 100 65 25 100 65 25 100 65 25 100 65 25 100 65 25 100 65 25 100 65 25 100 65 25 100 65 25 100 65 25 100 65 25 100 65 25 100 65 25 100 65 25 100 65 25 100 65 25 100 65 25 100 65 25 100 65 25 100 65 25 100 65 25 100 65 25 100 65 25 100 65 25 100 65 25 100 65 25 100 65 25 100 65 25 100 65 25 100 65 25 100 65 25 100 65 25 100 65 25 100 65 25 100 65 25 100 65 25 100 65 25 100 65 25 100 65 25 100 65 25 100 65 25 100 65 25 100 65 25 100 65 25 100 65 25 100 65 25 100 65 25 100 65 25 100 65 25 100 65 25 100 65 25 100 65 25 100 65 25 100 65 25 100 65 25 100 65 25 100 65 25 100 65 25 100 65 25 100 65 25 100 65 25 100 65 25 100 65 25 100 65 25 100 65 25 100 65 25 100 65 25 100 65 25 100 65 25 100 65 25 100 65 25 100 65 25 100 65 25 100 65 25 100 65 25 100 65 25 100 65 25 100 65 25 100 65 25 100 65 25 100 65 25 100 65 25 100 65 25 100 65 25 100 65 25 100 65 25 100 65 25 100 65 25 100 65 25 100 65 25 100 65 25 100 65 25 100 65 25 100 65 25 100 65 25 100 65 25 100 65 25 100 65 25 100 65 25 100 65 25 100 65 25 100 65 25 100 65 25 100 65 25 100 65 25 100 65 25 100 65 25 100 65 25 100 65 25 100 65 25 100 65 25 100 65 25 100 65 25 100 65 25 100 65 25 100 65 25 100 65 25 100 65 25 100 65 25 100 65 25 100 65 25 100 65 25 100 65 25 100 65 25 100 65 25 100 65 25 100 65 25 100 65 25 100 65 25 100 65 25 100 65 25 100 65 25 100 65 25 100 65 25 100 65 25 100 65 25 100 65 25 100 65 25 100 65 25 100 65 25 100 65 25 100 65 25 100 65 25 100 65 25 100 65 25 100 65 25 100 65 25 100 65 25 100 65 25 100 65 25 100 65 25 100 65 25 100 65 25 100 65 25 100 65 25 100 65 25 100 65 25 100 65 25 100 65 25 100 65 25 100 65 25 100 65 25 100 65 25 100 65 25 100 65 25 100 65 25 100 65 25 100 65 25 100 65 25 100 65 25 100 65 25 100 65 25 100 65 25 100 65 25 100 65 25 100 65 25 100 65 25 100 65 25 100 65 25 100 65 25 100 65 25 100 65 25 100 65 25 100 65 25 100 65 25 100 65 25 100 65 25 100 65 25 100 65 25 100 65 25 100 65 25 100 65 25 100 65 25 100 65 25 100 65 25 100 65 25 100 65 25 100 65 25 100 65 25 100 65 25 100 65 25 100 65 25 100 65 25 100 65 25 100 65
25 100 65 25 100 65 25 100 65 25 100 65 25 100 65 25 100 65 25 100 65 25 100 65 25 100 65 25 100 65 25 100 65 25 100 65 25 100 65 25 100 65 25 100 65 25 100 65 25 100 65 25 100 65 25 100 65 25 100 65 25 100 65 25 100 65 25 100 65 25 100 65 25 100 65 25 100 65 25 100 65 25 100 65 25 100 65 25 100 65 25 100 65 25 100 65 25 100 65 25 100 65 25 100 65 25 100 65 25 100 65 25 100 65 25 100 65 25 100 65 25 100 65 25 100 65 25 100 65 25 100 65 25 100 65 25 100 65 25 100 65 25 100 65 25 100 65 25 100 65 25 100 65 25 100 65 25 100 65 25 100 65 25 100 65 25 100 65 25 100 65 25 100 65 25 100 65 25 100 65 25 100 65 25 100 65 25 100 65 25 100 65 25 100 65 25 100 65 25 100 65 25 100 65 25 100 65 25 100 65 25 100 65 25 100 65 25 100 65 25 100 65 25 100 65 25 100 65 25 100 65 25 100 65 25 100 65 25 100 65 25 100 65 25 100 65 25 100 65 25 100 65 25 100 65 25 100 65 25 100 65 25 100 65 25 100 65 25 100 65 25 100 65 25 100 65 25 100 65 25 100 65 25 100 65 25 100 65 25 100 65 25 100 65 25 100 65 25 100 65 25 100 65 25 100 65 25 100 65 25 100 65 25 100 65 25 100 65 25 100 65 25 100 65 25 100 65 25 100 65 25 100 65 25 100 65 25 100 65 25 100 65 25 100 65 25 100 65 25 100 65 25 100 65 25 100 65 25 100 65 25 100 65 25 100 65 25 100 65 25 100 65 25 100 65 25 100 65 25 100 65 25 100 65 25 100 65 25 100 65 25 100 65 25 100 65 25 100 65 25 100 65 25 100 65 25 100 65 25 100 65 25 100 65 25 100 65 25 100 65 25 100 65 25 100 65 25 100 65 25 100 65 25 100 65 25 100 65 25 100 65 25 100 65 25 100 65 25 100 65 25 100 65 25 100 65 25 100 65 25 100 65 25 100 65 25 100 65 25 100 65 25 100 65 25 100 65 25 100 65 25 100 65 25 100 65 25 100 65 25 100 65 25 100 65 25 100 65 25 100 65 25 100 65 25 100 65 25 100 65 25 100 65 25 100 65 25 100 65 25 100 65 25 100 65 25 100 65 25 100 65 25 100 65 25 100 65 25 100 65 25 100 65 25 100 65 25 100 65 25 100 65 25 100 65 25 100 65 25 100 65 25 100 65 25 100 65 25 100 65 25 100 65 25 100 65 25 100 65 25 100 65 25 100 65 25 100 65 25 100 65 25 100 65 25 100 65 25 100 65 25 100 65 25 100 65 25 100 65 25 100 65 25 100 65 25 100 65 25 100 65 25 100 65 25 100 65 25 100 65 25 100 65 25 100 65 25 100 65 25 100 65 25 100 65 25 100 65 25 100 65 25 100 65 25 100 65 25 100 65 25 100 65 25 100 65 25 100 65 25 100 65 25 100 65 25 100 65 25 100 65 25 100 65 25 100 65 25 100 65 25 100 65 25 100 65 25 100 65 25 100 65 25 100 65 25 100 65 25 100 65 25 100 65 25 100 65 25 100 65 25 100 65 25 100 65 25 100 65 25 100 65 25 100 65 25 100 65 25 100 65 25 100 65 25 100 65 25 100 65 25 100 65 25 100 65 25 100 65 25 100 65 25 100 65 25 100 65 25 100 65 25 100 65 25 100 65 25 100 65 25 100 65 25 100 65 25 100 65 25 100 65 25 100 65 25 100 65 25 100 65 25 100 65 25 100 65 25 100 65 25 100 65 25 100 65 25 100 65 25 100 65 25 100 65 25 100 65 25 100 65 25 100 65 25 100 65 25 100 65 25 100 65 25 100 65 25 100 65 25 100 65 25 100 65 25 100 65 25 100 65 25 100 65 25 100 65 25 100 65 25 100 65 25 100 65 25 100 65 25 100 65 25 100 65 25 100 65 25 100 65 25 100 65 25 100 65 25 100 65 25 100 65 25 100 65 25 100 65 25 100 65 25 100 65 25 100 65 25 100 65 25 100 65 25 100 65 25 100 65 25 100 65 25 100 65 25 100 65 25 100 65 25 100 65 25 100 65 25 100 65 25 100 65 25 100 65 25 100 65
25 100 65 25 100 65 25 100 65 25 100 65 25 100 65 25 100 65 25 100 65 25 100 65 25 100 65 25 100 65 25 100 65 25 100 65 25 100 65 25 100 65 25 100 65 25 100 65 25 100 65 25 100 65 25 100 65 25 100 65 25 100 65 25 100 65 25 100 65 25 100 65 25 100 65 25 100 65 25 100 65 25 100 65 25 100 65 25 100 65 25 100 65 25 100 65 25 100 65 25 100 65 25 100 65 25 100 65 25 100 65 25 100 65 25 100 65 25 100 65 25 100 65 25 100 65 25 100 65 25 100 65 25 100 65 25 100 65 25 100 65 25 100 65 25 100 65 25 100 65 25 100 65 25 100 65 25 100 65 25 100 65 25 100 65 25 100 65 25 100 65 25 100 65 25 100 65 25 100 65 25 100 65 25 100 65 25 100 65 25 100 65 25 100 65 25 100 65 25 100 65 25 100 65 25 100 65 25 100 65 25 100 65 25 100 65 25 100 65 25 100 65 25 100 65 25 100 65 25 100 65 25 100 65 25 100 65 25 100 65 25 100 65 25 100 65 25 100 65 25 100 65 25 100 65 25 100 65 25 100 65 25 100 65 25 100 65 25 100 65 25 100 65 25 100 65 25 100 65 25 100 65 25 100 65 25 100 65 25 100 65 25 100 65 25 100 65 25 100 65 25 100 65 25 100 65 25 100 65 25 100 65 25 100 65 25 100 65 25 100 65 25 100 65 25 100 65 25 100 65 25 100 65 25 100 65 25 100 65 25 100 65 25 100 65 25 100 65 25 100 65 25 100 65 25 100 65 25 100 65 25 100 65 25 100 65 25 100 65 25 100 65 25 100 65 25 100 65 25 100 65 25 100 65 25 100 65 25 100 65 25 100 65 25 100 65 25 100 65 25 100 65 25 100 65 25 100 65 25 100 65 25 100 65 25 100 65 25 100 65 25 100 65 25 100 65 25 100 65 25 100 65 25 100 65 25 100 65 25 100 65 25 100 65 25 100 65 25 100 65 25 100 65 25 100 65 25 100 65 25 100 65 25 100 65 25 100 65 25 100 65 25 100 65 25 100 65 25 100 65 25 100 65 25 100 65 25 100 65 25 100 65 25 100 65 25 100 65 25 100 65 25 100 65 25 100 65 25 100 65 25 100 65 25 100 65 25 100 65 25 100 65 25 100 65 25 100 65 25 100 65 25 100 65 25 100 65 25 100 65 25 100 65 25 100 65 25 100 65 25 100 65 25 100 65 25 100 65 25 100 65 25 100 65 25 100 65 25 100 65 25 100 65 25 100 65 25 100 65 25 100 65 25 100 65 25 100 65 25 100 65 25 100 65 25 100 65 25 100 65 25 100 65 25 100 65 25 100 65 25 100 65 25 100 65 25 100 65 25 100 65 25 100 65 25 100 65 25 100 65 25 100 65 25 100 65 25 100 65 25 100 65 25 100 65 25 100 65 25 100 65 25 100 65 25 100 65 25 100 65 25 100 65 25 100 65 25 100 65 25 100 65 25 100 65 25 100 65 25 100 65 25 100 65 25 100 65 25 100 65 25 100 65 25 100 65 25 100 65 25 100 65 25 100 65 25 100 65 25 100 65 25 100 65 25 100 65 25 100 65 25 100 65 25 100 65 25 100 65 25 100 65 25 100 65 25 100 65 25 100 65 25 100 65 25 100 65 25 100 65 25 100 65 25 100 65 25 100 65 25 100 65 25 100 65 25 100 65 25 100 65 25 100 65 25 100 65 25 100 65 25 100 65 25 100 65 25 100 65 25 100 65 25 100 65 25 100 65 25 100 65 25 100 65 25 100 65 25 100 65 25 100 65 25 100 65 25 100 65 25 100 65 25 100 65 25 100 65 25 100 65 25 100 65 25 100 65 25 100 65 25 100 65 25 100 65 25 100 65 25 100 65 25 100 65 25 100 65 25 100 65 25 100 65 25 100 65 25 100 65 25 100 65 25 100 65 25 100 65 25 100 65 25 100 65 25 100 65 25 100 65 25 100 65 25 100 65 25 100 65 25 100 65 25 100 65 25 100 65 25 100 65 25 100 65 25 100 65 25 100 65 25 100 65 25 100 65 25 100 65 25 100 65 25 100 65 25 100 65 25 100 65 25 100 65 25 100 65 25 100 65 25 100 65 25 100 65 25 100 65
25 100 65 25 100 65 25 100 65 25 100 65 25 100 65 25 100 65 25 100 65 25 100 65 25 100 65 25 100 65 25 100 65 25 100 65 25 100 65 25 100 65 25 100 65 25 100 65 25 100 65 25 100 65 25 100 65 25 100 65 25 100 65 25 100 65 25 100 65 25 100 65 25 100 65 25 100 65 25 100 65 25 100 65 25 100 65 25 100 65 25 100 65 25 100 65 25 100 65 25 100 65 25 100 65 25 100 65 25 100 65 25 100 65 25 100 65 25 100 65 25 100 65 25 100 65 25 100 65 25 100 65 25 100 65 25 100 65 25 100 65 25 100 65 25 100 65 25 100 65 25 100 65 25 100 65 25 100 65 25 100 65 25 100 65 25 100 65 25 100 65 25 100 65 25 100 65 25 100 65 25 100 65 25 100 65 25 100 65 25 100 65 25 100 65 25 100 65 25 100 65 25 100 65 25 100 65 25 100 65 25 100 65 25 100 65 25 100 65 25 100 65 25 100 65 25 100 65 25 100 65 25 100 65 25 100 65 25 100 65 25 100 65 25 100 65 25 100 65 25 100 65 25 100 65 25 100 65 25 100 65 25 100 65 25 100 65 25 100 65 25 100 65 25 100 65 25 100 65 25 100 65 25 100 65 25 100 65 25 100 65 25 100 65 25 100 65 25 100 65 25 100 65 25 100 65 25 100 65 25 100 65 25 100 65 25 100 65 25 100 65 25 100 65 25 100 65 25 100 65 25 100 65 25 100 65 25 100 65 25 100 65 25 100 65 25 100 65 25 100 65 25 100 65 25 100 65 25 100 65 25 100 65 25 100 65 25 100 65 25 100 65 25 100 65 25 100 65 25 100 65 25 100 65 25 100 65 25 100 65 25 100 65 25 100 65 25 100 65 25 100 65 25 100 65 25 100 65 25 100 65 25 100 65 25 100 65 25 100 65 25 100 65 25 100 65 25 100 65 25 100 65 25 100 65 25 100 65 25 100 65 25 100 65 25 100 65 25 100 65 25 100 65 25 100 65 25 100 65 25 100 65 25 100 65 25 100 65 25 100 65 25 100 65 25 100 65 25 100 65 25 100 65 25 100 65 25 100 65 25 100 65 25 100 65 25 100 65 25 100 65 25 100 65 25 100 65 25 100 65 25 100 65 25 100 65 25 100 65 25 100 65 25 100 65 25 100 65 25 100 65 25 100 65 25 100 65 25 100 65 25 100 65 25 100 65 25 100 65 25 100 65 25 100 65 25 100 65 25 100 65 25 100 65 25 100 65 25 100 65 25 100 65 25 100 65 25 100 65 25 100 65 25 100 65 25 100 65 25 100 65 25 100 65 25 100 65 25 100 65 25 100 65 25 100 65 25 100 65 25 100 65 25 100 65 25 100 65 25 100 65 25 100 65 25 100 65 25 100 65 25 100 65 25 100 65 25 100 65 25 100 65 25 100 65 25 100 65 25 100 65 25 100 65 25 100 65 25 100 65 25 100 65 25 100 65 25 100 65 25 100 65 25 100 65 25 100 65 25 100 65 25 100 65 25 100 65 25 100 65 25 100 65 25 100 65 25 100 65 25 100 65 25 100 65 25 100 65 25 100 65 25 100 65 25 100 65 25 100 65 25 100 65 25 100 65 25 100 65 25 100 65 25 100 65 25 100 65 25 100 65 25 100 65 25 100 65 25 100 65 25 100 65 25 100 65 25 100 65 25 100 65 25 100 65 25 100 65 25 100 65 25 100 65 25 100 65 25 100 65 25 100 65 25 100 65 25 100 65 25 100 65 25 100 65 25 100 65 25 100 65 25 100 65 25 100 65 25 100 65 25 100 65 25 100 65 25 100 65 25 100 65 25 100 65 25 100 65 25 100 65 25 100 65 25 100 65 25 100 65 25 100 65 25 100 65 25 100 65 25 100 65 25 100 65 25 100 65 25 100 65 25 100 65 25 100 65 25 100 65 25 100 65 25 100 65 25 100 65 25 100 65 25 100 65 25 100 65 25 100 65 25 100 65 25 100 65 25 100 65 25 100 65 25 100 65 25 100 65 25 100 65 25 100 65 25 100 65 25 100 65 25 100 65 25 100 65 25 100 65 25 100 65 25 100 65 25 100 65 25 100 65 25 100 65 25 100 65 25 100 65 25 100 65 25 100 65 25 100 65
25 100 65 25 100 65 25 100 65 25 100 65 25 100 65 25 100 65 25 100 65 25 100 65 25 100 65 25 100 65 25 100 65 25 100 65 25 100 65 25 100 65 25 100 65 25 100 65 25 100 65 25 100 65 25 100 65 25 100 65 25 100 65 25 100 65 25 100 65 25 100 65 25 100 65 25 100 65 25 100 65 25 100 65 25 100 65 25 100 65 25 100 65 25 100 65 25 100 65 25 100 65 25 100 65 25 100 65 25 100 65 25 100 65 25 100 65 25 100 65 25 100 65 25 100 65 25 100 65 25 100 65 25 100 65 25 100 65 25 100 65 25 100 65 25 100 65 25 100 65 25 100 65 25 100 65 25 100 65 25 100 65 25 100 65 25 100 65 25 100 65 25 100 65 25 100 65 25 100 65 25 100 65 25 100 65 25 100 65 25 100 65 25 100 65 25 100 65 25 100 65 25 100 65 25 100 65 25 100 65 25 100 65 25 100 65 25 100 65 25 100 65 25 100 65 25 100 65 25 100 65 25 100 65 25 100 65 25 100 65 25 100 65 25 100 65 25 100 65 25 100 65 25 100 65 25 100 65 25 100 65 25 100 65 25 100 65 25 100 65 25 100 65 25 100 65 25 100 65 25 100 65 25 100 65 25 100 65 25 100 65 25 100 65 25 100 65 25 100 65 25 100 65 25 100 65 25 100 65 25 100 65 25 100 65 25 100 65 25 100 65 25 100 65 25 100 65 25 100 65 25 100 65 25 100 65 25 100 65 25 100 65 25 100 65 25 100 65 25 100 65 25 100 65 25 100 65 25 100 65 25 100 65 25 100 65 25 100 65 25 100 65 25 100 65 25 100 65 25 100 65 25 100 65 25 100 65 25 100 65 25 100 65 25 100 65 25 100 65 25 100 65 25 100 65 25 100 65 25 100 65 25 100 65 25 100 65 25 100 65 25 100 65 25 100 65 25 100 65 25 100 65 25 100 65 25 100 65 25 100 65 25 100 65 25 100 65 25 100 65 25 100 65 25 100 65 25 100 65 25 100 65 25 100 65 25 100 65 25 100 65 25 100 65 25 100 65 25 100 65 25 100 65 25 100 65 25 100 65 25 100 65 25 100 65 25 100 65 25 100 65 25 100 65 25 100 65 25 100 65 25 100 65 25 100 65 25 100 65 25 100 65 25 100 65 25 100 65 25 100 65 25 100 65 25 100 65 25 100 65 25 100 65 25 100 65 25 100 65 25 100 65 25 100 65 25 100 65 25 100 65 25 100 65 25 100 65 25 100 65 25 100 65 25 100 65 25 100 65 25 100 65 25 100 65 25 100 65 25 100 65 25 100 65 25 100 65 25 100 65 25 100 65 25 100 65 25 100 65 25 100 65 25 100 65 25 100 65 25 100 65 25 100 65 25 100 65 25 100 65 25 100 65 25 100 65 25 100 65 25 100 65 25 100 65 25 100 65 25 100 65 25 100 65 25 100 65 25 100 65 25 100 65 25 100 65 25 100 65 25 100 65 25 100 65 25 100 65 25 100 65 25 100 65 25 100 65 25 100 65 25 100 65 25 100 65 25 100 65 25 100 65 25 100 65 25 100 65 25 100 65 25 100 65 25 100 65 25 100 65 25 100 65 25 100 65 25 100 65 25 100 65 25 100 65 25 100 65 25 100 65 25 100 65 25 100 65 25 100 65 25 100 65 25 100 65 25 100 65 25 100 65 25 100 65 25 100 65 25 100 65 25 100 65 25 100 65 25 100 65 25 100 65 25 100 65 25 100 65 25 100 65 25 100 65 25 100 65 25 100 65 25 100 65 25 100 65 25 100 65 25 100 65 25 100 65 25 100 65 25 100 65 25 100 65 25 100 65 25 100 65 25 100 65 25 100 65 25 100 65 25 100 65 25 100 65 25 100 65 25 100 65 25 100 65 25 100 65 25 100 65 25 100 65 25 100 65 25 100 65 25 100 65 25 100 65 25 100 65 25 100 65 25 100 65 25 100 65 25 100 65 25 100 65 25 100 65 25 100 65 25 100 65 25 100 65 25 100 65 25 100 65 25 100 65 25 100 65 25 100 65 25 100 65 25 100 65 25 100 65 25 100 65 25 100 65 25 100 65 25 100 65 25 100 65 25 100 65 25 100 65 25 100 65 25 100 65 25 100 65
25 100 65 25 100 65 25 100 65 25 100 65 25 100 65 25 100 65 25 100 65 25 100 65 25 100 65 25 100 65 25 100 65 25 100 65 25 100 65 25 100 65 25 100 65 25 100 65 25 100 65 25 100 65 25 100 65 25 100 65 25 100 65 25 100 65 25 100 65 25 100 65 25 100 65 25 100 65 25 100 65 25 100 65 25 100 65 25 100 65 25 100 65 25 100 65 25 100 65 25 100 65 25 100 65 25 100 65 25 100 65 25 100 65 25 100 65 25 100 65 25 100 65 25 100 65 25 100 65 25 100 65 25 100 65 25 100 65 25 100 65 25 100 65 25 100 65 25 100 65 25 100 65 25 100 65 25 100 65 25 100 65 25 100 65 25 100 65 25 100 65 25 100 65 25 100 65 25 100 65 25 100 65 25 100 65 25 100 65 25 100 65 25 100 65 25 100 65 25 100 65 25 100 65 25 100 65 25 100 65 25 100 65 25 100 65 25 100 65 25 100 65 25 100 65 25 100 65 25 100 65 25 100 65 25 100 65 25 100 65 25 100 65 25 100 65 25 100 65 25 100 65 25 100 65 25 100 65 25 100 65 25 100 65 25 100 65 25 100 65 25 100 65 25 100 65 25 100 65 25 100 65 25 100 65 25 100 65 25 100 65 25 100 65 25 100 65 25 100 65 25 100 65 25 100 65 25 100 65 25 100 65 25 100 65 25 100 65 25 100 65 25 100 65 25 100 65 25 100 65 25 100 65 25 100 65 25 100 65 25 100 65 25 100 65 25 100 65 25 100 65 25 100 65 25 100 65 25 100 65 25 100 65 25 100 65 25 100 65 25 100 65 25 100 65 25 100 65 25 100 65 25 100 65 25 100 65 25 100 65 25 100 65 25 100 65 25 100 65 25 100 65 25 100 65 25 100 65 25 100 65 25 100 65 25 100 65 25 100 65 25 100 65 25 100 65 25 100 65 25 100 65 25 100 65 25 100 65 25 100 65 25 100 65 25 100 65 25 100 65 25 100 65 25 100 65 25 100 65 25 100 65 25 100 65 25 100 65 25 100 65 25 100 65 25 100 65 25 100 65 25 100 65 25 100 65 25 100 65 25 100 65 25 100 65 25 100 65 25 100 65 25 100 65 25 100 65 25 100 65 25 100 65 25 100 65 25 100 65 25 100 65 25 100 65 25 100 65 25 100 65 25 100 65 25 100 65 25 100 65 25 100 65 25 100 65 25 100 65 25 100 65 25 100 65 25 100 65 25 100 65 25 100 65 25 100 65 25 100 65 25 100 65 25 100 65 25 100 65 25 100 65 25 100 65 25 100 65 25 100 65 25 100 65 25 100 65 25 100 65 25 100 65 25 100 65 25 100 65 25 100 65 25 100 65 25 100 65 25 100 65 25 100 65 25 100 65 25 100 65 25 100 65 25 100 65 25 100 65 25 100 65 25 100 65 25 100 65 25 100 65 25 100 65 25 100 65 25 100 65 25 100 65 25 100 65 25 100 65 25 100 65 25 100 65 25 100 65 25 100 65 25 100 65 25 100 65 25 100 65 25 100 65 25 100 65 25 100 65 25 100 65 25 100 65 25 100 65 25 100 65 25 100 65 25 100 65 25 100 65 25 100 65 25 100 65 25 100 65 25 100 65 25 100 65 25 100 65 25 100 65 25 100 65 25 100 65 25 100 65 25 100 65 25 100 65 25 100 65 25 100 65 25 100 65 25 100 65 25 100 65 25 100 65 25 100 65 25 100 65 25 100 65 25 100 65 25 100 65 25 100 65 25 100 65 25 100 65 25 100 65 25 100 65 25 100 65 25 100 65 25 100 65 25 100 65 25 100 65 25 100 65 25 100 65 25 100 65 25 100 65 25 100 65 25 100 65 25 100 65 25 100 65 25 100 65 25 100 65 25 100 65 25 100 65 25 100 65 25 100 65 25 100 65 25 100 65 25 100 65 25 100 65 25 100 65 25 100 65 25 100 65 25 100 65 25 100 65 25 100 65 25 100 65 25 100 65 25 100 65 25 100 65 25 100 65 25 100 65 25 100 65 25 100 65 25 100 65 25 100 65 25 100 65 25 100 65 25 100 65 25 100 65 25 100 65 25 100 65 25 100 65 25 100 65 25 100 65 25 100 65 25 100 65 25 100 65 25 100 65
25 100 65 25 100 65 25 100 65 25 100 65 25 100 65 25 100 65 25 100 65 25 100 65 25 100 65 25 100 65 25 100 65 25 100 65 25 100 65 25 100 65 25 100 65 25 100 65 25 100 65 25 100 65 25 100 65 25 100 65 25 100 65 25 100 65 25 100 65 25 100 65 25 100 65 25 100 65 25 100 65 25 100 65 25 100 65 25 100 65 25 100 65 25 100 65 25 100 65 25 100 65 25 100 65 25 100 65 25 100 65 25 100 65 25 100 65 25 100 65 25 100 65 25 100 65 25 100 65 25 100 65 25 100 65 25 100 65 25 100 65 25 100 65 25 100 65 25 100 65 25 100 65 25 100 65 25 100 65 25 100 65 25 100 65 25 100 65 25 100 65 25 100 65 25 100 65 25 100 65 25 100 65 25 100 65 25 100 65 25 100 65 25 100 65 25 100 65 25 100 65 25 100 65 25 100 65 25 100 65 25 100 65 25 100 65 25 100 65 25 100 65 25 100 65 25 100 65 25 100 65 25 100 65 25 100 65 25 100 65 25 100 65 25 100 65 25 100 65 25 100 65 25 100 65 25 100 65 25 100 65 25 100 65 25 100 65 25 100 65 25 100 65 25 100 65 25 100 65 25 100 65 25 100 65 25 100 65 25 100 65 25 100 65 25 100 65 25 100 65 25 100 65 25 100 65 25 100 65 25 100 65 25 100 65 25 100 65 25 100 65 25 100 65 25 100 65 25 100 65 25 100 65 25 100 65 25 100 65 25 100 65 25 100 65 25 100 65 25 100 65 25 100 65 25 100 65 25 100 65 25 100 65 25 100 65 25 100 65 25 100 65 25 100 65 25 100 65 25 100 65 25 100 65 25 100 65 25 100 65 25 100 65 25 100 65 25 100 65 25 100 65 25 100 65 25 100 65 25 100 65 25 100 65 25 100 65 25 100 65 25 100 65 25 100 65 25 100 65 25 100 65 25 100 65 25 100 65 25 100 65 25 100 65 25 100 65 25 100 65 25 100 65 25 100 65 25 100 65 25 100 65 25 100 65 25 100 65 25 100 65 25 100 65 25 100 65 25 100 65 25 100 65 25 100 65 25 100 65 25 100 65 25 100 65 25 100 65 25 100 65 25 100 65 25 100 65 25 100 65 25 100 65 25 100 65 25 100 65 25 100 65 25 100 65 25 100 65 25 100 65 25 100 65 25 100 65 25 100 65 25 100 65 25 100 65 25 100 65 25 100 65 25 100 65 25 100 65 25 100 65 25 100 65 25 100 65 25 100 65 25 100 65 25 100 65 25 100 65 25 100 65 25 100 65 25 100 65 25 100 65 25 100 65 25 100 65 25 100 65 25 100 65 25 100 65 25 100 65 25 100 65 25 100 65 25 100 65 25 100 65 25 100 65 25 100 65 25 100 65 25 100 65 25 100 65 25 100 65 25 100 65 25 100 65 25 100 65 25 100 65 25 100 65 25 100 65 25 100 65 25 100 65 25 100 65 25 100 65 25 100 65 25 100 65 25 100 65 25 100 65 25 100 65 25 100 65 25 100 65 25 100 65 25 100 65 25 100 65 25 100 65 25 100 65 25 100 65 25 100 65 25 100 65 25 100 65 25 100 65 25 100 65 25 100 65 25 100 65 25 100 65 25 100 65 25 100 65 25 100 65 25 100 65 25 100 65 25 100 65 25 100 65 25 100 65 25 100 65 25 100 65 25 100 65 25 100 65 25 100 65 25 100 65 25 100 65 25 100 65 25 100 65 25 100 65 25 100 65 25 100 65 25 100 65 25 100 65 25 100 65 25 100 65 25 100 65 25 100 65 25 100 65 25 100 65 25 100 65 25 100 65 25 100 65 25 100 65 25 100 65 25 100 65 25 100 65 25 100 65 25 100 65 25 100 65 25 100 65 25 100 65 25 100 65 25 100 65 25 100 65 25 100 65 25 100 65 25 100 65 25 100 65 25 100 65 25 100 65 25 100 65 25 100 65 25 100 65 25 100 65 25 100 65 25 100 65 25 100 65 25 100 65 25 100 65 25 100 65 25 100 65 25 100 65 25 100 65 25 100 65 25 100 65 25 100 65 25 100 65 25 100 65 25 100 65 25 100 65 25 100 65 25 100 65 25 100 65 25 100 65 25 100 65 25 100 65 25 100 65
25 100 65 25 100 65 25 100 65 25 100 65 25 100 65 25 100 65 25 100 65 25 100 65 25 100 65 25 100 65 25 100 65 25 100 65 25 100 65 25 100 65 25 100 65 25 100 65 25 100 65 25 100 65 25 100 65 25 100 65 25 100 65 25 100 65 25 100 65 25 100 65 25 100 65 25 100 65 25 100 65 25 100 65 25 100 65 25 100 65 25 100 65 25 100 65 25 100 65 25 100 65 25 100 65 25 100 65 25 100 65 25 100 65 25 100 65 25 100 65 25 100 65 25 100 65 25 100 65 25 100 65 25 100 65 25 100 65 25 100 65 25 100 65 25 100 65 25 100 65 25 100 65 25 100 65 25 100 65 25 100 65 25 100 65 25 100 65 25 100 65 25 100 65 25 100 65 25 100 65 25 100 65 25 100 65 25 100 65 25 100 65 25 100 65 25 100 65 25 100 65 25 100 65 25 100 65 25 100 65 25 100 65 25 100 65 25 100 65 25 100 65 25 100 65 25 100 65 25 100 65 25 100 65 25 100 65 25 100 65 25 100 65 25 100 65 25 100 65 25 100 65 25 100 65 25 100 65 25 100 65 25 100 65 25 100 65 25 100 65 25 100 65 25 100 65 25 100 65 25 100 65 25 100 65 25 100 65 25 100 65 25 100 65 25 100 65 25 100 65 25 100 65 25 100 65 25 100 65 25 100 65 25 100 65 25 100 65 25 100 65 25 100 65 25 100 65 25 100 65 25 100 65 25 100 65 25 100 65 25 100 65 25 100 65 25 100 65 25 100 65 25 100 65 25 100 65 25 100 65 25 100 65 25 100 65 25 100 65 25 100 65 25 100 65 25 100 65 25 100 65 25 100 65 25 100 65 25 100 65 25 100 65 25 100 65 25 100 65 25 100 65 25 100 65 25 100 65 25 100 65 25 100 65 25 100 65 25 100 65 25 100 65 25 100 65 25 100 65 25 100 65 25 100 65 25 100 65 25 100 65 25 100 65 25 100 65 25 100 65 25 100 65 25 100 65 25 100 65 25 100 65 25 100 65 25 100 65 25 100 65 25 100 65 25 100 65 25 100 65 25 100 65 25 100 65 25 100 65 25 100 65 25 100 65 25 100 65 25 100 65 25 100 65 25 100 65 25 100 65 25 100 65 25 100 65 25 100 65 25 100 65 25 100 65 25 100 65 25 100 65 25 100 65 25 100 65 25 100 65 25 100 65 25 100 65 25 100 65 25 100 65 25 100 65 25 100 65 25 100 65 25 100 65 25 100 65 25 100 65 25 100 65 25 100 65 25 100 65 25 100 65 25 100 65 25 100 65 25 100 65 25 100 65 25 100 65 25 100 65 25 100 65 25 100 65 25 100 65 25 100 65 25 100 65 25 100 65 25 100 65 25 100 65 25 100 65 25 100 65 25 100 65 25 100 65 25 100 65 25 100 65 25 100 65 25 100 65 25 100 65 25 100 65 25 100 65 25 100 65 25 100 65 25 100 65 25 100 65 25 100 65 25 100 65 25 100 65 25 100 65 25 100 65 25 100 65 25 100 65 25 100 65 25 100 65 25 100 65 25 100 65 25 100 65 25 100 65 25 100 65 25 100 65 25 100 65 25 100 65 25 100 65 25 100 65 25 100 65 25 100 65 25 100 65 25 100 65 25 100 65 25 100 65 25 100 65 25 100 65 25 100 65 25 100 65 25 100 65 25 100 65 25 100 65 25 100 65 25 100 65 25 100 65 25 100 65 25 100 65 25 100 65 25 100 65 25 100 65 25 100 65 25 100 65 25 100 65 25 100 65 25 100 65 25 100 65 25 100 65 25 100 65 25 100 65 25 100 65 25 100 65 25 100 65 25 100 65 25 100 65 25 100 65 25 100 65 25 100 65 25 100 65 25 100 65 25 100 65 25 100 65 25 100 65 25 100 65 25 100 65 25 100 65 25 100 65 25 100 65 25 100 65 25 100 65 25 100 65 25 100 65 25 100 65 25 100 65 25 100 65 25 100 65 25 100 65 25 100 65 25 100 65 25 100 65 25 100 65 25 100 65 25 100 65 25 100 65 25 100 65 25 100 65 25 100 65 25 100 65 25 100 65 25 100 65 25 100 65 25 100 65 25 100 65 25 100 65 25 100 65 25 100 65 25 100 65 25 100 65
25 100 65 25 100 65 25 100 65 25 100 65 25 100 65 25 100 65 25 100 65 25 100 65 25 100 65 25 100 65 25 100 65 25 100 65 25 100 65 25 100 65 25 100 65 25 100 65 25 100 65 25 100 65 25 100 65 25 100 65 25 100 65 25 100 65 25 100 65 25 100 65 25 100 65 25 100 65 25 100 65 25 100 65 25 100 65 25 100 65 25 100 65 25 100 65 25 100 65 25 100 65 25 100 65 25 100 65 25 100 65 25 100 65 25 100 65 25 100 65 25 100 65 25 100 65 25 100 65 25 100 65 25 100 65 25 100 65 25 100 65 25 100 65 25 100 65 25 100 65 25 100 65 25 100 65 25 100 65 25 100 65 25 100 65 25 100 65 25 100 65 25 100 65 25 100 65 25 100 65 25 100 65 25 100 65 25 100 65 25 100 65 25 100 65 25 100 65 25 100 65 25 100 65 25 100 65 25 100 65 25 100 65 25 100 65 25 100 65 25 100 65 25 100 65 25 100 65 25 100 65 25 100 65 25 100 65 25 100 65 25 100 65 25 100 65 25 100 65 25 100 65 25 100 65 25 100 65 25 100 65 25 100 65 25 100 65 25 100 65 25 100 65 25 100 65 25 100 65 25 100 65 25 100 65 25 100 65 25 100 65 25 100 65 25 100 65 25 100 65 25 100 65 25 100 65 25 100 65 25 100 65 25 100 65 25 100 65 25 100 65 25 100 65 25 100 65 25 100 65 25 100 65 25 100 65 25 100 65 25 100 65 25 100 65 25 100 65 25 100 65 25 100 65 25 100 65 25 100 65 25 100 65 25 100 65 25 100 65 25 100 65 25 100 65 25 100 65 25 100 65 25 100 65 25 100 65 25 100 65 25 100 65 25 100 65 25 100 65 25 100 65 25 100 65 25 100 65 25 100 65 25 100 65 25 100 65 25 100 65 25 100 65 25 100 65 25 100 65 25 100 65 25 100 65 25 100 65 25 100 65 25 100 65 25 100 65 25 100 65 25 100 65 25 100 65 25 100 65 25 100 65 25 100 65 25 100 65 25 100 65 25 100 65 25 100 65 25 100 65 25 100 65 25 100 65 25 100 65 25 100 65 25 100 65 25 100 65 25 100 65 25 100 65 25 100 65 25 100 65 25 100 65 25 100 65 25 100 65 25 100 65 25 100 65 25 100 65 25 100 65 25 100 65 25 100 65 25 100 65 25 100 65 25 100 65 25 100 65 25 100 65 25 100 65 25 100 65 25 100 65 25 100 65 25 100 65 25 100 65 25 100 65 25 100 65 25 100 65 25 100 65 25 100 65 25 100 65 25 100 65 25 100 65 25 100 65 25 100 65 25 100 65 25 100 65 25 100 65 25 100 65 25 100 65 25 100 65 25 100 65 25 100 65 25 100 65 25 100 65 25 100 65 25 100 65 25 100 65 25 100 65 25 100 65 25 100 65 25 100 65 25 100 65 25 100 65 25 100 65 25 100 65 25 100 65 25 100 65 25 100 65 25 100 65 25 100 65 25 100 65 25 100 65 25 100 65 25 100 65 25 100 65 25 100 65 25 100 65 25 100 65 25 100 65 25 100 65 25 100 65 25 100 65 25 100 65 25 100 65 25 100 65 25 100 65 25 100 65 25 100 65 25 100 65 25 100 65 25 100 65 25 100 65 25 100 65 25 100 65 25 100 65 25 100 65 25 100 65 25 100 65 25 100 65 25 100 65 25 100 65 25 100 65 25 100 65 25 100 65 25 100 65 25 100 65 25 100 65 25 100 65 25 100 65 25 100 65 25 100 65 25 100 65 25 100 65 25 100 65 25 100 65 25 100 65 25 100 65 25 100 65 25 100 65 25 100 65 25 100 65 25 100 65 25 100 65 25 100 65 25 100 65 25 100 65 25 100 65 25 100 65 25 100 65 25 100 65 25 100 65 25 100 65 25 100 65 25 100 65 25 100 65 25 100 65 25 100 65 25 100 65 25 100 65 25 100 65 25 100 65 25 100 65 25 100 65 25 100 65 25 100 65 25 100 65 25 100 65 25 100 65 25 100 65 25 100 65 25 100 65 25 100 65 25 100 65 25 100 65 25 100 65 25 100 65 25 100 65 25 100 65 25 100 65 25 100 65 25 100 65 25 100 65 25 100 65 25 100 65
25 100 65 25 100 65 25 100 65 25 100 65 25 100 65 25 100 65 25 100 65 25 100 65 25 100 65 25 100 65 25 100 65 25 100 65 25 100 65 25 100 65 25 100 65 25 100 65 25 100 65 25 100 65 25 100 65 25 100 65 25 100 65 25 100 65 25 100 65 25 100 65 25 100 65 25 100 65 25 100 65 25 100 65 25 100 65 25 100 65 25 100 65 25 100 65 25 100 65 25 100 65 25 100 65 25 100 65 25 100 65 25 100 65 25 100 65 25 100 65 25 100 65 25 100 65 25 100 65 25 100 65 25 100 65 25 100 65 25 100 65 25 100 65 25 100 65 25 100 65 25 100 65 25 100 65 25 100 65 25 100 65 25 100 65 25 100 65 25 100 65 25 100 65 25 100 65 25 100 65 25 100 65 25 100 65 25 100 65 25 100 65 25 100 65 25 100 65 25 100 65 25 100 65 25 100 65 25 100 65 25 100 65 25 100 65 25 100 65 25 100 65 25 100 65 25 100 65 25 100 65 25 100 65 25 100 65 25 100 65 25 100 65 25 100 65 25 100 65 25 100 65 25 100 65 25 100 65 25 100 65 25 100 65 25 100 65 25 100 65 25 100 65 25 100 65 25 100 65 25 100 65 25 100 65 25 100 65 25 100 65 25 100 65 25 100 65 25 100 65 25 100 65 25 100 65 25 100 65 25 100 65 25 100 65 25 100 65 25 100 65 25 100 65 25 100 65 25 100 65 25 100 65 25 100 65 25 100 65 25 100 65 25 100 65 25 100 65 25 100 65 25 100 65 25 100 65 25 100 65 25 100 65 25 100 65 25 100 65 25 100 65 25 100 65 25 100 65 25 100 65 25 100 65 25 100 65 25 100 65 25 100 65 25 100 65 25 100 65 25 100 65 25 100 65 25 100 65 25 100 65 25 100 65 25 100 65 25 100 65 25 100 65 25 100 65 25 100 65 25 100 65 25 100 65 25 100 65 25 100 65 25 100 65 25 100 65 25 100 65 25 100 65 25 100 65 25 100 65 25 100 65 25 100 65 25 100 65 25 100 65 25 100 65 25 100 65 25 100 65 25 100 65 25 100 65 25 100 65 25 100 65 25 100 65 25 100 65 25 100 65 25 100 65 25 100 65 25 100 65 25 100 65 25 100 65 25 100 65 25 100 65 25 100 65 25 100 65 25 100 65 25 100 65 25 100 65 25 100 65 25 100 65 25 100 65 25 100 65 25 100 65 25 100 65 25 100 65 25 100 65 25 100 65 25 100 65 25 100 65 25 100 65 25 100 65 25 100 65 25 100 65 25 100 65 25 100 65 25 100 65 25 100 65 25 100 65 25 100 65 25 100 65 25 100 65 25 100 65 25 100 65 25 100 65 25 100 65 25 100 65 25 100 65 25 100 65 25 100 65 25 100 65 25 100 65 25 100 65 25 100 65 25 100 65 25 100 65 25 100 65 25 100 65 25 100 65 25 100 65 25 100 65 25 100 65 25 100 65 25 100 65 25 100 65 25 100 65 25 100 65 25 100 65 25 100 65 25 100 65 25 100 65 25 100 65 25 100 65 25 100 65 25 100 65 25 100 65 25 100 65 25 100 65 25 100 65 25 100 65 25 100 65 25 100 65 25 100 65 25 100 65 25 100 65 25 100 65 25 100 65 25 100 65 25 100 65 25 100 65 25 100 65 25 100 65 25 100 65 25 100 65 25 100 65 25 100 65 25 100 65 25 100 65 25 100 65 25 100 65 25 100 65 25 100 65 25 100 65 25 100 65 25 100 65 25 100 65 25 100 65 25 100 65 25 100 65 25 100 65 25 100 65 25 100 65 25 100 65 25 100 65 25 100 65 25 100 65 25 100 65 25 100 65 25 100 65 25 100 65 25 100 65 25 100 65 25 100 65 25 100 65 25 100 65 25 100 65 25 100 65 25 100 65 25 100 65 25 100 65 25 100 65 25 100 65 25 100 65 25 100 65 25 100 65 25 100 65 25 100 65 25 100 65 25 100 65 25 100 65 25 100 65 25 100 65 25 100 65 25 100 65 25 100 65 25 100 65 25 100 65 25 100 65 25 100 65 25 100 65 25 100 65 25 100 65 25 100 65 25 100 65 25 100 65 25 100 65 25 100 65 25 100 65 25 100 65 25 100 65
25 100 65 25 100 65 25 100 65 25 100 65 25 100 65 25 100 65 25 100 65 25 100 65 25 100 65 25 100 65 25 100 65 25 100 65 25 100 65 25 100 65 25 100 65 25 100 65 25 100 65 25 100 65 25 100 65 25 100 65 25 100 65 25 100 65 25 100 65 25 100 65 25 100 65 25 100 65 25 100 65 25 100 65 25 100 65 25 100 65 25 100 65 25 100 65 25 100 65 25 100 65 25 100 65 25 100 65 25 100 65 25 100 65 25 100 65 25 100 65 25 100 65 25 100 65 25 100 65 25 100 65 25 100 65 25 100 65 25 100 65 25 100 65 25 100 65 25 100 65 25 100 65 25 100 65 25 100 65 25 100 65 25 100 65 25 100 65 25 100 65 25 100 65 25 100 65 25 100 65 25 100 65 25 100 65 25 100 65 25 100 65 25 100 65 25 100 65 25 100 65 25 100 65 25 100 65 25 100 65 25 100 65 25 100 65 25 100 65 25 100 65 25 100 65 25 100 65 25 100 65 25 100 65 25 100 65 25 100 65 25 100 65 25 100 65 25 100 65 25 100 65 25 100 65 25 100 65 25 100 65 25 100 65 25 100 65 25 100 65 25 100 65 25 100 65 25 100 65 25 100 65 25 100 65 25 100 65 25 100 65 25 100 65 25 100 65 25 100 65 25 100 65 25 100 65 25 100 65 25 100 65 25 100 65 25 100 65 25 100 65 25 100 65 25 100 65 25 100 65 25 100 65 25 100 65 25 100 65 25 100 65 25 100 65 25 100 65 25 100 65 25 100 65 25 100 65 25 100 65 25 100 65 25 100 65 25 100 65 25 100 65 25 100 65 25 100 65 25 100 65 25 100 65 25 100 65 25 100 65 25 100 65 25 100 65 25 100 65 25 100 65 25 100 65 25 100 65 25 100 65 25 100 65 25 100 65 25 100 65 25 100 65 25 100 65 25 100 65 25 100 65 25 100 65 25 100 65 25 100 65 25 100 65 25 100 65 25 100 65 25 100 65 25 100 65 25 100 65 25 100 65 25 100 65 25 100 65 25 100 65 25 100 65 25 100 65 25 100 65 25 100 65 25 100 65 25 100 65 25 100 65 25 100 65 25 100 65 25 100 65 25 100 65 25 100 65 25 100 65 25 100 65 25 100 65 25 100 65 25 100 65 25 100 65 25 100 65 25 100 65 25 100 65 25 100 65 25 100 65 25 100 65 25 100 65 25 100 65 25 100 65 25 100 65 25 100 65 25 100 65 25 100 65 25 100 65 25 100 65 25 100 65 25 100 65 25 100 65 25 100 65 25 100 65 25 100 65 25 100 65 25 100 65 25 100 65 25 100 65 25 100 65 25 100 65 25 100 65 25 100 65 25 100 65 25 100 65 25 100 65 25 100 65 25 100 65 25 100 65 25 100 65 25 100 65 25 100 65 25 100 65 25 100 65 25 100 65 25 100 65 25 100 65 25 100 65 25 100 65 25 100 65 25 100 65 25 100 65 25 100 65 25 100 65 25 100 65 25 100 65 25 100 65 25 100 65 25 100 65 25 100 65 25 100 65 25 100 65 25 100 65 25 100 65 25 100 65 25 100 65 25 100 65 25 100 65 25 100 65 25 100 65 25 100 65 25 100 65 25 100 65 25 100 65 25 100 65 25 100 65 25 100 65 25 100 65 25 100 65 25 100 65 25 100 65 25 100 65 25 100 65 25 100 65 25 100 65 25 100 65 25 100 65 25 100 65 25 100 65 25 100 65 25 100 65 25 100 65 25 100 65 25 100 65 25 100 65 25 100 65 25 100 65 25 100 65 25 100 65 25 100 65 25 100 65 25 100 65 25 100 65 25 100 65 25 100 65 25 100 65 25 100 65 25 100 65 25 100 65 25 100 65 25 100 65 25 100 65 25 100 65 25 100 65 25 100 65 25 100 65 25 100 65 25 100 65 25 100 65 25 100 65 25 100 65 25 100 65 25 100 65 25 100 65 25 100 65 25 100 65 25 100 65 25 100 65 25 100 65 25 100 65 25 100 65 25 100 65 25 100 65 25 100 65 25 100 65 25 100 65 25 100 65 25 100 65 25 100 65 25 100 65 25 100 65 25 100 65 25 100 65 25 100 65 25 100 65 25 100 65 25 100 65 25 100 65 25 100 65
25 100 65 25 100 65 25 100 65 25 100 65 25 100 65 25 100 65 25 100 65 25 100 65 25 100 65 25 100 65 25 100 65 25 100 65 25 100 65 25 100 65 25 100 65 25 100 65 25 100 65 25 100 65 25 100 65 25 100 65 25 100 65 25 100 65 25 100 65 25 100 65 25 100 65 25 100 65 25 100 65 25 100 65 25 100 65 25 100 65 25 100 65 25 100 65 25 100 65 25 100 65 25 100 65 25 100 65 25 100 65 25 100 65 25 100 65 25 100 65 25 100 65 25 100 65 25 100 65 25 100 65 25 100 65 25 100 65 25 100 65 25 100 65 25 100 65 25 100 65 25 100 65 25 100 65 25 100 65 25 100 65 25 100 65 25 100 65 25 100 65 25 100 65 25 100 65 25 100 65 25 100 65 25 100 65 25 100 65 25 100 65 25 100 65 25 100 65 25 100 65 25 100 65 25 100 65 25 100 65 25 100 65 25 100 65 25 100 65 25 100 65 25 100 65 25 100 65 25 100 65 25 100 65 25 100 65 25 100 65 25 100 65 25 100 65 25 100 65 25 100 65 25 100 65 25 100 65 25 100 65 25 100 65 25 100 65 25 100 65 25 100 65 25 100 65 25 100 65 25 100 65 25 100 65 25 100 65 25 100 65 25 100 65 25 100 65 25 100 65 25 100 65 25 100 65 25 100 65 25 100 65 25 100 65 25 100 65 25 100 65 25 100 65 25 100 65 25 100 65 25 100 65 25 100 65 25 100 65 25 100 65 25 100 65 25 100 65 25 100 65 25 100 65 25 100 65 25 100 65 25 100 65 25 100 65 25 100 65 25 100 65 25 100 65 25 100 65 25 100 65 25 100 65 25 100 65 25 100 65 25 100 65 25 100 65 25 100 65 25 100 65 25 100 65 25 100 65 25 100 65 25 100 65 25 100 65 25 100 65 25 100 65 25 100 65 25 100 65 25 100 65 25 100 65 25 100 65 25 100 65 25 100 65 25 100 65 25 100 65 25 100 65 25 100 65 25 100 65 25 100 65 25 100 65 25 100 65 25 100 65 25 100 65 25 100 65 25 100 65 25 100 65 25 100 65 25 100 65 25 100 65 25 100 65 25 100 65 25 100 65 25 100 65 25 100 65 25 100 65 25 100 65 25 100 65 25 100 65 25 100 65 25 100 65 25 100 65 25 100 65 25 100 65 25 100 65 25 100 65 25 100 65 25 100 65 25 100 65 25 100 65 25 100 65 25 100 65 25 100 65 25 100 65 25 100 65 25 100 65 25 100 65 25 100 65 25 100 65 25 100 65 25 100 65 25 100 65 25 100 65 25 100 65 25 100 65 25 100 65 25 100 65 25 100 65 25 100 65 25 100 65 25 100 65 25 100 65 25 100 65 25 100 65 25 100 65 25 100 65 25 100 65 25 100 65 25 100 65 25 100 65 25 100 65 25 100 65 25 100 65 25 100 65 25 100 65 25 100 65 25 100 65 25 100 65 25 100 65 25 100 65 25 100 65 25 100 65 25 100 65 25 100 65 25 100 65 25 100 65 25 100 65 25 100 65 25 100 65 25 100 65 25 100 65 25 100 65 25 100 65 25 100 65 25 100 65 25 100 65 25 100 65 25 100 65 25 100 65 25 100 65 25 100 65 25 100 65 25 100 65 25 100 65 25 100 65 25 100 65 25 100 65 25 100 65 25 100 65 25 100 65 25 100 65 25 100 65 25 100 65 25 100 65 25 100 65 25 100 65 25 100 65 25 100 65 25 100 65 25 100 65 25 100 65 25 100 65 25 100 65 25 100 65 25 100 65 25 100 65 25 100 65 25 100 65 25 100 65 25 100 65 25 100 65 25 100 65 25 100 65 25 100 65 25 100 65 25 100 65 25 100 65 25 100 65 25 100 65 25 100 65 25 100 65 25 100 65 25 100 65 25 100 65 25 100 65 25 100 65 25 100 65 25 100 65 25 100 65 25 100 65 25 100 65 25 100 65 25 100 65 25 100 65 25 100 65 25 100 65 25 100 65 25 100 65 25 100 65 25 100 65 25 100 65 25 100 65 25 100 65 25 100 65 25 100 65 25 100 65 25 100 65 25 100 65 25 100 65 25 100 65 25 100 65 25 100 65 25 100 65 25 100 65 25 100 65 25 100 65
25 100 65 25 100 65 25 100 65 25 100 65 25 100 65 25 100 65 25 100 65 25 100 65 25 100 65 25 100 65 25 100 65 25 100 65 25 100 65 25 100 65 25 100 65 25 100 65 25 100 65 25 100 65 25 100 65 25 100 65 25 100 65 25 100 65 25 100 65 25 100 65 25 100 65 25 100 65 25 100 65 25 100 65 25 100 65 25 100 65 25 100 65 25 100 65 25 100 65 25 100 65 25 100 65 25 100 65 25 100 65 25 100 65 25 100 65 25 100 65 25 100 65 25 100 65 25 100 65 25 100 65 25 100 65 25 100 65 25 100 65 25 100 65 25 100 65 25 100 65 25 100 65 25 100 65 25 100 65 25 100 65 25 100 65 25 100 65 25 100 65 25 100 65 25 100 65 25 100 65 25 100 65 25 100 65 25 100 65 25 100 65 25 100 65 25 100 65 25 100 65 25 100 65 25 100 65 25 100 65 25 100 65 25 100 65 25 100 65 25 100 65 25 100 65 25 100 65 25 100 65 25 100 65 25 100 65 25 100 65 25 100 65 25 100 65 25 100 65 25 100 65 25 100 65 25 100 65 25 100 65 25 100 65 25 100 65 25 100 65 25 100 65 25 100 65 25 100 65 25 100 65 25 100 65 25 100 65 25 100 65 25 100 65 25 100 65 25 100 65 25 100 65 25 100 65 25 100 65 25 100 65 25 100 65 25 100 65 25 100 65 25 100 65 25 100 65 25 100 65 25 100 65 25 100 65 25 100 65 25 100 65 25 100 65 25 100 65 25 100 65 25 100 65 25 100 65 25 100 65 25 100 65 25 100 65 25 100 65 25 100 65 25 100 65 25 100 65 25 100 65 25 100 65 25 100 65 25 100 65 25 100 65 25 100 65 25 100 65 25 100 65 25 100 65 25 100 65 25 100 65 25 100 65 25 100 65 25 100 65 25 100 65 25 100 65 25 100 65 25 100 65 25 100 65 25 100 65 25 100 65 25 100 65 25 100 65 25 100 65 25 100 65 25 100 65 25 100 65 25 100 65 25 100 65 25 100 65 25 100 65 25 100 65 25 100 65 25 100 65 25 100 65 25 100 65 25 100 65 25 100 65 25 100 65 25 100 65 25 100 65 25 100 65 25 100 65 25 100 65 25 100 65 25 100 65 25 100 65 25 100 65 25 100 65 25 100 65 25 100 65 25 100 65 25 100 65 25 100 65 25 100 65 25 100 65 25 100 65 25 100 65 25 100 65 25 100 65 25 100 65 25 100 65 25 100 65 25 100 65 25 100 65 25 100 65 25 100 65 25 100 65 25 100 65 25 100 65 25 100 65 25 100 65 25 100 65 25 100 65 25 100 65 25 100 65 25 100 65 25 100 65 25 100 65 25 100 65 25 100 65 25 100 65 25 100 65 25 100 65 25 100 65 25 100 65 25 100 65 25 100 65 25 100 65 25 100 65 25 100 65 25 100 65 25 100 65 25 100 65 25 100 65 25 100 65 25 100 65 25 100 65 25 100 65 25 100 65 25 100 65 25 100 65 25 100 65 25 100 65 25 100 65 25 100 65 25 100 65 25 100 65 25 100 65 25 100 65 25 100 65 25 100 65 25 100 65 25 100 65 25 100 65 25 100 65 25 100 65 25 100 65 25 100 65 25 100 65 25 100 65 25 100 65 25 100 65 25 100 65 25 100 65 25 100 65 25 100 65 25 100 65 25 100 65 25 100 65 25 100 65 25 100 65 25 100 65 25 100 65 25 100 65 25 100 65 25 100 65 25 100 65 25 100 65 25 100 65 25 100 65 25 100 65 25 100 65 25 100 65 25 100 65 25 100 65 25 100 65 25 100 65 25 100 65 25 100 65 25 100 65 25 100 65 25 100 65 25 100 65 25 100 65 25 100 65 25 100 65 25 100 65 25 100 65 25 100 65 25 100 65 25 100 65 25 100 65 25 100 65 25 100 65 25 100 65 25 100 65 25 100 65 25 100 65 25 100 65 25 100 65 25 100 65 25 100 65 25 100 65 25 100 65 25 100 65 25 100 65 25 100 65 25 100 65 25 100 65 25 100 65 25 100 65 25 100 65 25 100 65 25 100 65 25 100 65 25 100 65 25 100 65 25 100 65 25 100 65 25 100 65 25 100 65 25 100 65 25 100 65
25 100 65 25 100 65 25 100 65 25 100 65 25 100 65 25 100 65 25 100 65 25 100 65 25 100 65 25 100 65 25 100 65 25 100 65 25 100 65 25 100 65 25 100 65 25 100 65 25 100 65 25 100 65 25 100 65 25 100 65 25 100 65 25 100 65 25 100 65 25 100 65 25 100 65 25 100 65 25 100 65 25 100 65 25 100 65 25 100 65 25 100 65 25 100 65 25 100 65 25 100 65 25 100 65 25 100 65 25 100 65 25 100 65 25 100 65 25 100 65 25 100 65 25 100 65 25 100 65 25 100 65 25 100 65 25 100 65 25 100 65 25 100 65 25 100 65 25 100 65 25 100 65 25 100 65 25 100 65 25 100 65 25 100 65 25 100 65 25 100 65 25 100 65 25 100 65 25 100 65 25 100 65 25 100 65 25 100 65 25 100 65 25 100 65 25 100 65 25 100 65 25 100 65 25 100 65 25 100 65 25 100 65 25 100 65 25 100 65 25 100 65 25 100 65 25 100 65 25 100 65 25 100 65 25 100 65 25 100 65 25 100 65 25 100 65 25 100 65 25 100 65 25 100 65 25 100 65 25 100 65 25 100 65 25 100 65 25 100 65 25 100 65 25 100 65 25 100 65 25 100 65 25 100 65 25 100 65 25 100 65 25 100 65 25 100 65 25 100 65 25 100 65 25 100 65 25 100 65 25 100 65 25 100 65 25 100 65 25 100 65 25 100 65 25 100 65 25 100 65 25 100 65 25 100 65 25 100 65 25 100 65 25 100 65 25 100 65 25 100 65 25 100 65 25 100 65 25 100 65 25 100 65 25 100 65 25 100 65 25 100 65 25 100 65 25 100 65 25 100 65 25 100 65 25 100 65 25 100 65 25 100 65 25 100 65 25 100 65 25 100 65 25 100 65 25 100 65 25 100 65 25 100 65 25 100 65 25 100 65 25 100 65 25 100 65 25 100 65 25 100 65 25 100 65 25 100 65 25 100 65 25 100 65 25 100 65 25 100 65 25 100 65 25 100 65 25 100 65 25 100 65 25 100 65 25 100 65 25 100 65 25 100 65 25 100 65 25 100 65 25 100 65 25 100 65 25 100 65 25 100 65 25 100 65 25 100 65 25 100 65 25 100 65 25 100 65 25 100 65 25 100 65 25 100 65 25 100 65 25 100 65 25 100 65 25 100 65 25 100 65 25 100 65 25 100 65 25 100 65 25 100 65 25 100 65 25 100 65 25 100 65 25 100 65 25 100 65 25 100 65 25 100 65 25 100 65 25 100 65 25 100 65 25 100 65 25 100 65 25 100 65 25 100 65 25 100 65 25 100 65 25 100 65 25 100 65 25 100 65 25 100 65 25 100 65 25 100 65 25 100 65 25 100 65 25 100 65 25 100 65 25 100 65 25 100 65 25 100 65 25 100 65 25 100 65 25 100 65 25 100 65 25 100 65 25 100 65 25 100 65 25 100 65 25 100 65 25 100 65 25 100 65 25 100 65 25 100 65 25 100 65 25 100 65 25 100 65 25 100 65 25 100 65 25 100 65 25 100 65 25 100 65 25 100 65 25 100 65 25 100 65 25 100 65 25 100 65 25 100 65 25 100 65 25 100 65 25 100 65 25 100 65 25 100 65 25 100 65 25 100 65 25 100 65 25 100 65 25 100 65 25 100 65 25 100 65 25 100 65 25 100 65 25 100 65 25 100 65 25 100 65 25 100 65 25 100 65 25 100 65 25 100 65 25 100 65 25 100 65 25 100 65 25 100 65 25 100 65 25 100 65 25 100 65 25 100 65 25 100 65 25 100 65 25 100 65 25 100 65 25 100 65 25 100 65 25 100 65 25 100 65 25 100 65 25 100 65 25 100 65 25 100 65 25 100 65 25 100 65 25 100 65 25 100 65 25 100 65 25 100 65 25 100 65 25 100 65 25 100 65 25 100 65 25 100 65 25 100 65 25 100 65 25 100 65 25 100 65 25 100 65 25 100 65 25 100 65 25 100 65 25 100 65 25 100 65 25 100 65 25 100 65 25 100 65 25 100 65 25 100 65 25 100 65 25 100 65 25 100 65 25 100 65 25 100 65 25 100 65 25 100 65 25 100 65 25 100 65 25 100 65 25 100 65 25 100 65 25 100 65 25 100 65 25 100 65 25 100 65
25 100 65 25 100 65 25 100 65 25 100 65 25 100 65 25 100 65 25 100 65 25 100 65 25 100 65 25 100 65 25 100 65 25 100 65 25 100 65 25 100 65 25 100 65 25 100 65 25 100 65 25 100 65 25 100 65 25 100 65 25 100 65 25 100 65 25 100 65 25 100 65 25 100 65 25 100 65 25 100 65 25 100 65 25 100 65 25 100 65 25 100 65 25 100 65 25 100 65 25 100 65 25 100 65 25 100 65 25 100 65 25 100 65 25 100 65 25 100 65 25 100 65 25 100 65 25 100 65 25 100 65 25 100 65 25 100 65 25 100 65 25 100 65 25 100 65 25 100 65 25 100 65 25 100 65 25 100 65 25 100 65 25 100 65 25 100 65 25 100 65 25 100 65 25 100 65 25 100 65 25 100 65 25 100 65 25 100 65 25 100 65 25 100 65 25 100 65 25 100 65 25 100 65 25 100 65 25 100 65 25 100 65 25 100 65 25 100 65 25 100 65 25 100 65 25 100 65 25 100 65 25 100 65 25 100 65 25 100 65 25 100 65 25 100 65 25 100 65 25 100 65 25 100 65 25 100 65 25 100 65 25 100 65 25 100 65 25 100 65 25 100 65 25 100 65 25 100 65 25 100 65 25 100 65 25 100 65 25 100 65 25 100 65 25 100 65 25 100 65 25 100 65 25 100 65 25 100 65 25 100 65 25 100 65 25 100 65 25 100 65 25 100 65 25 100 65 25 100 65 25 100 65 25 100 65 25 100 65 25 100 65 25 100 65 25 100 65 25 100 65 25 100 65 25 100 65 25 100 65 25 100 65 25 100 65 25 100 65 25 100 65 25 100 65 25 100 65 25 100 65 25 100 65 25 100 65 25 100 65 25 100 65 25 100 65 25 100 65 25 100 65 25 100 65 25 100 65 25 100 65 25 100 65 25 100 65 25 100 65 25 100 65 25 100 65 25 100 65 25 100 65 25 100 65 25 100 65 25 100 65 25 100 65 25 100 65 25 100 65 25 100 65 25 100 65 25 100 65 25 100 65 25 100 65 25 100 65 25 100 65 25 100 65 25 100 65 25 100 65 25 100 65 25 100 65 25 100 65 25 100 65 25 100 65 25 100 65 25 100 65 25 100 65 25 100 65 25 100 65 25 100 65 25 100 65 25 100 65 25 100 65 25 100 65 25 100 65 25 100 65 25 100 65 25 100 65 25 100 65 25 100 65 25 100 65 25 100 65 25 100 65 25 100 65 25 100 65 25 100 65 25 100 65 25 100 65 25 100 65 25 100 65 25 100 65 25 100 65 25 100 65 25 100 65 25 100 65 25 100 65 25 100 65 25 100 65 25 100 65 25 100 65 25 100 65 25 100 65 25 100 65 25 100 65 25 100 65 25 100 65 25 100 65 25 100 65 25 100 65 25 100 65 25 100 65 25 100 65 25 100 65 25 100 65 25 100 65 25 100 65 25 100 65 25 100 65 25 100 65 25 100 65 25 100 65 25 100 65 25 100 65 25 100 65 25 100 65 25 100 65 25 100 65 25 100 65 25 100 65 25 100 65 25 100 65 25 100 65 25 100 65 25 100 65 25 100 65 25 100 65 25 100 65 25 100 65 25 100 65 25 100 65 25 100 65 25 100 65 25 100 65 25 100 65 25 100 65 25 100 65 25 100 65 25 100 65 25 100 65 25 100 65 25 100 65 25 100 65 25 100 65 25 100 65 25 100 65 25 100 65 25 100 65 25 100 65 25 100 65 25 100 65 25 100 65 25 100 65 25 100 65 25 100 65 25 100 65 25 100 65 25 100 65 25 100 65 25 100 65 25 100 65 25 100 65 25 100 65 25 100 65 25 100 65 25 100 65 25 100 65 25 100 65 25 100 65 25 100 65 25 100 65 25 100 65 25 100 65 25 100 65 25 100 65 25 100 65 25 100 65 25 100 65 25 100 65 25 100 65 25 100 65 25 100 65 25 100 65 25 100 65 25 100 65 25 100 65 25 100 65 25 100 65 25 100 65 25 100 65 25 100 65 25 100 65 25 100 65 25 100 65 25 100 65 25 100 65 25 100 65 25 100 65 25 100 65 25 100 65 25 100 65 25 100 65 25 100 65 25 100 65 25 100 65 25 100 65 25 100 65 25 100 65 25 100 65 25 100 65
25 100 65 25 100 65 25 100 65 25 100 65 25 100 65 25 100 65 25 100 65 25 100 65 25 100 65 25 100 65 25 100 65 25 100 65 25 100 65 25 100 65 25 100 65 25 100 65 25 100 65 25 100 65 25 100 65 25 100 65 25 100 65 25 100 65 25 100 65 25 100 65 25 100 65 25 100 65 25 100 65 25 100 65 25 100 65 25 100 65 25 100 65 25 100 65 25 100 65 25 100 65 25 100 65 25 100 65 25 100 65 25 100 65 25 100 65 25 100 65 25 100 65 25 100 65 25 100 65 25 100 65 25 100 65 25 100 65 25 100 65 25 100 65 25 100 65 25 100 65 25 100 65 25 100 65 25 100 65 25 100 65 25 100 65 25 100 65 25 100 65 25 100 65 25 100 65 25 100 65 25 100 65 25 100 65 25 100 65 25 100 65 25 100 65 25 100 65 25 100 65 25 100 65 25 100 65 25 100 65 25 100 65 25 100 65 25 100 65 25 100 65 25 100 65 25 100 65 25 100 65 25 100 65 25 100 65 25 100 65 25 100 65 25 100 65 25 100 65 25 100 65 25 100 65 25 100 65 25 100 65 25 100 65 25 100 65 25 100 65 25 100 65 25 100 65 25 100 65 25 100 65 25 100 65 25 100 65 25 100 65 25 100 65 25 100 65 25 100 65 25 100 65 25 100 65 25 100 65 25 100 65 25 100 65 25 100 65 25 100 65 25 100 65 25 100 65 25 100 65 25 100 65 25 100 65 25 100 65 25 100 65 25 100 65 25 100 65 25 100 65 25 100 65 25 100 65 25 100 65 25 100 65 25 100 65 25 100 65 25 100 65 25 100 65 25 100 65 25 100 65 25 100 65 25 100 65 25 100 65 25 100 65 25 100 65 25 100 65 25 100 65 25 100 65 25 100 65 25 100 65 25 100 65 25 100 65 25 100 65 25 100 65 25 100 65 25 100 65 25 100 65 25 100 65 25 100 65 25 100 65 25 100 65 25 100 65 25 100 65 25 100 65 25 100 65 25 100 65 25 100 65 25 100 65 25 100 65 25 100 65 25 100 65 25 100 65 25 100 65 25 100 65 25 100 65 25 100 65 25 100 65 25 100 65 25 100 65 25 100 65 25 100 65 25 100 65 25 100 65 25 100 65 25 100 65 25 100 65 25 100 65 25 100 65 25 100 65 25 100 65 25 100 65 25 100 65 25 100 65 25 100 65 25 100 65 25 100 65 25 100 65 25 100 65 25 100 65 25 100 65 25 100 65 25 100 65 25 100 65 25 100 65 25 100 65 25 100 65 25 100 65 25 100 65 25 100 65 25 100 65 25 100 65 25 100 65 25 100 65 25 100 65 25 100 65 25 100 65 25 100 65 25 100 65 25 100 65 25 100 65 25 100 65 25 100 65 25 100 65 25 100 65 25 100 65 25 100 65 25 100 65 25 100 65 25 100 65 25 100 65 25 100 65 25 100 65 25 100 65 25 100 65 25 100 65 25 100 65 25 100 65 25 100 65 25 100 65 25 100 65 25 100 65 25 100 65 25 100 65 25 100 65 25 100 65 25 100 65 25 100 65 25 100 65 25 100 65 25 100 65 25 100 65 25 100 65 25 100 65 25 100 65 25 100 65 25 100 65 25 100 65 25 100 65 25 100 65 25 100 65 25 100 65 25 100 65 25 100 65 25 100 65 25 100 65 25 100 65 25 100 65 25 100 65 25 100 65 25 100 65 25 100 65 25 100 65 25 100 65 25 100 65 25 100 65 25 100 65 25 100 65 25 100 65 25 100 65 25 100 65 25 100 65 25 100 65 25 100 65 25 100 65 25 100 65 25 100 65 25 100 65 25 100 65 25 100 65 25 100 65 25 100 65 25 100 65 25 100 65 25 100 65 25 100 65 25 100 65 25 100 65 25 100 65 25 100 65 25 100 65 25 100 65 25 100 65 25 100 65 25 100 65 25 100 65 25 100 65 25 100 65 25 100 65 25 100 65 25 100 65 25 100 65 25 100 65 25 100 65 25 100 65 25 100 65 25 100 65 25 100 65 25 100 65 25 100 65 25 100 65 25 100 65 25 100 65 25 100 65 25 100 65 25 100 65 25 100 65 25 100 65 25 100 65 25 100 65 25 100 65 25 100 65 25 100 65 25 100 65
25 100 65 25 100 65 25 100 65 25 100 65 25 100 65 25 100 65 25 100 65 25 100 65 25 100 65 25 100 65 25 100 65 25 100 65 25 100 65 25 100 65 25 100 65 25 100 65 25 100 65 25 100 65 25 100 65 25 100 65 25 100 65 25 100 65 25 100 65 25 100 65 25 100 65 25 100 65 25 100 65 25 100 65 25 100 65 25 100 65 25 100 65 25 100 65 25 100 65 25 100 65 25 100 65 25 100 65 25 100 65 25 100 65 25 100 65 25 100 65 25 100 65 25 100 65 25 100 65 25 100 65 25 100 65 25 100 65 25 100 65 25 100 65 25 100 65 25 100 65 25 100 65 25 100 65 25 100 65 25 100 65 25 100 65 25 100 65 25 100 65 25 100 65 25 100 65 25 100 65 25 100 65 25 100 65 25 100 65 25 100 65 25 100 65 25 100 65 25 100 65 25 100 65 25 100 65 25 100 65 25 100 65 25 100 65 25 100 65 25 100 65 25 100 65 25 100 65 25 100 65 25 100 65 25 100 65 25 100 65 25 100 65 25 100 65 25 100 65 25 100 65 25 100 65 25 100 65 25 100 65 25 100 65 25 100 65 25 100 65 25 100 65 25 100 65 25 100 65 25 100 65 25 100 65 25 100 65 25 100 65 25 100 65 25 100 65 25 100 65 25 100 65 25 100 65 25 100 65 25 100 65 25 100 65 25 100 65 25 100 65 25 100 65 25 100 65 25 100 65 25 100 65 25 100 65 25 100 65 25 100 65 25 100 65 25 100 65 25 100 65 25 100 65 25 100 65 25 100 65 25 100 65 25 100 65 25 100 65 25 100 65 25 100 65 25 100 65 25 100 65 25 100 65 25 100 65 25 100 65 25 100 65 25 100 65 25 100 65 25 100 65 25 100 65 25 100 65 25 100 65 25 100 65 25 100 65 25 100 65 25 100 65 25 100 65 25 100 65 25 100 65 25 100 65 25 100 65 25 100 65 25 100 65 25 100 65 25 100 65 25 100 65 25 100 65 25 100 65 25 100 65 25 100 65 25 100 65 25 100 65 25 100 65 25 100 65 25 100 65 25 100 65 25 100 65 25 100 65 25 100 65 25 100 65 25 100 65 25 100 65 25 100 65 25 100 65 25 100 65 25 100 65 25 100 65 25 100 65 25 100 65 25 100 65 25 100 65 25 100 65 25 100 65 25 100 65 25 100 65 25 100 65 25 100 65 25 100 65 25 100 65 25 100 65 25 100 65 25 100 65 25 100 65 25 100 65 25 100 65 25 100 65 25 100 65 25 100 65 25 100 65 25 100 65 25 100 65 25 100 65 25 100 65 25 100 65 25 100 65 25 100 65 25 100 65 25 100 65 25 100 65 25 100 65 25 100 65 25 100 65 25 100 65 25 100 65 25 100 65 25 100 65 25 100 65 25 100 65 25 100 65 25 100 65 25 100 65 25 100 65 25 100 65 25 100 65 25 100 65 25 100 65 25 100 65 25 100 65 25 100 65 25 100 65 25 100 65 25 100 65 25 100 65 25 100 65 25 100 65 25 100 65 25 100 65 25 100 65 25 100 65 25 100 65 25 100 65 25 100 65 25 100 65 25 100 65 25 100 65 25 100 65 25 100 65 25 100 65 25 100 65 25 100 65 25 100 65 25 100 65 25 100 65 25 100 65 25 100 65 25 100 65 25 100 65 25 100 65 25 100 65 25 100 65 25 100 65 25 100 65 25 100 65 25 100 65 25 100 65 25 100 65 25 100 65 25 100 65 25 100 65 25 100 65 25 100 65 25 100 65 25 100 65 25 100 65 25 100 65 25 100 65 25 100 65 25 100 65 25 100 65 25 100 65 25 100 65 25 100 65 25 100 65 25 100 65 25 100 65 25 100 65 25 100 65 25 100 65 25 100 65 25 100 65 25 100 65 25 100 65 25 100 65 25 100 65 25 100 65 25 100 65 25 100 65 25 100 65 25 100 65 25 100 65 25 100 65 25 100 65 25 100 65 25 100 65 25 100 65 25 100 65 25 100 65 25 100 65 25 100 65 25 100 65 25 100 65 25 100 65 25 100 65 25 100 65 25 100 65 25 100 65 25 100 65 25 100 65 25 100 65 25 100 65 25 100 65 25 100 65 25 100 65 25 100 65 25 100 65
25 100 65 25 100 65 25 100 65 25 100 65 25 100 65 25 100 65 25 100 65 25 100 65 25 100 65 25 100 65 25 100 65 25 100 65 25 100 65 25 100 65 25 100 65 25 100 65 25 100 65 25 100 65 25 100 65 25 100 65 25 100 65 25 100 65 25 100 65 25 100 65 25 100 65 25 100 65 25 100 65 25 100 65 25 100 65 25 100 65 25 100 65 25 100 65 25 100 65 25 100 65 25 100 65 25 100 65 25 100 65 25 100 65 25 100 65 25 100 65 25 100 65 25 100 65 25 100 65 25 100 65 25 100 65 25 100 65 25 100 65 25 100 65 25 100 65 25 100 65 25 100 65 25 100 65 25 100 65 25 100 65 25 100 65 25 100 65 25 100 65 25 100 65 25 100 65 25 100 65 25 100 65 25 100 65 25 100 65 25 100 65 25 100 65 25 100 65 25 100 65 25 100 65 25 100 65 25 100 65 25 100 65 25 100 65 25 100 65 25 100 65 25 100 65 25 100 65 25 100 65 25 100 65 25 100 65 25 100 65 25 100 65 25 100 65 25 100 65 25 100 65 25 100 65 25 100 65 25 100 65 25 100 65 25 100 65 25 100 65 25 100 65 25 100 65 25 100 65 25 100 65 25 100 65 25 100 65 25 100 65 25 100 65 25 100 65 25 100 65 25 100 65 25 100 65 25 100 65 25 100 65 25 100 65 25 100 65 25 100 65 25 100 65 25 100 65 25 100 65 25 100 65 25 100 65 25 100 65 25 100 65 25 100 65 25 100 65 25 100 65 25 100 65 25 100 65 25 100 65 25 100 65 25 100 65 25 100 65 25 100 65 25 100 65 25 100 65 25 100 65 25 100 65 25 100 65 25 100 65 25 100 65 25 100 65 25 100 65 25 100 65 25 100 65 25 100 65 25 100 65 25 100 65 25 100 65 25 100 65 25 100 65 25 100 65 25 100 65 25 100 65 25 100 65 25 100 65 25 100 65 25 100 65 25 100 65 25 100 65 25 100 65 25 100 65 25 100 65 25 100 65 25 100 65 25 100 65 25 100 65 25 100 65 25 100 65 25 100 65 25 100 65 25 100 65 25 100 65 25 100 65 25 100 65 25 100 65 25 100 65 25 100 65 25 100 65 25 100 65 25 100 65 25 100 65 25 100 65 25 100 65 25 100 65 25 100 65 25 100 65 25 100 65 25 100 65 25 100 65 25 100 65 25 100 65 25 100 65 25 100 65 25 100 65 25 100 65 25 100 65 25 100 65 25 100 65 25 100 65 25 100 65 25 100 65 25 100 65 25 100 65 25 100 65 25 100 65 25 100 65 25 100 65 25 100 65 25 100 65 25 100 65 25 100 65 25 100 65 25 100 65 25 100 65 25 100 65 25 100 65 25 100 65 25 100 65 25 100 65 25 100 65 25 100 65 25 100 65 25 100 65 25 100 65 25 100 65 25 100 65 25 100 65 25 100 65 25 100 65 25 100 65 25 100 65 25 100 65 25 100 65 25 100 65 25 100 65 25 100 65 25 100 65 25 100 65 25 100 65 25 100 65 25 100 65 25 100 65 25 100 65 25 100 65 25 100 65 25 100 65 25 100 65 25 100 65 25 100 65 25 100 65 25 100 65 25 100 65 25 100 65 25 100 65 25 100 65 25 100 65 25 100 65 25 100 65 25 100 65 25 100 65 25 100 65 25 100 65 25 100 65 25 100 65 25 100 65 25 100 65 25 100 65 25 100 65 25 100 65 25 100 65 25 100 65 25 100 65 25 100 65 25 100 65 25 100 65 25 100 65 25 100 65 25 100 65 25 100 65 25 100 65 25 100 65 25 100 65 25 100 65 25 100 65 25 100 65 25 100 65 25 100 65 25 100 65 25 100 65 25 100 65 25 100 65 25 100 65 25 100 65 25 100 65 25 100 65 25 100 65 25 100 65 25 100 65 25 100 65 25 100 65 25 100 65 25 100 65 25 100 65 25 100 65 25 100 65 25 100 65 25 100 65 25 100 65 25 100 65 25 100 65 25 100 65 25 100 65 25 100 65 25 100 65 25 100 65 25 100 65 25 100 65 25 100 65 25 100 65 25 100 65 25 100 65 25 100 65 25 100 65 25 100 65 25 100 65 25 100 65 25 100 65 25 100 65 25 100 65
25 100 65 25 100 65 25 100 65 25 100 65 25 100 65 25 100 65 25 100 65 25 100 65 25 100 65 25 100 65 25 100 65 25 100 65 25 100 65 25 100 65 25 100 65 25 100 65 25 100 65 25 100 65 25 100 65 25 100 65 25 100 65 25 100 65 25 100 65 25 100 65 25 100 65 25 100 65 25 100 65 25 100 65 25 100 65 25 100 65 25 100 65 25 100 65 25 100 65 25 100 65 25 100 65 25 100 65 25 100 65 25 100 65 25 100 65 25 100 65 25 100 65 25 100 65 25 100 65 25 100 65 25 100 65 25 100 65 25 100 65 25 100 65 25 100 65 25 100 65 25 100 65 25 100 65 25 100 65 25 100 65 25 100 65 25 100 65 25 100 65 25 100 65 25 100 65 25 100 65 25 100 65 25 100 65 25 100 65 25 100 65 25 100 65 25 100 65 25 100 65 25 100 65 25 100 65 25 100 65 25 100 65 25 100 65 25 100 65 25 100 65 25 100 65 25 100 65 25 100 65 25 100 65 25 100 65 25 100 65 25 100 65 25 100 65 25 100 65 25 100 65 25 100 65 25 100 65 25 100 65 25 100 65 25 100 65 25 100 65 25 100 65 25 100 65 25 100 65 25 100 65 25 100 65 25 100 65 25 100 65 25 100 65 25 100 65 25 100 65 25 100 65 25 100 65 25 100 65 25 100 65 25 100 65 25 100 65 25 100 65 25 100 65 25 100 65 25 100 65 25 100 65 25 100 65 25 100 65 25 100 65 25 100 65 25 100 65 25 100 65 25 100 65 25 100 65 25 100 65 25 100 65 25 100 65 25 100 65 25 100 65 25 100 65 25 100 65 25 100 65 25 100 65 25 100 65 25 100 65 25 100 65 25 100 65 25 100 65 25 100 65 25 100 65 25 100 65 25 100 65 25 100 65 25 100 65 25 100 65 25 100 65 25 100 65 25 100 65 25 100 65 25 100 65 25 100 65 25 100 65 25 100 65 25 100 65 25 100 65 25 100 65 25 100 65 25 100 65 25 100 65 25 100 65 25 100 65 25 100 65 25 100 65 25 100 65 25 100 65 25 100 65 25 100 65 25 100 65 25 100 65 25 100 65 25 100 65 25 100 65 25 100 65 25 100 65 25 100 65 25 100 65 25 100 65 25 100 65 25 100 65 25 100 65 25 100 65 25 100 65 25 100 65 25 100 65 25 100 65 25 100 65 25 100 65 25 100 65 25 100 65 25 100 65 25 100 65 25 100 65 25 100 65 25 100 65 25 100 65 25 100 65 25 100 65 25 100 65 25 100 65 25 100 65 25 100 65 25 100 65 25 100 65 25 100 65 25 100 65 25 100 65 25 100 65 25 100 65 25 100 65 25 100 65 25 100 65 25 100 65 25 100 65 25 100 65 25 100 65 25 100 65 25 100 65 25 100 65 25 100 65 25 100 65 25 100 65 25 100 65 25 100 65 25 100 65 25 100 65 25 100 65 25 100 65 25 100 65 25 100 65 25 100 65 25 100 65 25 100 65 25 100 65 25 100 65 25 100 65 25 100 65 25 100 65 25 100 65 25 100 65 25 100 65 25 100 65 25 100 65 25 100 65 25 100 65 25 100 65 25 100 65 25 100 65 25 100 65 25 100 65 25 100 65 25 100 65 25 100 65 25 100 65 25 100 65 25 100 65 25 100 65 25 100 65 25 100 65 25 100 65 25 100 65 25 100 65 25 100 65 25 100 65 25 100 65 25 100 65 25 100 65 25 100 65 25 100 65 25 100 65 25 100 65 25 100 65 25 100 65 25 100 65 25 100 65 25 100 65 25 100 65 25 100 65 25 100 65 25 100 65 25 100 65 25 100 65 25 100 65 25 100 65 25 100 65 25 100 65 25 100 65 25 100 65 25 100 65 25 100 65 25 100 65 25 100 65 25 100 65 25 100 65 25 100 65 25 100 65 25 100 65 25 100 65 25 100 65 25 100 65 25 100 65 25 100 65 25 100 65 25 100 65 25 100 65 25 100 65 25 100 65 25 100 65 25 100 65 25 100 65 25 100 65 25 100 65 25 100 65 25 100 65 25 100 65 25 100 65 25 100 65 25 100 65 25 100 65 25 100 65 25 100 65 25 100 65 25 100 65 25 100 65 25 100 65 25 100 65
25 100 65 25 100 65 25 100 65 25 100 65 25 100 65 25 100 65 25 100 65 25 100 65 25 100 65 25 100 65 25 100 65 25 100 65 25 100 65 25 100 65 25 100 65 25 100 65 25 100 65 25 100 65 25 100 65 25 100 65 25 100 65 25 100 65 25 100 65 25 100 65 25 100 65 25 100 65 25 100 65 25 100 65 25 100 65 25 100 65 25 100 65 25 100 65 25 100 65 25 100 65 25 100 65 25 100 65 25 100 65 25 100 65 25 100 65 25 100 65 25 100 65 25 100 65 25 100 65 25 100 65 25 100 65 25 100 65 25 100 65 25 100 65 25 100 65 25 100 65 25 100 65 25 100 65 25 100 65 25 100 65 25 100 65 25 100 65 25 100 65 25 100 65 25 100 65 25 100 65 25 100 65 25 100 65 25 100 65 25 100 65 25 100 65 25 100 65 25 100 65 25 100 65 25 100 65 25 100 65 25 100 65 25 100 65 25 100 65 25 100 65 25 100 65 25 100 65 25 100 65 25 100 65 25 100 65 25 100 65 25 100 65 25 100 65 25 100 65 25 100 65 25 100 65 25 100 65 25 100 65 25 100 65 25 100 65 25 100 65 25 100 65 25 100 65 25 100 65 25 100 65 25 100 65 25 100 65 25 100 65 25 100 65 25 100 65 25 100 65 25 100 65 25 100 65 25 100 65 25 100 65 25 100 65 25 100 65 25 100 65 25 100 65 25 100 65 25 100 65 25 100 65 25 100 65 25 100 65 25 100 65 25 100 65 25 100 65 25 100 65 25 100 65 25 100 65 25 100 65 25 100 65 25 100 65 25 100 65 25 100 65 25 100 65 25 100 65 25 100 65 25 100 65 25 100 65 25 100 65 25 100 65 25 100 65 25 100 65 25 100 65 25 100 65 25 100 65 25 100 65 25 100 65 25 100 65 25 100 65 25 100 65 25 100 65 25 100 65 25 100 65 25 100 65 25 100 65 25 100 65 25 100 65 25 100 65 25 100 65 25 100 65 25 100 65 25 100 65 25 100 65 25 100 65 25 100 65 25 100 65 25 100 65 25 100 65 25 100 65 25 100 65 25 100 65 25 100 65 25 100 65 25 100 65 25 100 65 25 100 65 25 100 65 25 100 65 25 100 65 25 100 65 25 100 65 25 100 65 25 100 65 25 100 65 25 100 65 25 100 65 25 100 65 25 100 65 25 100 65 25 100 65 25 100 65 25 100 65 25 100 65 25 100 65 25 100 65 25 100 65 25 100 65 25 100 65 25 100 65 25 100 65 25 100 65 25 100 65 25 100 65 25 100 65 25 100 65 25 100 65 25 100 65 25 100 65 25 100 65 25 100 65 25 100 65 25 100 65 25 100 65 25 100 65 25 100 65 25 100 65 25 100 65 25 100 65 25 100 65 25 100 65 25 100 65 25 100 65 25 100 65 25 100 65 25 100 65 25 100 65 25 100 65 25 100 65 25 100 65 25 100 65 25 100 65 25 100 65 25 100 65 25 100 65 25 100 65 25 100 65 25 100 65 25 100 65 25 100 65 25 100 65 25 100 65 25 100 65 25 100 65 25 100 65 25 100 65 25 100 65 25 100 65 25 100 65 25 100 65 25 100 65 25 100 65 25 100 65 25 100 65 25 100 65 25 100 65 25 100 65 25 100 65 25 100 65 25 100 65 25 100 65 25 100 65 25 100 65 25 100 65 25 100 65 25 100 65 25 100 65 25 100 65 25 100 65 25 100 65 25 100 65 25 100 65 25 100 65 25 100 65 25 100 65 25 100 65 25 100 65 25 100 65 25 100 65 25 100 65 25 100 65 25 100 65 25 100 65 25 100 65 25 100 65 25 100 65 25 100 65 25 100 65 25 100 65 25 100 65 25 100 65 25 100 65 25 100 65 25 100 65 25 100 65 25 100 65 25 100 65 25 100 65 25 100 65 25 100 65 25 100 65 25 100 65 25 100 65 25 100 65 25 100 65 25 100 65 25 100 65 25 100 65 25 100 65 25 100 65 25 100 65 25 100 65 25 100 65 25 100 65 25 100 65 25 100 65 25 100 65 25 100 65 25 100 65 25 100 65 25 100 65 25 100 65 25 100 65 25 100 65 25 100 65 25 100 65 25 100 65 25 100 65 25 100 65 25 100 65
25 100 65 25 100 65 25 100 65 25 100 65 25 100 65 25 100 65 25 100 65 25 100 65 25 100 65 25 100 65 25 100 65 25 100 65 25 100 65 25 100 65 25 100 65 25 100 65 25 100 65 25 100 65 25 100 65 25 100 65 25 100 65 25 100 65 25 100 65 25 100 65 25 100 65 25 100 65 25 100 65 25 100 65 25 100 65 25 100 65 25 100 65 25 100 65 25 100 65 25 100 65 25 100 65 25 100 65 25 100 65 25 100 65 25 100 65 25 100 65 25 100 65 25 100 65 25 100 65 25 100 65 25 100 65 25 100 65 25 100 65 25 100 65 25 100 65 25 100 65 25 100 65 25 100 65 25 100 65 25 100 65 25 100 65 25 100 65 25 100 65 25 100 65 25 100 65 25 100 65 25 100 65 25 100 65 25 100 65 25 100 65 25 100 65 25 100 65 25 100 65 25 100 65 25 100 65 25 100 65 25 100 65 25 100 65 25 100 65 25 100 65 25 100 65 25 100 65 25 100 65 25 100 65 25 100 65 25 100 65 25 100 65 25 100 65 25 100 65 25 100 65 25 100 65 25 100 65 25 100 65 25 100 65 25 100 65 25 100 65 25 100 65 25 100 65 25 100 65 25 100 65 25 100 65 25 100 65 25 100 65 25 100 65 25 100 65 25 100 65 25 100 65 25 100 65 25 100 65 25 100 65 25 100 65 25 100 65 25 100 65 25 100 65 25 100 65 25 100 65 25 100 65 25 100 65 25 100 65 25 100 65 25 100 65 25 100 65 25 100 65 25 100 65 25 100 65 25 100 65 25 100 65 25 100 65 25 100 65 25 100 65 25 100 65 25 100 65 25 100 65 25 100 65 25 100 65 25 100 65 25 100 65 25 100 65 25 100 65 25 100 65 25 100 65 25 100 65 25 100 65 25 100 65 25 100 65 25 100 65 25 100 65 25 100 65 25 100 65 25 100 65 25 100 65 25 100 65 25 100 65 25 100 65 25 100 65 25 100 65 25 100 65 25 100 65 25 100 65 25 100 65 25 100 65 25 100 65 25 100 65 25 100 65 25 100 65 25 100 65 25 100 65 25 100 65 25 100 65 25 100 65 25 100 65 25 100 65 25 100 65 25 100 65 25 100 65 25 100 65 25 100 65 25 100 65 25 100 65 25 100 65 25 100 65 25 100 65 25 100 65 25 100 65 25 100 65 25 100 65 25 100 65 25 100 65 25 100 65 25 100 65 25 100 65 25 100 65 25 100 65 25 100 65 25 100 65 25 100 65 25 100 65 25 100 65 25 100 65 25 100 65 25 100 65 25 100 65 25 100 65 25 100 65 25 100 65 25 100 65 25 100 65 25 100 65 25 100 65 25 100 65 25 100 65 25 100 65 25 100 65 25 100 65 25 100 65 25 100 65 25 100 65 25 100 65 25 100 65 25 100 65 25 100 65 25 100 65 25 100 65 25 100 65 25 100 65 25 100 65 25 100 65 25 100 65 25 100 65 25 100 65 25 100 65 25 100 65 25 100 65 25 100 65 25 100 65 25 100 65 25 100 65 25 100 65 25 100 65 25 100 65 25 100 65 25 100 65 25 100 65 25 100 65 25 100 65 240 240 240 240 240 240 25 100 65 25 100 65 25 100 65 25 100 65 25 100 65 25 100 65 25 100 65 25 100 65 25 100 65 25 100 65 25 100 65 25 100 65 25 100 65 25 100 65 25 100 65 25 100 65 25 100 65 25 100 65 25 100 65 25 100 65 25 100 65 25 100 65 25 100 65 25 100 65 25 100 65 25 100 65 25 100 65 25 100 65 25 100 65 25 100 65 25 100 65 25 100 65 25 100 65 25 100 65 25 100 65 25 100 65 25 100 65 25 100 65 25 100 65 25 100 65 25 100 65 25 100 65 25 100 65 25 100 65 25 100 65 25 100 65 25 100 65 25 100 65 25 100 65 25 100 65 25 100 65 25 100 65 25 100 65 25 100 65 25 100 65 25 100 65 25 100 65 25 100 65 25 100 65 25 100 65 25 100 65 25 100 65 25 100 65 25 100 65 25 100 65 25 100 65 25 100 65 25 100 65 25 100 65 25 100 65 25 100 65 25 100 65 25 100 65 25 100 65 25 100 65 25 100 65 25 100 65 25 100 65 25 100 65
25 100 65 25 100 65 25 100 65 25 100 65 25 100 65 25 100 65 25 100 65 25 100 65 25 100 65 25 100 65 25 100 65 25 100 65 25 100 65 25 100 65 25 100 65 25 100 65 25 100 65 25 100 65 25 100 65 25 100 65 25 100 65 25 100 65 25 100 65 25 100 65 25 100 65 25 100 65 25 100 65 25 100 65 25 100 65 25 100 65 25 100 65 25 100 65 25 100 65 25 100 65 25 100 65 25 100 65 25 100 65 25 100 65 25 100 65 25 100 65 25 100 65 25 100 65 25 100 65 25 100 65 25 100 65 25 100 65 25 100 65 25 100 65 25 100 65 25 100 65 25 100 65 25 100 65 25 100 65 25 100 65 25 100 65 25 100 65 25 100 65 25 100 65 25 100 65 25 100 65 25 100 65 25 100 65 25 100 65 25 100 65 25 100 65 25 100 65 25 100 65 25 100 65 25 100 65 25 100 65 25 100 65 25 100 65 25 100 65 25 100 65 25 100 65 25 100 65 25 100 65 25 100 65 25 100 65 25 100 65 25 100 65 25 100 65 25 100 65 25 100 65 25 100 65 25 100 65 25 100 65 25 100 65 25 100 65 25 100 65 25 100 65 25 100 65 25 100 65 25 100 65 25 100 65 25 100 65 25 100 65 25 100 65 25 100 65 25 100 65 25 100 65 25 100 65 25 100 65 25 100 65 25 100 65 25 100 65 25 100 65 25 100 65 25 100 65 25 100 65 25 100 65 25 100 65 25 100 65 25 100 65 25 100 65 25 100 65 25 100 65 25 100 65 25 100 65 25 100 65 25 100 65 25 100 65 25 100 65 25 100 65 25 100 65 25 100 65 25 100 65 25 100 65 25 100 65 25 100 65 25 100 65 25 100 65 25 100 65 25 100 65 25 100 65 25 100 65 25 100 65 25 100 65 25 100 65 25 100 65 25 100 65 25 100 65 25 100 65 25 100 65 25 100 65 25 100 65 25 100 65 25 100 65 25 100 65 25 100 65 25 100 65 25 100 65 25 100 65 25 100 65 25 100 65 25 100 65 25 100 65 25 100 65 25 100 65 25 100 65 25 100 65 25 100 65 25 100 65 25 100 65 25 100 65 25 100 65 25 100 65 25 100 65 25 100 65 25 100 65 25 100 65 25 100 65 25 100 65 25 100 65 25 100 65 25 100 65 25 100 65 25 100 65 25 100 65 25 100 65 25 100 65 25 100 65 25 100 65 25 100 65 25 100 65 25 100 65 25 100 65 25 100 65 25 100 65 25 100 65 25 100 65 25 100 65 25 100 65 25 100 65 25 100 65 25 100 65 25 100 65 25 100 65 25 100 65 25 100 65 25 100 65 25 100 65 25 100 65 25 100 65 25 100 65 25 100 65 25 100 65 25 100 65 25 100 65 25 100 65 25 100 65 25 100 65 25 100 65 25 100 65 25 100 65 25 100 65 25 100 65 25 100 65 25 100 65 25 100 65 25 100 65 25 100 65 25 100 65 25 100 65 25 100 65 25 100 65 25 100 65 25 100 65 25 100 65 25 100 65 25 100 65 25 100 65 25 100 65 25 100 65 25 100 65 25 100 65 25 100 65 240 240 240 240 240 240 240 240 240 240 240 240 240 240 240 240 240 240 25 100 65 25 100 65 25 100 65 25 100 65 25 100 65 25 100 65 25 100 65 25 100 65 25 100 65 25 100 65 25 100 65 25 100 65 25 100 65 25 100 65 25 100 65 25 100 65 25 100 65 25 100 65 25 100 65 25 100 65 25 100 65 25 100 65 25 100 65 25 100 65 25 100 65 25 100 65 25 100 65 25 100 65 25 100 65 25 100 65 25 100 65 25 100 65 25 100 65 25 100 65 25 100 65 25 100 65 25 100 65 25 100 65 25 100 65 25 100 65 25 100 65 25 100 65 25 100 65 25 100 65 25 100 65 25 100 65 25 100 65 25 100 65 25 100 65 25 100 65 25 100 65 25 100 65 25 100 65 25 100 65 25 100 65 25 100 65 25 100 65 25 100 65 25 100 65 25 100 65 25 100 65 25 100 65 25 100 65 25 100 65 25 100 65 25 100 65 25 100 65 25 100 65 25 100 65 25 100 65 25 100 65 25 100 65 25 100 65 25 100 65 25 100 65 25 100 65 25 100 65
25 100 65 25 100 65 25 100 65 25 100 65 25 100 65 25 100 65 25 100 65 25 100 65 25 100 65 25 100 65 25 100 65 25 100 65 25 100 65 25 100 65 25 100 65 25 100 65 25 100 65 25 100 65 25 100 65 25 100 65 25 100 65 25 100 65 25 100 65 25 100 65 25 100 65 25 100 65 25 100 65 25 100 65 25 100 65 25 100 65 25 100 65 25 100 65 25 100 65 25 100 65 25 100 65 25 100 65 25 100 65 25 100 65 25 100 65 25 100 65 25 100 65 25 100 65 25 100 65 25 100 65 25 100 65 25 100 65 25 100 65 25 100 65 25 100 65 25 100 65 25 100 65 25 100 65 25 100 65 25 100 65 25 100 65 25 100 65 25 100 65 25 100 65 25 100 65 25 100 65 25 100 65 25 100 65 25 100 65 25 100 65 25 100 65 25 100 65 25 100 65 25 100 65 25 100 65 25 100 65 25 100 65 25 100 65 25 100 65 25 100 65 25 100 65 25 100 65 25 100 65 25 100 65 25 100 65 25 100 65 25 100 65 25 100 65 25 100 65 25 100 65 25 100 65 25 100 65 25 100 65 25 100 65 25 100 65 25 100 65 25 100 65 25 100 65 25 100 65 25 100 65 25 100 65 25 100 65 25 100 65 25 100 65 25 100 65 25 100 65 25 100 65 25 100 65 25 100 65 25 100 65 25 100 65 25 100 65 25 100 65 25 100 65 25 100 65 25 100 65 25 100 65 25 100 65 25 100 65 25 100 65 25 100 65 25 100 65 25 100 65 25 100 65 25 100 65 25 100 65 25 100 65 25 100 65 25 100 65 25 100 65 25 100 65 25 100 65 25 100 65 25 100 65 25 100 65 25 100 65 25 100 65 25 100 65 25 100 65 25 100 65 25 100 65 25 100 65 25 100 65 25 100 65 25 100 65 25 100 65 25 100 65 25 100 65 25 100 65 25 100 65 25 100 65 25 100 65 25 100 65 25 100 65 25 100 65 25 100 65 25 100 65 25 100 65 25 100 65 25 100 65 25 100 65 25 100 65 25 100 65 25 100 65 25 100 65 25 100 65 25 100 65 25 100 65 25 100 65 25 100 65 25 100 65 25 100 65 25 100 65 25 100 65 25 100 65 25 100 65 25 100 65 25 100 65 25 100 65 25 100 65 25 100 65 25 100 65 25 100 65 25 100 65 25 100 65 25 100 65 25 100 65 25 100 65 25 100 65 25 100 65 25 100 65 25 100 65 25 100 65 25 100 65 25 100 65 25 100 65 25 100 65 25 100 65 25 100 65 25 100 65 25 100 65 25 100 65 25 100 65 25 100 65 25 100 65 25 100 65 25 100 65 25 100 65 25 100 65 25 100 65 25 100 65 25 100 65 25 100 65 25 100 65 25 100 65 25 100 65 25 100 65 25 100 65 25 100 65 25 100 65 25 100 65 25 100 65 25 100 65 25 100 65 25 100 65 25 100 65 25 100 65 25 100 65 25 100 65 25 100 65 25 100 65 25 100 65 25 100 65 25 100 65 25 100 65 25 100 65 25 100 65 25 100 65 25 100 65 25 100 65 25 100 65 25 100 65 240 240 240 240 240 240 240 240 240 240 240 240 240 240 240 240 240 240 240 240 240 240 240 240 25 100 65 25 100 65 25 100 65 25 100 65 25 100 65 25 100 65 25 100 65 25 100 65 25 100 65 25 100 65 25 100 65 25 100 65 25 100 65 25 100 65 25 100 65 25 100 65 25 100 65 25 100 65 25 100 65 25 100 65 25 100 65 25 100 65 25 100 65 25 100 65 25 100 65 25 100 65 25 100 65 25 100 65 25 100 65 25 100 65 25 100 65 25 100 65 25 100 65 25 100 65 25 100 65 25 100 65 25 100 65 25 100 65 25 100 65 25 100 65 25 100 65 25 100 65 25 100 65 25 100 65 25 100 65 25 100 65 25 100 65 25 100 65 25 100 65 25 100 65 25 100 65 25 100 65 25 100 65 25 100 65 25 100 65 25 100 65 25 100 65 25 100 65 25 100 65 25 100 65 25 100 65 25 100 65 25 100 65 25 100 65 25 100 65 25 100 65 25 100 65 25 100 65 25 100 65 25 100 65 25 100 65 25 100 65 25 100 65 25 100 65 25 100 65 25 100 65
25 100 65 25 100 65 25 100 65 25 100 65 25 100 65 25 100 65 25 100 65 25 100 65 25 100 65 25 100 65 25 100 65 25 100 65 25 100 65 25 100 65 25 100 65 25 100 65 25 100 65 25 100 65 25 100 65 25 100 65 25 100 65 25 100 65 25 100 65 25 100 65 25 100 65 25 100 65 25 100 65 25 100 65 25 100 65 25 100 65 25 100 65 25 100 65 25 100 65 25 100 65 25 100 65 25 100 65 25 100 65 25 100 65 25 100 65 25 100 65 25 100 65 25 100 65 25 100 65 25 100 65 25 100 65 25 100 65 25 100 65 25 100 65 25 100 65 25 100 65 25 100 65 25 100 65 25 100 65 25 100 65 25 100 65 25 100 65 25 100 65 25 100 65 25 100 65 25 100 65 25 100 65 25 100 65 25 100 65 25 100 65 25 100 65 25 100 65 25 100 65 25 100 65 25 100 65 25 100 65 25 100 65 25 100 65 25 100 65 25 100 65 25 100 65 25 100 65 25 100 65 25 100 65 25 100 65 25 100 65 25 100 65 25 100 65 25 100 65 25 100 65 25 100 65 25 100 65 25 100 65 25 100 65 25 100 65 25 100 65 25 100 65 25 100 65 25 100 65 25 100 65 25 100 65 25 100 65 25 100 65 25 100 65 25 100 65 25 100 65 25 100 65 25 100 65 25 100 65 25 100 65 25 100 65 25 100 65 25 100 65 25 100 65 25 100 65 25 100 65 25 100 65 25 100 65 25 100 65 25 100 65 25 100 65 25 100 65 25 100 65 25 100 65 25 100 65 25 100 65 25 100 65 25 100 65 25 100 65 25 100 65 25 100 65 25 100 65 25 100 65 25 100 65 25 100 65 25 100 65 25 100 65 25 100 65 25 100 65 25 100 65 25 100 65 25 100 65 25 100 65 25 100 65 25 100 65 25 100 65 25 100 65 25 100 65 25 100 65 25 100 65 25 100 65 25 100 65 25 100 65 25 100 65 25 100 65 25 100 65 25 100 65 25 100 65 25 100 65 25 100 65 25 100 65 25 100 65 25 100 65 25 100 65 25 100 65 25 100 65 25 100 65 25 100 65 25 100 65 25 100 65 25 100 65 25 100 65 25 100 65 25 100 65 25 100 65 25 100 65 25 100 65 25 100 65 25 100 65 25 100 65 25 100 65 25 100 65 25 100 65 25 100 65 25 100 65 25 100 65 25 100 65 25 100 65 25 100 65 25 100 65 25 100 65 25 100 65 25 100 65 25 100 65 25 100 65 25 100 65 25 100 65 25 100 65 25 100 65 25 100 65 25 100 65 25 100 65 25 100 65 25 100 65 25 100 65 25 100 65 25 100 65 25 100 65 25 100 65 25 100 65 25 100 65 25 100 65 25 100 65 25 100 65 25 100 65 25 100 65 25 100 65 25 100 65 25 100 65 25 100 65 25 100 65 25 100 65 25 100 65 25 100 65 25 100 65 25 100 65 25 100 65 25 100 65 25 100 65 25 100 65 25 100 65 25 100 65 25 100 65 25 100 65 25 100 65 25 100 65 25 100 65 25 100 65 25 100 65 25 100 65 25 100 65 25 100 65 45 70 200 45 70 200 45 70 200 45 70 200 45 70 200 45 70 200 45 70 200 45 70 200 25 100 65 25 100 65 25 100 65 25 100 65 25 100 65 25 100 65 25 100 65 25 100 65 25 100 65 25 100 65 25 100 65 25 100 65 25 100 65 25 100 65 25 100 65 25 100 65 25 100 65 25 100 65 25 100 65 25 100 65 25 100 65 25 100 65 25 100 65 25 100 65 25 100 65 25 100 65 25 100 65 25 100 65 25 100 65 25 100 65 25 100 65 25 100 65 25 100 65 25 100 65 25 100 65 25 100 65 25 100 65 25 100 65 25 100 65 25 100 65 25 100 65 25 100 65 25 100 65 25 100 65 25 100 65 25 100 65 25 100 65 25 100 65 25 100 65 25 100 65 25 100 65 25 100 65 25 100 65 25 100 65 25 100 65 25 100 65 25 100 65 25 100 65 25 100 65 25 100 65 25 100 65 25 100 65 25 100 65 25 100 65 25 100 65 25 100 65 25 100 65 25 100 65 25 100 65 25 100 65 25 100 65 25 100 65 25 100 65 25 100 65 25 100 65 25 100 65
25 100 65 25 100 65 25 100 65 25 100 65 25 100 65 25 100 65 25 100 65 25 100 65 25 100 65 25 100 65 25 100 65 25 100 65 25 100 65 25 100 65 25 100 65 25 100 65 25 100 65 25 100 65 25 100 65 25 100 65 25 100 65 25 100 65 25 100 65 25 100 65 25 100 65 25 100 65 25 100 65 25 100 65 25 100 65 25 100 65 25 100 65 25 100 65 25 100 65 25 100 65 25 100 65 25 100 65 25 100 65 25 100 65 25 100 65 25 100 65 25 100 65 25 100 65 25 100 65 25 100 65 25 100 65 25 100 65 25 100 65 25 100 65 25 100 65 25 100 65 25 100 65 25 100 65 25 100 65 25 100 65 25 100 65 25 100 65 25 100 65 25 100 65 25 100 65 25 100 65 25 100 65 25 100 65 25 100 65 25 100 65 25 100 65 25 100 65 25 100 65 25 100 65 25 100 65 25 100 65 25 100 65 25 100 65 25 100 65 25 100 65 25 100 65 25 100 65 25 100 65 25 100 65 25 100 65 25 100 65 25 100 65 25 100 65 25 100 65 25 100 65 25 100 65 25 100 65 25 100 65 25 100 65 25 100 65 25 100 65 25 100 65 25 100 65 25 100 65 25 100 65 25 100 65 25 100 65 25 100 65 25 100 65 25 100 65 25 100 65 25 100 65 25 100 65 25 100 65 25 100 65 25 100 65 25 100 65 25 100 65 25 100 65 25 100 65 25 100 65 25 100 65 25 100 65 25 100 65 25 100 65 25 100 65 25 100 65 25 100 65 25 100 65 25 100 65 25 100 65 25 100 65 25 100 65 25 100 65 25 100 65 25 100 65 25 100 65 25 100 65 25 100 65 25 100 65 25 100 65 25 100 65 25 100 65 25 100 65 25 100 65 25 100 65 25 100 65 25 100 65 25 100 65 25 100 65 25 100 65 25 100 65 25 100 65 25 100 65 25 100 65 25 100 65 25 100 65 25 100 65 25 100 65 25 100 65 25 100 65 25 100 65 25 100 65 25 100 65 25 100 65 25 100 65 25 100 65 25 100 65 25 100 65 25 100 65 25 100 65 25 100 65 25 100 65 25 100 65 25 100 65 25 100 65 25 100 65 25 100 65 25 100 65 25 100 65 25 100 65 25 100 65 25 100 65 25 100 65 25 100 65 25 100 65 25 100 65 25 100 65 25 100 65 25 100 65 25 100 65 25 100 65 25 100 65 25 100 65 25 100 65 25 100 65 25 100 65 25 100 65 25 100 65 25 100 65 25 100 65 25 100 65 25 100 65 25 100 65 25 100 65 25 100 65 25 100 65 25 100 65 25 100 65 25 100 65 25 100 65 25 100 65 25 100 65 25 100 65 25 100 65 25 100 65 25 100 65 25 100 65 25 100 65 25 100 65 25 100 65 25 100 65 25 100 65 25 100 65 25 100 65 25 100 65 25 100 65 25 100 65 25 100 65 25 100 65 25 100 65 25 100 65 25 100 65 25 100 65 25 100 65 25 100 65 25 100 65 25 100 65 25 100 65 25 100 65 25 100 65 25 100 65 25 100 65 25 100 65 25 100 65 25 100 65 45 70 200 45 70 200 45 70 200 45 70 200 45 70 200 45 70 200 45 70 200 45 70 200 45 70 200 45 70 200 25 100 65 25 100 65 25 100 65 25 100 65 25 100 65 25 100 65 25 100 65 25 100 65 25 100 65 25 100 65 25 100 65 25 100 65 25 100 65 25 100 65 25 100 65 25 100 65 25 100 65 25 100 65 25 100 65 25 100 65 25 100 65 25 100 65 25 100 65 25 100 65 25 100 65 25 100 65 25 100 65 25 100 65 25 100 65 25 100 65 25 100 65 25 100 65 25 100 65 25 100 65 25 100 65 25 100 65 25 100 65 25 100 65 25 100 65 25 100 65 25 100 65 25 100 65 25 100 65 25 100 65 25 100 65 25 100 65 25 100 65 25 100 65 25 100 65 25 100 65 25 100 65 25 100 65 25 100 65 25 100 65 25 100 65 25 100 65 25 100 65 25 100 65 25 100 65 25 100 65 25 100 65 25 100 65 25 100 65 25 100 65 25 100 65 25 100 65 25 100 65 25 100 65 25 100 65 25 100 65 25 100 65 25 100 65 25 100 65 25 100 65 25 100 65
25 100 65 25 100 65 25 100 65 25 100 65 25 100 65 25 100 65 25 100 65 25 100 65 25 100 65 25 100 65 25 100 65 25 100 65 25 100 65 25 100 65 25 100 65 25 100 65 25 100 65 25 100 65 25 100 65 25 100 65 25 100 65 25 100 65 25 100 65 25 100 65 25 100 65 25 100 65 25 100 65 25 100 65 25 100 65 25 100 65 25 100 65 25 100 65 25 100 65 25 100 65 25 100 65 25 100 65 25 100 65 25 100 65 25 100 65 25 100 65 25 100 65 25 100 65 25 100 65 25 100 65 25 100 65 25 100 65 25 100 65 25 100 65 25 100 65 25 100 65 25 100 65 25 100 65 25 100 65 25 100 65 25 100 65 25 100 65 25 100 65 25 100 65 25 100 65 25 100 65 25 100 65 25 100 65 25 100 65 25 100 65 25 100 65 25 100 65 25 100 65 25 100 65 25 100 65 25 100 65 25 100 65 25 100 65 25 100 65 25 100 65 25 100 65 25 100 65 25 100 65 25 100 65 25 100 65 25 100 65 25 100 65 25 100 65 25 100 65 25 100 65 25 100 65 25 100 65 25 100 65 25 100 65 25 100 65 25 100 65 25 100 65 25 100 65 25 100 65 25 100 65 25 100 65 25 100 65 25 100 65 25 100 65 25 100 65 25 100 65 25 100 65 25 100 65 25 100 65 25 100 65 25 100 65 25 100 65 25 100 65 25 100 65 25 100 65 25 100 65 25 100 65 25 100 65 25 100 65 25 100 65 25 100 65 25 100 65 25 100 65 25 100 65 25 100 65 25 100 65 25 100 65 25 100 65 25 100 65 25 100 65 25 100 65 25 100 65 25 100 65 25 100 65 25 100 65 25 100 65 25 100 65 25 100 65 25 100 65 25 100 65 25 100 65 25 100 65 25 100 65 25 100 65 25 100 65 25 100 65 25 100 65 25 100 65 25 100 65 25 100 65 25 100 65 25 100 65 25 100 65 25 100 65 25 100 65 25 100 65 25 100 65 25 100 65 25 100 65 25 100 65 25 100 65 25 100 65 25 100 65 25 100 65 25 100 65 25 100 65 25 100 65 25 100 65 25 100 65 25 100 65 25 100 65 25 100 65 25 100 65 25 100 65 25 100 65 25 100 65 25 100 65 25 100 65 25 100 65 25 100 65 25 100 65 25 100 65 25 100 65 25 100 65 25 100 65 25 100 65 25 100 65 25 100 65 25 100 65 25 100 65 25 100 65 25 100 65 25 100 65 25 100 65 25 100 65 25 100 65 25 100 65 25 100 65 25 100 65 25 100 65 25 100 65 25 100 65 25 100 65 25 100 65 25 100 65 25 100 65 25 100 65 25 100 65 25 100 65 25 100 65 25 100 65 25 100 65 25 100 65 25 100 65 25 100 65 25 100 65 25 100 65 25 100 65 25 100 65 25 100 65 25 100 65 25 100 65 25 100 65 25 100 65 25 100 65 25 100 65 25 100 65 25 100 65 25 100 65 25 100 65 25 100 65 25 100 65 25 100 65 25 100 65 25 100 65 25 100 65 25 100 65 25 100 65 25 100 65 25 100 65 25 100 65 45 70 200 45 70 200 45 70 200 45 70 200 45 70 200 45 70 200 45 70 200 45 70 200 45 70 200 45 70 200 25 100 65 25 100 65 25 100 65 25 100 65 25 100 65 25 100 65 25 100 65 25 100 65 25 100 65 25 100 65 25 100 65 25 100 65 25 100 65 25 100 65 25 100 65 25 100 65 25 100 65 25 100 65 25 100 65 25 100 65 25 100 65 25 100 65 25 100 65 25 100 65 25 100 65 25 100 65 25 100 65 25 100 65 25 100 65 25 100 65 25 100 65 25 100 65 25 100 65 25 100 65 25 100 65 25 100 65 25 100 65 25 100 65 25 100 65 25 100 65 25 100 65 25 100 65 25 100 65 25 100 65 25 100 65 25 100 65 25 100 65 25 100 65 25 100 65 25 100 65 25 100 65 25 100 65 25 100 65 25 100 65 25 100 65 25 100 65 25 100 65 25 100 65 25 100 65 25 100 65 25 100 65 25 100 65 25 100 65 25 100 65 25 100 65 25 100 65 25 100 65 25 100 65 25 100 65 25 100 65 25 100 65 25 100 65 25 100 65 25 100 65 25 100 65
25 100 65 25 100 65 25 100 65 25 100 65 25 100 65 25 100 65 25 100 65 25 100 65 25 100 65 25 100 65 25 100 65 25 100 65 25 100 65 25 100 65 25 100 65 25 100 65 25 100 65 25 100 65 25 100 65 25 100 65 25 100 65 25 100 65 25 100 65 25 100 65 25 100 65 25 100 65 25 100 65 25 100 65 25 100 65 25 100 65 25 100 65 25 100 65 25 100 65 25 100 65 25 100 65 25 100 65 25 100 65 25 100 65 25 100 65 25 100 65 25 100 65 25 100 65 25 100 65 25 100 65 25 100 65 25 100 65 25 100 65 25 100 65 25 100 65 25 100 65 25 100 65 25 100 65 25 100 65 25 100 65 25 100 65 25 100 65 25 100 65 25 100 65 25 100 65 25 100 65 25 100 65 25 100 65 25 100 65 25 100 65 25 100 65 25 100 65 25 100 65 25 100 65 25 100 65 25 100 65 25 100 65 25 100 65 25 100 65 25 100 65 25 100 65 25 100 65 25 100 65 25 100 65 25 100 65 25 100 65 25 100 65 25 100 65 25 100 65 25 100 65 25 100 65 25 100 65 25 100 65 25 100 65 25 100 65 25 100 65 25 100 65 25 100 65 25 100 65 25 100 65 25 100 65 25 100 65 25 100 65 25 100 65 25 100 65 25 100 65 25 100 65 25 100 65 25 100 65 25 100 65 25 100 65 25 100 65 25 100 65 25 100 65 25 100 65 25 100 65 25 100 65 25 100 65 25 100 65 25 100 65 25 100 65 25 100 65 25 100 65 25 100 65 25 100 65 25 100 65 25 100 65 25 100 65 25 100 65 25 100 65 25 100 65 25 100 65 25 100 65 25 100 65 25 100 65 25 100 65 25 100 65 25 100 65 25 100 65 25 100 65 25 100 65 25 100 65 25 100 65 25 100 65 25 100 65 25 100 65 25 100 65 25 100 65 25 100 65 25 100 65 25 100 65 25 100 65 25 100 65 25 100 65 25 100 65 25 100 65 25 100 65 25 100 65 25 100 65 25 100 65 25 100 65 25 100 65 25 100 65 25 100 65 25 100 65 25 100 65 25 100 65 25 100 65 25 100 65 25 100 65 25 100 65 25 100 65 25 100 65 25 100 65 25 100 65 25 100 65 25 100 65 25 100 65 25 100 65 25 100 65 25 100 65 25 100 65 25 100 65 25 100 65 25 100 65 25 100 65 25 100 65 25 100 65 25 100 65 25 100 65 25 100 65 25 100 65 25 100 65 25 100 65 25 100 65 25 100 65 25 100 65 25 100 65 25 100 65 25 100 65 25 100 65 25 100 65 25 100 65 25 100 65 25 100 65 25 100 65 25 100 65 25 100 65 25 100 65 25 100 65 25 100 65 25 100 65 25 100 65 25 100 65 25 100 65 25 100 65 25 100 65 25 100 65 25 100 65 25 100 65 25 100 65 25 100 65 25 100 65 25 100 65 25 100 65 25 100 65 25 100 65 25 100 65 25 100 65 25 100 65 25 100 65 25 100 65 25 100 65 25 100 65 25 100 65 25 100 65 25 100 65 25 100 65 25 100 65 25 100 65 25 100 65 25 100 65 45 70 200 45 70 200 45 70 200 45 70 200 45 70 200 45 70 200 45 70 200 45 70 200 25 100 65 25 100 65 25 100 65 25 100 65 25 100 65 25 100 65 25 100 65 25 100 65 25 100 65 25 100 65 25 100 65 25 100 65 25 100 65 25 100 65 25 100 65 25 100 65 25 100 65 25 100 65 25 100 65 25 100 65 25 100 65 25 100 65 25 100 65 25 100 65 25 100 65 25 100 65 25 100 65 25 100 65 25 100 65 25 100 65 25 100 65 25 100 65 25 100 65 25 100 65 25 100 65 25 100 65 25 100 65 25 100 65 25 100 65 25 100 65 25 100 65 25 100 65 25 100 65 25 100 65 25 100 65 25 100 65 25 100 65 25 100 65 25 100 65 25 100 65 25 100 65 25 100 65 25 100 65 25 100 65 25 100 65 25 100 65 25 100 65 25 100 65 25 100 65 25 100 65 25 100 65 25 100 65 25 100 65 25 100 65 25 100 65 25 100 65 25 100 65 25 100 65 25 100 65 25 100 65 25 100 65 25 100 65 25 100 65 25 100 65 25 100 65 25 100 65
25 100 65 25 100 65 25 100 65 25 100 65 25 100 65 25 100 65 25 100 65 25 100 65 25 100 65 25 100 65 25 100 65 25 100 65 25 100 65 25 100 65 25 100 65 25 100 65 25 100 65 25 100 65 25 100 65 25 100 65 25 100 65 25 100 65 25 100 65 25 100 65 25 100 65 25 100 65 25 100 65 25 100 65 25 100 65 25 100 65 25 100 65 25 100 65 25 100 65 25 100 65 25 100 65 25 100 65 25 100 65 25 100 65 25 100 65 25 100 65 25 100 65 25 100 65 25 100 65 25 100 65 25 100 65 25 100 65 25 100 65 25 100 65 25 100 65 25 100 65 25 100 65 25 100 65 25 100 65 25 100 65 25 100 65 25 100 65 25 100 65 25 100 65 25 100 65 25 100 65 25 100 65 25 100 65 25 100 65 25 100 65 25 100 65 25 100 65 25 100 65 25 100 65 25 100 65 25 100 65 25 100 65 25 100 65 25 100 65 25 100 65 25 100 65 25 100 65 25 100 65 25 100 65 25 100 65 25 100 65 25 100 65 25 100 65 25 100 65 25 100 65 25 100 65 25 100 65 25 100 65 25 100 65 25 100 65 25 100 65 25 100 65 25 100 65 25 100 65 25 100 65 25 100 65 25 100 65 25 100 65 25 100 65 25 100 65 25 100 65 25 100 65 25 100 65 25 100 65 25 100 65 25 100 65 25 100 65 25 100 65 25 100 65 25 100 65 25 100 65 25 100 65 25 100 65 25 100 65 25 100 65 25 100 65 25 100 65 25 100 65 25 100 65 25 100 65 25 100 65 25 100 65 25 100 65 25 100 65 25 100 65 25 100 65 25 100 65 25 100 65 25 100 65 25 100 65 25 100 65 25 100 65 25 100 65 25 100 65 25 100 65 25 100 65 25 100 65 25 100 65 25 100 65 25 100 65 25 100 65 25 100 65 25 100 65 25 100 65 25 100 65 25 100 65 25 100 65 25 100 65 25 100 65 25 100 65 25 100 65 25 100 65 25 100 65 25 100 65 25 100 65 25 100 65 25 100 65 25 100 65 25 100 65 25 100 65 25 100 65 25 100 65 25 100 65 25 100 65 25 100 65 25 100 65 25 100 65 25 100 65 25 100 65 25 100 65 25 100 65 25 100 65 25 100 65 25 100 65 25 100 65 25 100 65 25 100 65 25 100 65 25 100 65 25 100 65 25 100 65 25 100 65 25 100 65 25 100 65 25 100 65 25 100 65 25 100 65 25 100 65 25 100 65 25 100 65 25 100 65 25 100 65 25 100 65 25 100 65 25 100 65 25 100 65 25 100 65 25 100 65 25 100 65 25 100 65 25 100 65 25 100 65 25 100 65 25 100 65 25 100 65 25 100 65 25 100 65 25 100 65 25 100 65 25 100 65 25 100 65 25 100 65 25 100 65 25 100 65 25 100 65 25 100 65 25 100 65 25 100 65 25 100 65 25 100 65 25 100 65 25 100 65 25 100 65 25 100 65 25 100 65 25 100 65 25 100 65 25 100 65 25 100 65 25 100 65 25 100 65 25 100 65 25 100 65 25 100 65 25 100 65 25 100 65 25 100 65 240 240 240 240 240 240 240 240 240 240 240 240 240 240 240 240 240 240 240 240 240 240 240 240 25 100 65 25 100 65 25 100 65 25 100 65 25 100 65 25 100 65 25 100 65 25 100 65 25 100 65 25 100 65 25 100 65 25 100 65 25 100 65 25 100 65 25 100 65 25 100 65 25 100 65 25 100 65 25 100 65 25 100 65 25 100 65 25 100 65 25 100 65 25 100 65 25 100 65 25 100 65 25 100 65 25 100 65 25 100 65 25 100 65 25 100 65 25 100 65 25 100 65 25 100 65 25 100 65 25 100 65 25 100 65 25 100 65 25 100 65 25 100 65 25 100 65 25 100 65 25 100 65 25 100 65 25 100 65 25 100 65 25 100 65 25 100 65 25 100 65 25 100 65 25 100 65 25 100 65 25 100 65 25 100 65 25 100 65 25 100 65 25 100 65 25 100 65 25 100 65 25 100 65 25 100 65 25 100 65 25 100 65 25 100 65 25 100 65 25 100 65 25 100 65 25 100 65 25 100 65 25 100 65 25 100 65 25 100 65 25 100 65 25 100 65 25 100 65 25 100 65
25 100 65 25 100 65 25 100 65 25 100 65 25 100 65 25 100 65 25 100 65 25 100 65 25 100 65 25 100 65 25 100 65 25 100 65 25 100 65 25 100 65 25 100 65 25 100 65 25 100 65 25 100 65 25 100 65 25 100 65 25 100 65 25 100 65 25 100 65 25 100 65 25 100 65 25 100 65 25 100 65 25 100 65 25 100 65 25 100 65 25 100 65 25 100 65 25 100 65 25 100 65 25 100 65 25 100 65 25 100 65 25 100 65 25 100 65 25 100 65 25 100 65 25 100 65 25 100 65 25 100 65 25 100 65 25 100 65 25 100 65 25 100 65 25 100 65 25 100 65 25 100 65 25 100 65 25 100 65 25 100 65 25 100 65 25 100 65 25 100 65 25 100 65 25 100 65 25 100 65 25 100 65 25 100 65 25 100 65 25 100 65 25 100 65 25 100 65 25 100 65 25 100 65 25 100 65 25 100 65 25 100 65 25 100 65 25 100 65 25 100 65 25 100 65 25 100 65 25 100 65 25 100 65 25 100 65 25 100 65 25 100 65 25 100 65 25 100 65 25 100 65 25 100 65 25 100 65 25 100 65 25 100 65 25 100 65 25 100 65 25 100 65 25 100 65 25 100 65 25 100 65 25 100 65 25 100 65 25 100 65 25 100 65 25 100 65 25 100 65 25 100 65 25 100 65 25 100 65 25 100 65 25 100 65 25 100 65 25 100 65 25 100 65 25 100 65 25 100 65 25 100 65 25 100 65 25 100 65 25 100 65 25 100 65 25 100 65 25 100 65 25 100 65 25 100 65 25 100 65 25 100 65 25 100 65 25 100 65 25 100 65 25 100 65 25 100 65 25 100 65 25 100 65 25 100 65 25 100 65 25 100 65 25 100 65 25 100 65 25 100 65 25 100 65 25 100 65 25 100 65 25 100 65 25 100 65 25 100 65 25 100 65 25 100 65 25 100 65 25 100 65 25 100 65 25 100 65 25 100 65 25 100 65 25 100 65 25 100 65 25 100 65 25 100 65 25 100 65 25 100 65 25 100 65 25 100 65 25 100 65 25 100 65 25 100 65 25 100 65 25 100 65 25 100 65 25 100 65 25 100 65 25 100 65 25 100 65 25 100 65 25 100 65 25 100 65 25 100 65 25 100 65 25 100 65 25 100 65 25 100 65 25 100 65 25 100 65 25 100 65 25 100 65 25 100 65 25 100 65 25 100 65 25 100 65 25 100 65 25 100 65 25 100 65 25 100 65 25 100 65 25 100 65 25 100 65 25 100 65 25 100 65 25 100 65 25 100 65 25 100 65 25 100 65 25 100 65 25 100 65 25 100 65 25 100 65 25 100 65 25 100 65 25 100 65 25 100 65 25 100 65 25 100 65 25 100 65 25 100 65 25 100 65 25 100 65 25 100 65 25 100 65 25 100 65 25 100 65 25 100 65 25 100 65 25 100 65 25 100 65 25 100 65 25 100 65 25 100 65 25 100 65 25 100 65 25 100 65 25 100 65 25 100 65 25 100 65 25 100 65 25 100 65 25 100 65 25 100 65 25 100 65 25 100 65 25 100 65 25 100 65 25 100 65 25 100 65 25 100 65 240 240 240 240 240 240 240 240 240 240 240 240 240 240 240 240 240 240 25 100 65 25 100 65 25 100 65 25 100 65 25 100 65 25 100 65 25 100 65 25 100 65 25 100 65 25 100 65 25 100 65 25 100 65 25 100 65 25 100 65 25 100 65 25 100 65 25 100 65 25 100 65 25 100 65 25 100 65 25 100 65 25 100 65 25 100 65 25 100 65 25 100 65 25 100 65 25 100 65 25 100 65 25 100 65 25 100 65 25 100 65 25 100 65 25 100 65 25 100 65 25 100 65 25 100 65 25 100 65 25 100 65 25 100 65 25 100 65 25 100 65 25 100 65 25 100 65 25 100 65 25 100 65 25 100 65 25 100 65 25 100 65 25 100 65 25 100 65 25 100 65 25 100 65 25 100 65 25 100 65 25 100 65 25 100 65 25 100 65 25 100 65 25 100 65 25 100 65 25 100 65 25 100 65 25 100 65 25 100 65 25 100 65 25 100 65 25 100 65 25 100 65 25 100 65 25 100 65 25 100 65 25 100 65 25 100 65 25 100 65 25 100 65 25 100 65 25 100 65
25 100 65 25 100 65 25 100 65 25 100 65 25 100 65 25 100 65 25 100 65 25 100 65 25 100 65 25 100 65 25 100 65 25 100 65 25 100 65 25 100 65 25 100 65 25 100 65 25 100 65 25 100 65 25 100 65 25 100 65 25 100 65 25 100 65 25 100 65 25 100 65 25 100 65 25 100 65 25 100 65 25 100 65 25 100 65 25 100 65 25 100 65 25 100 65 25 100 65 25 100 65 25 100 65 25 100 65 25 100 65 25 100 65 25 100 65 25 100 65 25 100 65 25 100 65 25 100 65 25 100 65 25 100 65 25 100 65 25 100 65 25 100 65 25 100 65 25 100 65 25 100 65 25 100 65 25 100 65 25 100 65 25 100 65 25 100 65 25 100 65 25 100 65 25 100 65 25 100 65 25 100 65 25 100 65 25 100 65 25 100 65 25 100 65 25 100 65 25 100 65 25 100 65 25 100 65 25 100 65 25 100 65 25 100 65 25 100 65 25 100 65 25 100 65 25 100 65 25 100 65 25 100 65 25 100 65 25 100 65 25 100 65 25 100 65 25 100 65 25 100 65 25 100 65 25 100 65 25 100 65 25 100 65 25 100 65 25 100 65 25 100 65 25 100 65 25 100 65 25 100 65 25 100 65 25 100 65 25 100 65 25 100 65 25 100 65 25 100 65 25 100 65 25 100 65 25 100 65 25 100 65 25 100 65 25 100 65 25 100 65 25 100 65 25 100 65 25 100 65 25 100 65 25 100 65 25 100 65 25 100 65 25 100 65 25 100 65 25 100 65 25 100 65 25 100 65 25 100 65 25 100 65 25 100 65 25 100 65 25 100 65 25 100 65 25 100 65 25 100 65 25 100 65 25 100 65 25 100 65 25 100 65 25 100 65 25 100 65 25 100 65 25 100 65 25 100 65 25 100 65 25 100 65 25 100 65 25 100 65 25 100 65 25 100 65 25 100 65 25 100 65 25 100 65 25 100 65 25 100 65 25 100 65 25 100 65 25 100 65 25 100 65 25 100 65 25 100 65 25 100 65 25 100 65 25 100 65 25 100 65 25 100 65 25 100 65 25 100 65 25 100 65 25 100 65 25 100 65 25 100 65 25 100 65 25 100 65 25 100 65 25 100 65 25 100 65 25 100 65 25 100 65 25 100 65 25 100 65 25 100 65 25 100 65 25 100 65 25 100 65 25 100 65 25 100 65 25 100 65 25 100 65 25 100 65 25 100 65 25 100 65 25 100 65 25 100 65 25 100 65 25 100 65 25 100 65 25 100 65 25 100 65 25 100 65 25 100 65 25 100 65 25 100 65 25 100 65 25 100 65 25 100 65 25 100 65 25 100 65 25 100 65 25 100 65 25 100 65 25 100 65 25 100 65 25 100 65 25 100 65 25 100 65 25 100 65 25 100 65 25 100 65 25 100 65 25 100 65 25 100 65 25 100 65 25 100 65 25 100 65 25 100 65 25 100 65 25 100 65 25 100 65 25 100 65 25 100 65 25 100 65 25 100 65 25 100 65 25 100 65 25 100 65 25 100 65 25 100 65 25 100 65 25 100 65 25 100 65 25 100 65 25 100 65 25 100 65 25 100 65 25 100 65 25 100 65 240 240 240 240 240 240 25 100 65 25 100 65 25 100 65 25 100 65 25 100 65 25 100 65 25 100 65 25 100 65 25 100 65 25 100 65 25 100 65 25 100 65 25 100 65 25 100 65 25 100 65 25 100 65 25 100 65 25 100 65 25 100 65 25 100 65 25 100 65 25 100 65 25 100 65 25 100 65 25 100 65 25 100 65 25 100 65 25 100 65 25 100 65 25 100 65 25 100 65 25 100 65 25 100 65 25 100 65 25 100 65 25 100 65 25 100 65 25 100 65 25 100 65 25 100 65 25 100 65 25 100 65 25 100 65 25 100 65 25 100 65 25 100 65 25 100 65 25 100 65 25 100 65 25 100 65 25 100 65 25 100 65 25 100 65 25 100 65 25 100 65 25 100 65 25 100 65 25 100 65 25 100 65 25 100 65 25 100 65 25 100 65 25 100 65 25 100 65 25 100 65 25 100 65 25 100 65 25 100 65 25 100 65 25 100 65 25 100 65 25 100 65 25 100 65 25 100 65 25 100 65 25 100 65 25 100 65 25 100 65 25 100 65
25 100 65 25 100 65 25 100 65 25 100 65 25 100 65 25 100 65 25 100 65 25 100 65 25 100 65 25 100 65 25 100 65 25 100 65 25 100 65 25 100 65 25 100 65 25 100 65 25 100 65 25 100 65 25 100 65 25 100 65 25 100 65 25 100 65 25 100 65 25 100 65 25 100 65 25 100 65 25 100 65 25 100 65 25 100 65 25 100 65 25 100 65 25 100 65 25 100 65 25 100 65 25 100 65 25 100 65 25 100 65 25 100 65 25 100 65 25 100 65 25 100 65 25 100 65 25 100 65 25 100 65 25 100 65 25 100 65 25 100 65 25 100 65 25 100 65 25 100 65 25 100 65 25 100 65 25 100 65 25 100 65 25 100 65 25 100 65 25 100 65 25 100 65 25 100 65 25 100 65 25 100 65 25 100 65 25 100 65 25 100 65 25 100 65 25 100 65 25 100 65 25 100 65 25 100 65 25 100 65 25 100 65 25 100 65 25 100 65 25 100 65 25 100 65 25 100 65 25 100 65 25 100 65 25 100 65 25 100 65 25 100 65 25 100 65 25 100 65 25 100 65 25 100 65 25 100 65 25 100 65 25 100 65 25 100 65 25 100 65 25 100 65 25 100 65 25 100 65 25 100 65 25 100 65 25 100 65 25 100 65 25 100 65 25 100 65 25 100 65 25 100 65 25 100 65 25 100 65 25 100 65 25 100 65 25 100 65 25 100 65 25 100 65 25 100 65 25 100 65 25 100 65 25 100 65 25 100 65 25 100 65 25 100 65 25 100 65 25 100 65 25 100 65 25 100 65 25 100 65 25 100 65 25 100 65 25 100 65 25 100 65 25 100 65 25 100 65 25 100 65 25 100 65 25 100 65 25 100 65 25 100 65 25 100 65 25 100 65 25 100 65 25 100 65 25 100 65 25 100 65 25 100 65 25 100 65 25 100 65 25 100 65 25 100 65 25 100 65 25 100 65 25 100 65 25 100 65 25 100 65 25 100 65 25 100 65 25 100 65 25 100 65 25 100 65 25 100 65 25 100 65 25 100 65 25 100 65 25 100 65 25 100 65 25 100 65 25 100 65 25 100 65 25 100 65 25 100 65 25 100 65 25 100 65 25 100 65 25 100 65 25 100 65 25 100 65 25 100 65 25 100 65 25 100 65 25 100 65 25 100 65 25 100 65 25 100 65 25 100 65 25 100 65 25 100 65 25 100 65 25 100 65 25 100 65 25 100 65 25 100 65 25 100 65 25 100 65 25 100 65 25 100 65 25 100 65 25 100 65 25 100 65 25 100 65 25 100 65 25 100 65 25 100 65 25 100 65 25 100 65 25 100 65 25 100 65 25 100 65 25 100 65 25 100 65 25 100 65 25 100 65 25 100 65 25 100 65 25 100 65 25 100 65 25 100 65 25 100 65 25 100 65 25 100 65 25 100 65 25 100 65 25 100 65 25 100 65 25 100 65 25 100 65 25 100 65 25 100 65 25 100 65 25 100 65 25 100 65 25 100 65 25 100 65 25 100 65 25 100 65 25 100 65 25 100 65 25 100 65 25 100 65 25 100 65 25 100 65 25 100 65 25 100 65 25 100 65 25 100 65 25 100 65 25 100 65 25 100 65 25 100 65 25 100 65 25 100 65 25 100 65 25 100 65 25 100 65 25 100 65 25 100 65 25 100 65 25 100 65 25 100 65 25 100 65 25 100 65 25 100 65 25 100 65 25 100 65 25 100 65 25 100 65 25 100 65 25 100 65 25 100 65 25 100 65 25 100 65 25 100 65 25 100 65 25 100 65 25 100 65 25 100 65 25 100 65 25 100 65 25 100 65 25 100 65 25 100 65 25 100 65 25 100 65 25 100 65 25 100 65 25 100 65 25 100 65 25 100 65 25 100 65 25 100 65 25 100 65 25 100 65 25 100 65 25 100 65 25 100 65 25 100 65 25 100 65 25 100 65 25 100 65 25 100 65 25 100 65 25 100 65 25 100 65 25 100 65 25 100 65 25 100 65 25 100 65 25 100 65 25 100 65 25 100 65 25 100 65 25 100 65 25 100 65 25 100 65 25 100 65 25 100 65 25 100 65 25 100 65 25 100 65 25 100 65 25 100 65 25 100 65 25 100 65 25 100 65 25 100 65 25 100 65 25 100 65 25 100 65
25 100 65 25 100 65 25 100 65 25 100 65 25 100 65 25 100 65 25 100 65 25 100 65 25 100 65 25 100 65 25 100 65 25 100 65 25 100 65 25 100 65 25 100 65 25 100 65 25 100 65 25 100 65 25 100 65 25 100 65 25 100 65 25 100 65 25 100 65 25 100 65 25 100 65 25 100 65 25 100 65 25 100 65 25 100 65 25 100 65 25 100 65 25 100 65 25 100 65 25 100 65 25 100 65 25 100 65 25 100 65 25 100 65 25 100 65 25 100 65 25 100 65 25 100 65 25 100 65 25 100 65 25 100 65 25 100 65 25 100 65 25 100 65 25 100 65 25 100 65 25 100 65 25 100 65 25 100 65 25 100 65 25 100 65 25 100 65 25 100 65 25 100 65 25 100 65 25 100 65 25 100 65 25 100 65 25 100 65 25 100 65 25 100 65 25 100 65 25 100 65 25 100 65 25 100 65 25 100 65 25 100 65 25 100 65 25 100 65 25 100 65 25 100 65 25 100 65 25 100 65 25 100 65 25 100 65 25 100 65 25 100 65 25 100 65 25 100 65 25 100 65 25 100 65 25 100 65 25 100 65 25 100 65 25 100 65 25 100 65 25 100 65 25 100 65 25 100 65 25 100 65 25 100 65 25 100 65 25 100 65 25 100 65 25 100 65 25 100 65 25 100 65 25 100 65 25 100 65 25 100 65 25 100 65 25 100 65 25 100 65 25 100 65 25 100 65 25 100 65 25 100 65 25 100 65 25 100 65 25 100 65 25 100 65 25 100 65 25 100 65 25 100 65 25 100 65 25 100 65 25 100 65 25 100 65 25 100 65 25 100 65 25 100 65 25 100 65 25 100 65 25 100 65 25 100 65 25 100 65 25 100 65 25 100 65 25 100 65 25 100 65 25 100 65 25 100 65 25 100 65 25 100 65 25 100 65 25 100 65 25 100 65 25 100 65 25 100 65 25 100 65 25 100 65 25 100 65 25 100 65 25 100 65 25 100 65 25 100 65 25 100 65 25 100 65 25 100 65 25 100 65 25 100 65 25 100 65 25 100 65 25 100 65 25 100 65 25 100 65 25 100 65 25 100 65 25 100 65 25 100 65 25 100 65 25 100 65 25 100 65 25 100 65 25 100 65 25 100 65 25 100 65 25 100 65 25 100 65 25 100 65 25 100 65 25 100 65 25 100 65 25 100 65 25 100 65 25 100 65 25 100 65 25 100 65 25 100 65 25 100 65 25 100 65 25 100 65 25 100 65 25 100 65 25 100 65 25 100 65 25 100 65 25 100 65 25 100 65 25 100 65 25 100 65 25 100 65 25 100 65 25 100 65 25 100 65 25 100 65 25 100 65 25 100 65 25 100 65 25 100 65 25 100 65 25 100 65 25 100 65 25 100 65 25 100 65 25 100 65 25 100 65 25 100 65 25 100 65 25 100 65 25 100 65 25 100 65 25 100 65 25 100 65 25 100 65 25 100 65 25 100 65 25 100 65 25 100 65 25 100 65 25 100 65 25 100 65 25 100 65 25 100 65 25 100 65 25 100 65 25 100 65 25 100 65 25 100 65 25 100 65 25 100 65 25 100 65 25 100 65 25 100 65 25 100 65 25 100 65 25 100 65 25 100 65 25 100 65 25 100 65 25 100 65 25 100 65 25 100 65 25 100 65 25 100 65 25 100 65 25 100 65 25 100 65 25 100 65 25 100 65 25 100 65 25 100 65 25 100 65 25 100 65 25 100 65 25 100 65 25 100 65 25 100 65 25 100 65 25 100 65 25 100 65 25 100 65 25 100 65 25 100 65 25 100 65 25 100 65 25 100 65 25 100 65 25 100 65 25 100 65 25 100 65 25 100 65 25 100 65 25 100 65 25 100 65 25 100 65 25 100 65 25 100 65 25 100 65 25 100 65 25 100 65 25 100 65 25 100 65 25 100 65 25 100 65 25 100 65 25 100 65 25 100 65 25 100 65 25 100 65 25 100 65 25 100 65 25 100 65 25 100 65 25 100 65 25 100 65 25 100 65 25 100 65 25 100 65 25 100 65 25 100 65 25 100 65 25 100 65 25 100 65 25 100 65 25 100 65 25 100 65 25 100 65 25 100 65 25 100 65 25 100 65 25 100 65 25 100 65 25 100 65 25 100 65 25 100 65
25 100 65 25 100 65 25 100 65 25 100 65 25 100 65 25 100 65 25 100 65 25 100 65 25 100 65 25 100 65 25 100 65 25 100 65 25 100 65 25 100 65 25 100 65 25 100 65 25 100 65 25 100 65 25 100 65 25 100 65 25 100 65 25 100 65 25 100 65 25 100 65 25 100 65 25 100 65 25 100 65 25 100 65 25 100 65 25 100 65 25 100 65 25 100 65 25 100 65 25 100 65 25 100 65 25 100 65 25 100 65 25 100 65 25 100 65 25 100 65 25 100 65 25 100 65 25 100 65 25 100 65 25 100 65 25 100 65 25 100 65 25 100 65 25 100 65 25 100 65 25 100 65 25 100 65 25 100 65 25 100 65 25 100 65 25 100 65 25 100 65 25 100 65 25 100 65 25 100 65 25 100 65 25 100 65 25 100 65 25 100 65 25 100 65 25 100 65 25 100 65 25 100 65 25 100 65 25 100 65 25 100 65 25 100 65 25 100 65 25 100 65 25 100 65 25 100 65 25 100 65 25 100 65 25 100 65 25 100 65 25 100 65 25 100 65 25 100 65 25 100 65 25 100 65 25 100 65 25 100 65 25 100 65 25 100 65 25 100 65 25 100 65 25 100 65 25 100 65 25 100 65 25 100 65 25 100 65 25 100 65 25 100 65 25 100 65 25 100 65 25 100 65 25 100 65 25 100 65 25 100 65 25 100 65 25 100 65 25 100 65 25 100 65 25 100 65 25 100 65 25 100 65 25 100 65 25 100 65 25 100 65 25 100 65 25 100 65 25 100 65 25 100 65 25 100 65 25 100 65 25 100 65 25 100 65 25 100 65 25 100 65 25 100 65 25 100 65 25 100 65 25 100 65 25 100 65 25 100 65 25 100 65 25 100 65 25 100 65 25 100 65 25 100 65 25 100 65 25 100 65 25 100 65 25 100 65 25 100 65 25 100 65 25 100 65 25 100 65 25 100 65 25 100 65 25 100 65 25 100 65 25 100 65 25 100 65 25 100 65 25 100 65 25 100 65 25 100 65 25 100 65 25 100 65 25 100 65 25 100 65 25 100 65 25 100 65 25 100 65 25 100 65 25 100 65 25 100 65 25 100 65 25 100 65 25 100 65 25 100 65 25 100 65 25 100 65 25 100 65 25 100 65 25 100 65 25 100 65 25 100 65 25 100 65 25 100 65 25 100 65 25 100 65 25 100 65 25 100 65 25 100 65 25 100 65 25 100 65 25 100 65 25 100 65 25 100 65 25 100 65 25 100 65 25 100 65 25 100 65 25 100 65 25 100 65 25 100 65 25 100 65 25 100 65 25 100 65 25 100 65 25 100 65 25 100 65 25 100 65 25 100 65 25 100 65 25 100 65 25 100 65 25 100 65 25 100 65 25 100 65 25 100 65 25 100 65 25 100 65 25 100 65 25 100 65 25 100 65 25 100 65 25 100 65 25 100 65 25 100 65 25 100 65 25 100 65 25 100 65 25 100 65 25 100 65 25 100 65 25 100 65 25 100 65 25 100 65 25 100 65 25 100 65 25 100 65 25 100 65 25 100 65 25 100 65 25 100 65 25 100 65 25 100 65 25 100 65 25 100 65 25 100 65 25 100 65 25 100 65 25 100 65 25 100 65 25 100 65 25 100 65 25 100 65 25 100 65 25 100 65 25 100 65 25 100 65 25 100 65 25 100 65 25 100 65 25 100 65 25 100 65 25 100 65 25 100 65 25 100 65 25 100 65 25 100 65 25 100 65 25 100 65 25 100 65 25 100 65 25 100 65 25 100 65 25 100 65 25 100 65 25 100 65 25 100 65 25 100 65 25 100 65 25 100 65 25 100 65 25 100 65 25 100 65 25 100 65 25 100 65 25 100 65 25 100 65 25 100 65 25 100 65 25 100 65 25 100 65 25 100 65 25 100 65 25 100 65 25 100 65 25 100 65 25 100 65 25 100 65 25 100 65 25 100 65 25 100 65 25 100 65 25 100 65 25 100 65 25 100 65 25 100 65 25 100 65 25 100 65 25 100 65 25 100 65 25 100 65 25 100 65 25 100 65 25 100 65 25 100 65 25 100 65 25 100 65 25 100 65 25 100 65 25 100 65 25 100 65 25 100 65 25 100 65 25 100 65 25 100 65 25 100 65 25 100 65 25 100 65
25 100 65 25 100 65 25 100 65 25 100 65 25 100 65 25 100 65 25 100 65 25 100 65 25 100 65 25 100 65 25 100 65 25 100 65 25 100 65 25 100 65 25 100 65 25 100 65 25 100 65 25 100 65 25 100 65 25 100 65 25 100 65 25 100 65 25 100 65 25 100 65 25 100 65 25 100 65 25 100 65 25 100 65 25 100 65 25 100 65 25 100 65 25 100 65 25 100 65 25 100 65 25 100 65 25 100 65 25 100 65 25 100 65 25 100 65 25 100 65 25 100 65 25 100 65 25 100 65 25 100 65 25 100 65 25 100 65 25 100 65 25 100 65 25 100 65 25 100 65 25 100 65 25 100 65 25 100 65 25 100 65 25 100 65 25 100 65 25 100 65 25 100 65 25 100 65 25 100 65 25 100 65 25 100 65 25 100 65 25 100 65 25 100 65 25 100 65 25 100 65 25 100 65 25 100 65 25 100 65 25 100 65 25 100 65 25 100 65 25 100 65 25 100 65 25 100 65 25 100 65 25 100 65 25 100 65 25 100 65 25 100 65 25 100 65 25 100 65 25 100 65 25 100 65 25 100 65 25 100 65 25 100 65 25 100 65 25 100 65 25 100 65 25 100 65 25 100 65 25 100 65 25 100 65 25 100 65 25 100 65 25 100 65 25 100 65 25 100 65 25 100 65 25 100 65 25 100 65 25 100 65 25 100 65 25 100 65 25 100 65 25 100 65 25 100 65 25 100 65 25 100 65 25 100 65 25 100 65 25 100 65 25 100 65 25 100 65 25 100 65 25 100 65 25 100 65 25 100 65 25 100 65 25 100 65 25 100 65 25 100 65 25 100 65 25 100 65 25 100 65 25 100 65 25 100 65 25 100 65 25 100 65 25 100 65 25 100 65 25 100 65 25 100 65 25 100 65 25 100 65 25 100 65 25 100 65 25 100 65 25 100 65 25 100 65 25 100 65 25 100 65 25 100 65 25 100 65 25 100 65 25 100 65 25 100 65 25 100 65 25 100 65 25 100 65 25 100 65 25 100 65 25 100 65 25 100 65 25 100 65 25 100 65 25 100 65 25 100 65 25 100 65 25 100 65 25 100 65 25 100 65 25 100 65 25 100 65 25 100 65 25 100 65 25 100 65 25 100 65 25 100 65 25 100 65 25 100 65 25 100 65 25 100 65 25 100 65 25 100 65 25 100 65 25 100 65 25 100 65 25 100 65 25 100 65 25 100 65 25 100 65 25 100 65 25 100 65 25 100 65 25 100 65 25 100 65 25 100 65 25 100 65 25 100 65 25 100 65 25 100 65 25 100 65 25 100 65 25 100 65 25 100 65 25 100 65 25 100 65 25 100 65 25 100 65 25 100 65 25 100 65 25 100 65 25 100 65 25 100 65 25 100 65 25 100 65 25 100 65 25 100 65 25 100 65 25 100 65 25 100 65 25 100 65 25 100 65 25 100 65 25 100 65 25 100 65 25 100 65 25 100 65 25 100 65 25 100 65 25 100 65 25 100 65 25 100 65 25 100 65 25 100 65 25 100 65 25 100 65 25 100 65 25 100 65 25 100 65 25 100 65 25 100 65 25 100 65 25 100 65 25 100 65 25 100 65 25 100 65 25 100 65 25 100 65 25 100 65 25 100 65 25 100 65 25 100 65 25 100 65 25 100 65 25 100 65 25 100 65 25 100 65 25 100 65 25 100 65 25 100 65 25 100 65 25 100 65 25 100 65 25 100 65 25 100 65 25 100 65 25 100 65 25 100 65 25 100 65 25 100 65 25 100 65 25 100 65 25 100 65 25 100 65 25 100 65 25 100 65 25 100 65 25 100 65 25 100 65 25 100 65 25 100 65 25 100 65 25 100 65 25 100 65 25 100 65 25 100 65 25 100 65 25 100 65 25 100 65 25 100 65 25 100 65 25 100 65 25 100 65 25 100 65 25 100 65 25 100 65 25 100 65 25 100 65 25 100 65 25 100 65 25 100 65 25 100 65 25 100 65 25 100 65 25 100 65 25 100 65 25 100 65 25 100 65 25 100 65 25 100 65 25 100 65 25 100 65 25 100 65 25 100 65 25 100 65 25 100 65 25 100 65 25 100 65 25 100 65 25 100 65 25 100 65 25 100 65 25 100 65 25 100 65 25 100 65 25 100 65
25 100 65 25 100 65 25 100 65 25 100 65 25 100 65 25 100 65 25 100 65 25 100 65 25 100 65 25 100 65 25 100 65 25 100 65 25 100 65 25 100 65 25 100 65 25 100 65 25 100 65 25 100 65 25 100 65 25 100 65 25 100 65 25 100 65 25 100 65 25 100 65 25 100 65 25 100 65 25 100 65 25 100 65 25 100 65 25 100 65 25 100 65 25 100 65 25 100 65 25 100 65 25 100 65 25 100 65 25 100 65 25 100 65 25 100 65 25 100 65 25 100 65 25 100 65 25 100 65 25 100 65 25 100 65 25 100 65 25 100 65 25 100 65 25 100 65 25 100 65 25 100 65 25 100 65 25 100 65 25 100 65 25 100 65 25 100 65 25 100 65 25 100 65 25 100 65 25 100 65 25 100 65 25 100 65 25 100 65 25 100 65 25 100 65 25 100 65 25 100 65 25 100 65 25 100 65 25 100 65 25 100 65 25 100 65 25 100 65 25 100 65 25 100 65 25 100 65 25 100 65 25 100 65 25 100 65 25 100 65 25 100 65 25 100 65 25 100 65 25 100 65 25 100 65 25 100 65 25 100 65 25 100 65 25 100 65 25 100 65 25 100 65 25 100 65 25 100 65 25 100 65 25 100 65 25 100 65 25 100 65 25 100 65 25 100 65 25 100 65 25 100 65 25 100 65 25 100 65 25 100 65 25 100 65 25 100 65 25 100 65 25 100 65 25 100 65 25 100 65 25 100 65 25 100 65 25 100 65 25 100 65 25 100 65 25 100 65 25 100 65 25 100 65 25 100 65 25 100 65 25 100 65 25 100 65 25 100 65 25 100 65 25 100 65 25 100 65 25 100 65 25 100 65 25 100 65 25 100 65 25 100 65 25 100 65 25 100 65 25 100 65 25 100 65 25 100 65 25 100 65 25 100 65 25 100 65 25 100 65 25 100 65 25 100 65 25 100 65 25 100 65 25 100 65 25 100 65 25 100 65 25 100 65 25 100 65 25 100 65 25 100 65 25 100 65 25 100 65 25 100 65 25 100 65 25 100 65 25 100 65 25 100 65 25 100 65 25 100 65 25 100 65 25 100 65 25 100 65 25 100 65 25 100 65 25 100 65 25 100 65 25 100 65 25 100 65 25 100 65 25 100 65 25 100 65 25 100 65 25 100 65 25 100 65 25 100 65 25 100 65 25 100 65 25 100 65 25 100 65 25 100 65 25 100 65 25 100 65 25 100 65 25 100 65 25 100 65 25 100 65 25 100 65 25 100 65 25 100 65 25 100 65 25 100 65 25 100 65 25 100 65 25 100 65 25 100 65 25 100 65 25 100 65 25 100 65 25 100 65 25 100 65 25 100 65 25 100 65 25 100 65 25 100 65 25 100 65 25 100 65 25 100 65 25 100 65 25 100 65 25 100 65 25 100 65 25 100 65 25 100 65 25 100 65 25 100 65 25 100 65 25 100 65 25 100 65 25 100 65 25 100 65 25 100 65 25 100 65 25 100 65 25 100 65 25 100 65 25 100 65 25 100 65 25 100 65 25 100 65 25 100 65 25 100 65 25 100 65 25 100 65 25 100 65 25 100 65 25 100 65 25 100 65 25 100 65 25 100 65 25 100 65 25 100 65 25 100 65 25 100 65 25 100 65 25 100 65 25 100 65 25 100 65 25 100 65 25 100 65 25 100 65 25 100 65 25 100 65 25 100 65 25 100 65 25 100 65 25 100 65 25 100 65 25 100 65 25 100 65 25 100 65 25 100 65 25 100 65 25 100 65 25 100 65 25 100 65 25 100 65 25 100 65 25 100 65 25 100 65 25 100 65 25 100 65 25 100 65 25 100 65 25 100 65 25 100 65 25 100 65 25 100 65 25 100 65 25 100 65 25 100 65 25 100 65 25 100 65 25 100 65 25 100 65 25 100 65 25 100 65 25 100 65 25 100 65 25 100 65 25 100 65 25 100 65 25 100 65 25 100 65 25 100 65 25 100 65 25 100 65 25 100 65 25 100 65 25 100 65 25 100 65 25 100 65 25 100 65 25 100 65 25 100 65 25 100 65 25 100 65 25 100 65 25 100 65 25 100 65 25 100 65 25 100 65 25 100 65 25 100 65 25 100 65 25 100 65 25 100 65 25 100 65 25 100 65 25 100 65
25 100 65 25 100 65 25 100 65 25 100 65 25 100 65 25 100 65 25 100 65 25 100 65 25 100 65 25 100 65 25 100 65 25 100 65 25 100 65 25 100 65 25 100 65 25 100 65 25 100 65 25 100 65 25 100 65 25 100 65 25 100 65 25 100 65 25 100 65 25 100 65 25 100 65 25 100 65 25 100 65 25 100 65 25 100 65 25 100 65 25 100 65 25 100 65 25 100 65 25 100 65 25 100 65 25 100 65 25 100 65 25 100 65 25 100 65 25 100 65 25 100 65 25 100 65 25 100 65 25 100 65 25 100 65 25 100 65 25 100 65 25 100 65 25 100 65 25 100 65 25 100 65 25 100 65 25 100 65 25 100 65 25 100 65 25 100 65 25 100 65 25 100 65 25 100 65 25 100 65 25 100 65 25 100 65 25 100 65 25 100 65 25 100 65 25 100 65 25 100 65 25 100 65 25 100 65 25 100 65 25 100 65 25 100 65 25 100 65 25 100 65 25 100 65 25 100 65 25 100 65 25 100 65 25 100 65 25 100 65 25 100 65 25 100 65 25 100 65 25 100 65 25 100 65 25 100 65 25 100 65 25 100 65 25 100 65 25 100 65 25 100 65 25 100 65 25 100 65 25 100 65 25 100 65 25 100 65 25 100 65 25 100 65 25 100 65 25 100 65 25 100 65 25 100 65 25 100 65 25 100 65 25 100 65 25 100 65 25 100 65 25 100 65 25 100 65 25 100 65 25 100 65 25 100 65 25 100 65 25 100 65 25 100 65 25 100 65 25 100 65 25 100 65 25 100 65 25 100 65 25 100 65 25 100 65 25 100 65 25 100 65 25 100 65 25 100 65 25 100 65 25 100 65 25 100 65 25 100 65 25 100 65 25 100 65 25 100 65 25 100 65 25 100 65 25 100 65 25 100 65 25 100 65 25 100 65 25 100 65 25 100 65 25 100 65 25 100 65 25 100 65 25 100 65 25 100 65 25 100 65 25 100 65 25 100 65 25 100 65 25 100 65 25 100 65 25 100 65 25 100 65 25 100 65 25 100 65 25 100 65 25 100 65 25 100 65 25 100 65 25 100 65 25 100 65 25 100 65 25 100 65 25 100 65 25 100 65 25 100 65 25 100 65 25 100 65 25 100 65 25 100 65 25 100 65 25 100 65 25 100 65 25 100 65 25 100 65 25 100 65 25 100 65 25 100 65 25 100 65 25 100 65 25 100 65 25 100 65 25 100 65 25 100 65 25 100 65 25 100 65 25 100 65 25 100 65 25 100 65 25 100 65 25 100 65 25 100 65 25 100 65 25 100 65 25 100 65 25 100 65 25 100 65 25 100 65 25 100 65 25 100 65 25 100 65 25 100 65 25 100 65 25 100 65 25 100 65 25 100 65 25 100 65 25 100 65 25 100 65 25 100 65 25 100 65 25 100 65 25 100 65 25 100 65 25 100 65 25 100 65 25 100 65 25 100 65 25 100 65 25 100 65 25 100 65 25 100 65 25 100 65 25 100 65 25 100 65 25 100 65 25 100 65 25 100 65 25 100 65 25 100 65 25 100 65 25 100 65 25 100 65 25 100 65 25 100 65 25 100 65 25 100 65 25 100 65 25 100 65 25 100 65 25 100 65 25 100 65 25 100 65 25 100 65 25 100 65 25 100 65 25 100 65 25 100 65 25 100 65 25 100 65 25 100 65 25 100 65 25 100 65 25 100 65 25 100 65 25 100 65 25 100 65 25 100 65 25 100 65 25 100 65 25 100 65 25 100 65 25 100 65 25 100 65 25 100 65 25 100 65 25 100 65 25 100 65 25 100 65 25 100 65 25 100 65 25 100 65 25 100 65 25 100 65 25 100 65 25 100 65 25 100 65 25 100 65 25 100 65 25 100 65 25 100 65 25 100 65 25 100 65 25 100 65 25 100 65 25 100 65 25 100 65 25 100 65 25 100 65 25 100 65 25 100 65 25 100 65 25 100 65 25 100 65 25 100 65 25 100 65 25 100 65 25 100 65 25 100 65 25 100 65 25 100 65 25 100 65 25 100 65 25 100 65 25 100 65 25 100 65 25 100 65 25 100 65 25 100 65 25 100 65 25 100 65 25 100 65 25 100 65 25 100 65 25 100 65 25 100 65 25 100 65 25 100 65 25 100 65
25 100 65 25 100 65 25 100 65 25 100 65 25 100 65 25 100 65 25 100 65 25 100 65 25 100 65 25 100 65 25 100 65 25 100 65 25 100 65 25 100 65 25 100 65 25 100 65 25 100 65 25 100 65 25 100 65 25 100 65 25 100 65 25 100 65 25 100 65 25 100 65 25 100 65 25 100 65 25 100 65 25 100 65 25 100 65 25 100 65 25 100 65 25 100 65 25 100 65 25 100 65 25 100 65 25 100 65 25 100 65 25 100 65 25 100 65 25 100 65 25 100 65 25 100 65 25 100 65 25 100 65 25 100 65 25 100 65 25 100 65 25 100 65 25 100 65 25 100 65 25 100 65 25 100 65 25 100 65 25 100 65 25 100 65 25 100 65 25 100 65 25 100 65 25 100 65 25 100 65 25 100 65 25 100 65 25 100 65 25 100 65 25 100 65 25 100 65 25 100 65 25 100 65 25 100 65 25 100 65 25 100 65 25 100 65 25 100 65 25 100 65 25 100 65 25 100 65 25 100 65 25 100 65 25 100 65 25 100 65 25 100 65 25 100 65 25 100 65 25 100 65 25 100 65 25 100 65 25 100 65 25 100 65 25 100 65 25 100 65 25 100 65 25 100 65 25 100 65 25 100 65 25 100 65 245 245 240 245 245 240 25 100 65 25 100 65 25 100 65 25 100 65 25 100 65 25 100 65 25 100 65 25 100 65 25 100 65 25 100 65 25 100 65 25 100 65 25 100 65 25 100 65 25 100 65 25 100 65 25 100 65 25 100 65 25 100 65 25 100 65 25 100 65 25 100 65 25 100 65 25 100 65 25 100 65 25 100 65 25 100 65 25 100 65 25 100 65 25 100 65 25 100 65 25 100 65 25 100 65 25 100 65 25 100 65 25 100 65 25 100 65 25 100 65 25 100 65 25 100 65 25 100 65 25 100 65 25 100 65 25 100 65 25 100 65 25 100 65 25 100 65 25 100 65 25 100 65 25 100 65 25 100 65 25 100 65 25 100 65 25 100 65 25 100 65 25 100 65 25 100 65 25 100 65 25 100 65 25 100 65 25 100 65 25 100 65 25 100 65 25 100 65 25 100 65 25 100 65 25 100 65 25 100 65 25 100 65 25 100 65 25 100 65 25 100 65 25 100 65 25 100 65 25 100 65 25 100 65 25 100 65 25 100 65 25 100 65 25 100 65 25 100 65 25 100 65 25 100 65 25 100 65 25 100 65 25 100 65 25 100 65 25 100 65 25 100 65 25 100 65 25 100 65 25 100 65 25 100 65 25 100 65 25 100 65 25 100 65 25 100 65 25 100 65 25 100 65 25 100 65 25 100 65 25 100 65 25 100 65 25 100 65 25 100 65 25 100 65 25 100 65 25 100 65 25 100 65 25 100 65 25 100 65 25 100 65 25 100 65 25 100 65 25 100 65 25 100 65 25 100 65 25 100 65 25 100 65 25 100 65 25 100 65 25 100 65 25 100 65 25 100 65 25 100 65 25 100 65 25 100 65 25 100 65 25 100 65 25 100 65 25 100 65 25 100 65 25 100 65 25 100 65 25 100 65 25 100 65 25 100 65 25 100 65 25 100 65 25 100 65 25 100 65 25 100 65 25 100 65 25 100 65 25 100 65 25 100 65 25 100 65 25 100 65 25 100 65 25 100 65 25 100 65 25 100 65 25 100 65 25 100 65 25 100 65 25 100 65 25 100 65 25 100 65 25 100 65 25 100 65 25 100 65 25 100 65 25 100 65 25 100 65 25 100 65 25 100 65 25 100 65 25 100 65 25 100 65 25 100 65 25 100 65 25 100 65 25 100 65 25 100 65 25 100 65 25 100 65 25 100 65 25 100 65 25 100 65 25 100 65 25 100 65 25 100 65 25 100 65 25 100 65 25 100 65 25 100 65 25 100 65 25 100 65 25 100 65 25 100 65 25 100 65 25 100 65 25 100 65 25 100 65 25 100 65 25 100 65 25 100 65 25 100 65 25 100 65 25 100 65 25 100 65 25 100 65 25 100 65 25 100 65 25 100 65 25 100 65 25 100 65 25 100 65 25 100 65 25 100 65 25 100 65 25 100 65 25 100 65 25 100 65 25 100 65 25 100 65 25 100 65 25 100 65 25 100 65 25 100 65 25 100 65 25 100 65 25 100 65
25 100 65 25 100 65 25 100 65 25 100 65 25 100 65 25 100 65 25 100 65 25 100 65 25 100 65 25 100 65 25 100 65 25 100 65 25 100 65 25 100 65 25 100 65 25 100 65 25 100 65 25 100 65 25 100 65 25 100 65 25 100 65 25 100 65 25 100 65 25 100 65 25 100 65 25 100 65 25 100 65 25 100 65 25 100 65 25 100 65 25 100 65 25 100 65 25 100 65 25 100 65 25 100 65 25 100 65 25 100 65 25 100 65 25 100 65 25 100 65 25 100 65 25 100 65 25 100 65 25 100 65 25 100 65 25 100 65 25 100 65 25 100 65 25 100 65 25 100 65 25 100 65 25 100 65 25 100 65 25 100 65 25 100 65 25 100 65 25 100 65 25 100 65 25 100 65 25 100 65 25 100 65 25 100 65 25 100 65 25 100 65 25 100 65 25 100 65 25 100 65 25 100 65 25 100 65 25 100 65 25 100 65 25 100 65 25 100 65 25 100 65 25 100 65 25 100 65 25 100 65 25 100 65 25 100 65 25 100 65 25 100 65 25 100 65 25 100 65 25 100 65 25 100 65 25 100 65 25 100 65 25 100 65 25 100 65 25 100 65 25 100 65 25 100 65 25 100 65 245 245 240 245 245 240 245 245 240 245 245 240 245 245 240 245 245 240 25 100 65 25 100 65 25 100 65 25 100 65 25 100 65 25 100 65 25 100 65 25 100 65 25 100 65 25 100 65 25 100 65 25 100 65 25 100 65 25 100 65 25 100 65 25 100 65 25 100 65 25 100 65 25 100 65 25 100 65 25 100 65 25 100 65 25 100 65 25 100 65 25 100 65 25 100 65 25 100 65 25 100 65 25 100 65 25 100 65 25 100 65 25 100 65 25 100 65 25 100 65 25 100 65 25 100 65 25 100 65 25 100 65 25 100 65 25 100 65 25 100 65 25 100 65 25 100 65 25 100 65 25 100 65 25 100 65 25 100 65 25 100 65 25 100 65 25 100 65 25 100 65 25 100 65 25 100 65 25 100 65 25 100 65 25 100 65 25 100 65 25 100 65 25 100 65 25 100 65 25 100 65 25 100 65 25 100 65 25 100 65 25 100 65 25 100 65 25 100 65 25 100 65 25 100 65 25 100 65 25 100 65 25 100 65 25 100 65 25 100 65 25 100 65 25 100 65 25 100 65 25 100 65 25 100 65 25 100 65 25 100 65 25 100 65 25 100 65 25 100 65 25 100 65 25 100 65 25 100 65 25 100 65 25 100 65 25 100 65 25 100 65 25 100 65 25 100 65 25 100 65 25 100 65 25 100 65 25 100 65 25 100 65 25 100 65 25 100 65 25 100 65 25 100 65 25 100 65 25 100 65 25 100 65 25 100 65 25 100 65 25 100 65 25 100 65 25 100 65 25 100 65 25 100 65 25 100 65 25 100 65 25 100 65 25 100 65 25 100 65 25 100 65 25 100 65 25 100 65 25 100 65 25 100 65 25 100 65 25 100 65 25 100 65 25 100 65 25 100 65 25 100 65 25 100 65 25 100 65 25 100 65 25 100 65 25 100 65 25 100 65 25 100 65 25 100 65 25 100 65 25 100 65 25 100 65 25 100 65 25 100 65 25 100 65 25 100 65 25 100 65 25 100 65 25 100 65 25 100 65 25 100 65 25 100 65 25 100 65 25 100 65 25 100 65 25 100 65 25 100 65 25 100 65 25 100 65 25 100 65 25 100 65 25 100 65 25 100 65 25 100 65 25 100 65 25 100 65 25 100 65 25 100 65 25 100 65 25 100 65 25 100 65 25 100 65 25 100 65 25 100 65 25 100 65 25 100 65 25 100 65 25 100 65 25 100 65 25 100 65 25 100 65 25 100 65 25 100 65 25 100 65 25 100 65 25 100 65 25 100 65 25 100 65 25 100 65 25 100 65 25 100 65 25 100 65 25 100 65 25 100 65 25 100 65 25 100 65 25 100 65 25 100 65 25 100 65 25 100 65 25 100 65 25 100 65 25 100 65 25 100 65 25 100 65 25 100 65 25 100 65 25 100 65 25 100 65 25 100 65 25 100 65 25 100 65 25 100 65 25 100 65 25 100 65 25 100 65 25 100 65 25 100 65 25 100 65 25 100 65 25 100 65 25 100 65 25 100 65 25 100 65
25 100 65 25 100 65 25 100 65 25 100 65 25 100 65 25 100 65 25 100 65 25 100 65 25 100 65 25 100 65 25 100 65 25 100 65 25 100 65 25 100 65 25 100 65 25 100 65 25 100 65 25 100 65 25 100 65 25 100 65 25 100 65 25 100 65 25 100 65 25 100 65 25 100 65 25 100 65 25 100 65 25 100 65 25 100 65 25 100 65 25 100 65 25 100 65 25 100 65 25 100 65 25 100 65 25 100 65 25 100 65 25 100 65 25 100 65 25 100 65 25 100 65 25 100 65 25 100 65 25 100 65 25 100 65 25 100 65 25 100 65 25 100 65 25 100 65 25 100 65 25 100 65 25 100 65 25 100 65 25 100 65 25 100 65 25 100 65 25 100 65 25 100 65 25 100 65 25 100 65 25 100 65 25 100 65 25 100 65 25 100 65 25 100 65 25 100 65 25 100 65 25 100 65 25 100 65 25 100 65 25 100 65 25 100 65 25 100 65 25 100 65 25 100 65 25 100 65 25 100 65 25 100 65 25 100 65 25 100 65 25 100 65 25 100 65 25 100 65 25 100 65 25 100 65 25 100 65 25 100 65 25 100 65 25 100 65 25 100 65 25 100 65 25 100 65 245 245 240 245 245 240 245 245 240 245 245 240 245 245 240 245 245 240 245 245 240 245 245 240 25 100 65 25 100 65 25 100 65 25 100 65 25 100 65 25 100 65 25 100 65 25 100 65 25 100 65 25 100 65 25 100 65 25 100 65 25 100 65 25 100 65 25 100 65 25 100 65 25 100 65 25 100 65 25 100 65 25 100 65 25 100 65 25 100 65 25 100 65 25 100 65 25 100 65 25 100 65 25 100 65 25 100 65 25 100 65 25 100 65 25 100 65 25 100 65 25 100 65 25 100 65 25 100 65 25 100 65 25 100 65 25 100 65 25 100 65 25 100 65 25 100 65 25 100 65 25 100 65 25 100 65 25 100 65 25 100 65 25 100 65 25 100 65 25 100 65 25 100 65 25 100 65 25 100 65 25 100 65 25 100 65 25 100 65 25 100 65 25 100 65 25 100 65 25 100 65 25 100 65 25 100 65 25 100 65 25 100 65 25 100 65 25 100 65 25 100 65 25 100 65 25 100 65 25 100 65 25 100 65 25 100 65 25 100 65 25 100 65 25 100 65 25 100 65 25 100 65 25 100 65 25 100 65 25 100 65 25 100 65 25 100 65 25 100 65 25 100 65 25 100 65 25 100 65 25 100 65 25 100 65 25 100 65 25 100 65 25 100 65 25 100 65 25 100 65 25 100 65 25 100 65 25 100 65 25 100 65 25 100 65 25 100 65 25 100 65 25 100 65 25 100 65 25 100 65 25 100 65 25 100 65 25 100 65 25 100 65 25 100 65 25 100 65 25 100 65 25 100 65 25 100 65 25 100 65 25 100 65 25 100 65 25 100 65 25 100 65 25 100 65 25 100 65 25 100 65 25 100 65 25 100 65 25 100 65 25 100 65 25 100 65 25 100 65 25 100 65 25 100 65 25 100 65 25 100 65 25 100 65 25 100 65 25 100 65 25 100 65 25 100 65 25 100 65 25 100 65 25 100 65 25 100 65 25 100 65 25 100 65 25 100 65 25 100 65 25 100 65 25 100 65 25 100 65 25 100 65 25 100 65 25 100 65 25 100 65 25 100 65 25 100 65 25 100 65 25 100 65 25 100 65 25 100 65 25 100 65 25 100 65 25 100 65 25 100 65 25 100 65 25 100 65 25 100 65 25 100 65 25 100 65 25 100 65 25 100 65 25 100 65 25 100 65 25 100 65 25 100 65 25 100 65 25 100 65 25 100 65 25 100 65 25 100 65 25 100 65 25 100 65 25 100 65 25 100 65 25 100 65 25 100 65 25 100 65 25 100 65 25 100 65 25 100 65 25 100 65 25 100 65 25 100 65 25 100 65 25 100 65 25 100 65 25 100 65 25 100 65 25 100 65 25 100 65 25 100 65 25 100 65 25 100 65 25 100 65 25 100 65 25 100 65 25 100 65 25 100 65 25 100 65 25 100 65 25 100 65 25 100 65 25 100 65 25 100 65 25 100 65 25 100 65 25 100 65 25 100 65 25 100 65 25 100 65 25 100 65 25 100 65 25 100 65 25 100 65 25 100 65
25 100 65 25 100 65 25 100 65 25 100 65 25 100 65 25 100 65 25 100 65 25 100 65 25 100 65 25 100 65 25 100 65 25 100 65 25 100 65 25 100 65 25 100 65 25 100 65 25 100 65 25 100 65 25 100 65 25 100 65 25 100 65 25 100 65 25 100 65 25 100 65 25 100 65 25 100 65 25 100 65 25 100 65 25 100 65 25 100 65 25 100 65 25 100 65 25 100 65 25 100 65 25 100 65 25 100 65 25 100 65 25 100 65 25 100 65 25 100 65 25 100 65 25 100 65 25 100 65 25 100 65 25 100 65 25 100 65 25 100 65 25 100 65 25 100 65 25 100 65 25 100 65 25 100 65 25 100 65 25 100 65 25 100 65 25 100 65 25 100 65 25 100 65 25 100 65 25 100 65 25 100 65 25 100 65 25 100 65 25 100 65 25 100 65 25 100 65 25 100 65 25 100 65 25 100 65 25 100 65 25 100 65 25 100 65 25 100 65 25 100 65 25 100 65 25 100 65 25 100 65 25 100 65 25 100 65 25 100 65 25 100 65 25 100 65 25 100 65 25 100 65 25 100 65 25 100 65 25 100 65 25 100 65 25 100 65 25 100 65 25 100 65 25 100 65 245 245 240 245 245 240 245 245 240 245 245 240 245 245 240 245 245 240 245 245 240 245 245 240 25 100 65 25 100 65 25 100 65 25 100 65 25 100 65 25 100 65 25 100 65 25 100 65 25 100 65 25 100 65 25 100 65 25 100 65 25 100 65 25 100 65 25 100 65 25 100 65 25 100 65 25 100 65 25 100 65 25 100 65 25 100 65 25 100 65 25 100 65 25 100 65 25 100 65 25 100 65 25 100 65 25 100 65 25 100 65 25 100 65 25 100 65 25 100 65 25 100 65 25 100 65 25 100 65 25 100 65 25 100 65 25 100 65 25 100 65 25 100 65 25 100 65 25 100 65 25 100 65 25 100 65 25 100 65 25 100 65 25 100 65 25 100 65 25 100 65 25 100 65 25 100 65 25 100 65 25 100 65 25 100 65 25 100 65 25 100 65 25 100 65 25 100 65 25 100 65 25 100 65 25 100 65 25 100 65 25 100 65 25 100 65 25 100 65 25 100 65 25 100 65 25 100 65 25 100 65 25 100 65 25 100 65 25 100 65 25 100 65 25 100 65 25 100 65 25 100 65 25 100 65 25 100 65 25 100 65 25 100 65 25 100 65 25 100 65 25 100 65 25 100 65 25 100 65 25 100 65 25 100 65 25 100 65 25 100 65 25 100 65 25 100 65 25 100 65 25 100 65 25 100 65 25 100 65 25 100 65 25 100 65 25 100 65 25 100 65 25 100 65 25 100 65 25 100 65 25 100 65 25 100 65 25 100 65 25 100 65 25 100 65 25 100 65 25 100 65 25 100 65 25 100 65 25 100 65 25 100 65 25 100 65 25 100 65 25 100 65 25 100 65 25 100 65 25 100 65 25 100 65 25 100 65 25 100 65 25 100 65 25 100 65 25 100 65 25 100 65 25 100 65 25 100 65 25 100 65 25 100 65 25 100 65 25 100 65 25 100 65 25 100 65 25 100 65 25 100 65 25 100 65 25 100 65 25 100 65 25 100 65 25 100 65 25 100 65 25 100 65 25 100 65 25 100 65 25 100 65 25 100 65 25 100 65 25 100 65 25 100 65 25 100 65 25 100 65 25 100 65 25 100 65 25 100 65 25 100 65 25 100 65 25 100 65 25 100 65 25 100 65 25 100 65 25 100 65 25 100 65 25 100 65 25 100 65 25 100 65 25 100 65 25 100 65 25 100 65 25 100 65 25 100 65 25 100 65 25 100 65 25 100 65 25 100 65 25 100 65 25 100 65 25 100 65 25 100 65 25 100 65 25 100 65 25 100 65 25 100 65 25 100 65 25 100 65 25 100 65 25 100 65 25 100 65 25 100 65 25 100 65 25 100 65 25 100 65 25 100 65 25 100 65 25 100 65 25 100 65 25 100 65 25 100 65 25 100 65 25 100 65 25 100 65 25 100 65 25 100 65 25 100 65 25 100 65 25 100 65 25 100 65 25 100 65 25 100 65 25 100 65 25 100 65 25 100 65 25 100 65 25 100 65 25 100 65 25 100 65 25 100 65 25 100 65 25 100 65 25 100 65
25 100 65 25 100 65 25 100 65 25 100 65 25 100 65 25 100 65 25 100 65 25 100 65 25 100 65 25 100 65 25 100 65 25 100 65 25 100 65 25 100 65 25 100 65 25 100 65 25 100 65 25 100 65 25 100 65 25 100 65 25 100 65 25 100 65 25 100 65 25 100 65 25 100 65 25 100 65 25 100 65 25 100 65 25 100 65 25 100 65 25 100 65 25 100 65 25 100 65 25 100 65 25 100 65 25 100 65 25 100 65 25 100 65 25 100 65 25 100 65 25 100 65 25 100 65 25 100 65 25 100 65 25 100 65 25 100 65 25 100 65 25 100 65 25 100 65 25 100 65 25 100 65 25 100 65 25 100 65 25 100 65 25 100 65 25 100 65 25 100 65 25 100 65 25 100 65 25 100 65 25 100 65 25 100 65 25 100 65 25 100 65 25 100 65 25 100 65 25 100 65 25 100 65 25 100 65 25 100 65 25 100 65 25 100 65 25 100 65 25 100 65 25 100 65 25 100 65 25 100 65 25 100 65 25 100 65 25 100 65 25 100 65 25 100 65 25 100 65 25 100 65 25 100 65 25 100 65 25 100 65 25 100 65 25 100 65 25 100 65 25 100 65 245 245 240 245 245 240 245 245 240 245 245 240 245 245 240 245 245 240 245 245 240 245 245 240 245 245 240 245 245 240 25 100 65 25 100 65 25 100 65 25 100 65 25 100 65 25 100 65 25 100 65 25 100 65 25 100 65 25 100 65 25 100 65 25 100 65 25 100 65 25 100 65 25 100 65 25 100 65 25 100 65 25 100 65 25 100 65 25 100 65 25 100 65 25 100 65 25 100 65 25 100 65 25 100 65 25 100 65 25 100 65 25 100 65 25 100 65 25 100 65 25 100 65 25 100 65 25 100 65 25 100 65 25 100 65 25 100 65 25 100 65 25 100 65 25 100 65 25 100 65 25 100 65 25 100 65 25 100 65 25 100 65 25 100 65 25 100 65 25 100 65 25 100 65 25 100 65 25 100 65 25 100 65 25 100 65 25 100 65 25 100 65 25 100 65 25 100 65 25 100 65 25 100 65 25 100 65 25 100 65 25 100 65 25 100 65 25 100 65 25 100 65 25 100 65 25 100 65 25 100 65 25 100 65 25 100 65 25 100 65 25 100 65 25 100 65 25 100 65 25 100 65 25 100 65 25 100 65 25 100 65 25 100 65 25 100 65 25 100 65 25 100 65 25 100 65 25 100 65 25 100 65 25 100 65 25 100 65 25 100 65 25 100 65 25 100 65 25 100 65 25 100 65 25 100 65 25 100 65 25 100 65 25 100 65 25 100 65 25 100 65 25 100 65 25 100 65 25 100 65 25 100 65 25 100 65 25 100 65 25 100 65 25 100 65 25 100 65 25 100 65 25 100 65 25 100 65 25 100 65 25 100 65 25 100 65 25 100 65 25 100 65 25 100 65 25 100 65 25 100 65 25 100 65 25 100 65 25 100 65 25 100 65 25 100 65 25 100 65 25 100 65 25 100 65 25 100 65 25 100 65 25 100 65 25 100 65 25 100 65 25 100 65 25 100 65 25 100 65 25 100 65 25 100 65 25 100 65 25 100 65 25 100 65 25 100 65 25 100 65 25 100 65 25 100 65 25 100 65 25 100 65 25 100 65 25 100 65 25 100 65 25 100 65 25 100 65 25 100 65 25 100 65 25 100 65 25 100 65 25 100 65 25 100 65 25 100 65 25 100 65 25 100 65 25 100 65 25 100 65 25 100 65 25 100 65 25 100 65 25 100 65 25 100 65 25 100 65 25 100 65 25 100 65 25 100 65 25 100 65 25 100 65 25 100 65 25 100 65 25 100 65 25 100 65 25 100 65 25 100 65 25 100 65 25 100 65 25 100 65 25 100 65 25 100 65 25 100 65 25 100 65 25 100 65 25 100 65 25 100 65 25 100 65 25 100 65 25 100 65 25 100 65 25 100 65 25 100 65 25 100 65 25 100 65 25 100 65 25 100 65 25 100 65 25 100 65 25 100 65 25 100 65 25 100 65 25 100 65 25 100 65 25 100 65 25 100 65 25 100 65 25 100 65 25 100 65 25 100 65 25 100 65 25 100 65 25 100 65 25 100 65 25 100 65 25 100 65 25 100 65 25 100 65 25 100 65
25 100 65 25 100 65 25 100 65 25 100 65 25 100 65 25 100 65 25 100 65 25 100 65 25 100 65 25 100 65 25 100 65 25 100 65 25 100 65 25 100 65 25 100 65 25 100 65 25 100 65 25 100 65 25 100 65 25 100 65 25 100 65 25 100 65 25 100 65 25 100 65 25 100 65 25 100 65 25 100 65 25 100 65 25 100 65 25 100 65 25 100 65 25 100 65 25 100 65 25 100 65 25 100 65 25 100 65 25 100 65 25 100 65 25 100 65 25 100 65 25 100 65 25 100 65 25 100 65 25 100 65 25 100 65 25 100 65 25 100 65 25 100 65 25 100 65 25 100 65 25 100 65 25 100 65 25 100 65 25 100 65 25 100 65 25 100 65 25 100 65 25 100 65 25 100 65 25 100 65 25 100 65 25 100 65 25 100 65 25 100 65 25 100 65 25 100 65 25 100 65 25 100 65 25 100 65 25 100 65 25 100 65 25 100 65 25 100 65 25 100 65 25 100 65 25 100 65 25 100 65 25 100 65 25 100 65 25 100 65 25 100 65 25 100 65 25 100 65 25 100 65 25 100 65 25 100 65 25 100 65 25 100 65 25 100 65 25 100 65 25 100 65 245 245 240 245 245 240 245 245 240 245 245 240 245 245 240 245 245 240 245 245 240 245 245 240 245 245 240 245 245 240 25 100 65 25 100 65 25 100 65 25 100 65 25 100 65 25 100 65 25 100 65 25 100 65 25 100 65 25 100 65 25 100 65 25 100 65 25 100 65 25 100 65 25 100 65 25 100 65 25 100 65 25 100 65 25 100 65 25 100 65 25 100 65 25 100 65 25 100 65 25 100 65 25 100 65 25 100 65 25 100 65 25 100 65 25 100 65 25 100 65 25 100 65 25 100 65 25 100 65 25 100 65 25 100 65 25 100 65 25 100 65 25 100 65 25 100 65 25 100 65 25 100 65 25 100 65 25 100 65 25 100 65 25 100 65 25 100 65 25 100 65 25 100 65 25 100 65 25 100 65 25 100 65 25 100 65 25 100 65 25 100 65 25 100 65 25 100 65 25 100 65 25 100 65 25 100 65 25 100 65 25 100 65 25 100 65 25 100 65 25 100 65 25 100 65 25 100 65 25 100 65 25 100 65 25 100 65 25 100 65 25 100 65 25 100 65 25 100 65 25 100 65 25 100 65 25 100 65 25 100 65 25 100 65 25 100 65 25 100 65 25 100 65 25 100 65 25 100 65 25 100 65 25 100 65 25 100 65 25 100 65 25 100 65 25 100 65 25 100 65 25 100 65 25 100 65 25 100 65 25 100 65 25 100 65 25 100 65 25 100 65 25 100 65 25 100 65 25 100 65 25 100 65 25 100 65 25 100 65 25 100 65 25 100 65 25 100 65 25 100 65 25 100 65 25 100 65 25 100 65 25 100 65 25 100 65 25 100 65 25 100 65 25 100 65 25 100 65 25 100 65 25 100 65 25 100 65 25 100 65 25 100 65 25 100 65 25 100 65 25 100 65 25 100 65 25 100 65 25 100 65 25 100 65 25 100 65 25 100 65 25 100 65 25 100 65 25 100 65 25 100 65 25 100 65 25 100 65 25 100 65 25 100 65 25 100 65 25 100 65 25 100 65 25 100 65 25 100 65 25 100 65 25 100 65 25 100 65 25 100 65 25 100 65 25 100 65 25 100 65 25 100 65 25 100 65 25 100 65 25 100 65 25 100 65 25 100 65 25 100 65 25 100 65 25 100 65 25 100 65 25 100 65 25 100 65 25 100 65 25 100 65 25 100 65 25 100 65 25 100 65 25 100 65 25 100 65 25 100 65 25 100 65 25 100 65 25 100 65 25 100 65 25 100 65 25 100 65 25 100 65 25 100 65 25 100 65 25 100 65 25 100 65 25 100 65 25 100 65 25 100 65 25 100 65 25 100 65 25 100 65 25 100 65 25 100 65 25 100 65 25 100 65 25 100 65 25 100 65 25 100 65 25 100 65 25 100 65 25 100 65 25 100 65 25 100 65 25 100 65 25 100 65 25 100 65 25 100 65 25 100 65 25 100 65 25 100 65 25 100 65 25 100 65 25 100 65 25 100 65 25 100 65 25 100 65 25 100 65 25 100 65 25 100 65 25 100 65 25 100 65 25 100 65 25 100 65
25 100 65 25 100 65 25 100 65 25 100 65 25 100 65 25 100 65 25 100 65 25 100 65 25 100 65 25 100 65 25 100 65 25 100 65 25 100 65 25 100 65 25 100 65 25 100 65 25 100 65 25 100 65 25 100 65 25 100 65 25 100 65 25 100 65 25 100 65 25 100 65 25 100 65 25 100 65 25 100 65 25 100 65 25 100 65 25 100 65 25 100 65 25 100 65 25 100 65 25 100 65 25 100 65 25 100 65 25 100 65 25 100 65 25 100 65 25 100 65 25 100 65 25 100 65 25 100 65 25 100 65 25 100 65 25 100 65 25 100 65 25 100 65 25 100 65 25 100 65 25 100 65 25 100 65 25 100 65 25 100 65 25 100 65 25 100 65 25 100 65 25 100 65 25 100 65 25 100 65 25 100 65 25 100 65 25 100 65 25 100 65 25 100 65 25 100 65 25 100 65 25 100 65 25 100 65 25 100 65 25 100 65 25 100 65 25 100 65 25 100 65 25 100 65 25 100 65 25 100 65 25 100 65 25 100 65 25 100 65 25 100 65 25 100 65 25 100 65 25 100 65 25 100 65 25 100 65 25 100 65 25 100 65 25 100 65 25 100 65 25 100 65 25 100 65 245 245 240 245 245 240 245 245 240 245 245 240 245 245 240 245 245 240 245 245 240 245 245 240 25 100 65 25 100 65 25 100 65 25 100 65 25 100 65 25 100 65 25 100 65 25 100 65 25 100 65 25 100 65 25 100 65 25 100 65 25 100 65 25 100 65 25 100 65 25 100 65 25 100 65 25 100 65 25 100 65 25 100 65 25 100 65 25 100 65 25 100 65 25 100 65 25 100 65 25 100 65 25 100 65 25 100 65 25 100 65 25 100 65 25 100 65 25 100 65 25 100 65 25 100 65 25 100 65 25 100 65 25 100 65 25 100 65 25 100 65 25 100 65 25 100 65 25 100 65 25 100 65 25 100 65 25 100 65 25 100 65 25 100 65 25 100 65 25 100 65 25 100 65 25 100 65 25 100 65 25 100 65 25 100 65 25 100 65 25 100 65 25 100 65 25 100 65 25 100 65 25 100 65 25 100 65 25 100 65 25 100 65 25 100 65 25 100 65 25 100 65 25 100 65 25 100 65 25 100 65 25 100 65 25 100 65 25 100 65 25 100 65 25 100 65 25 100 65 25 100 65 25 100 65 25 100 65 25 100 65 25 100 65 25 100 65 25 100 65 25 100 65 25 100 65 25 100 65 25 100 65 25 100 65 25 100 65 25 100 65 25 100 65 25 100 65 25 100 65 25 100 65 25 100 65 25 100 65 25 100 65 25 100 65 25 100 65 25 100 65 25 100 65 25 100 65 25 100 65 25 100 65 25 100 65 25 100 65 25 100 65 25 100 65 25 100 65 25 100 65 25 100 65 25 100 65 25 100 65 25 100 65 25 100 65 25 100 65 25 100 65 25 100 65 25 100 65 25 100 65 25 100 65 25 100 65 25 100 65 25 100 65 25 100 65 25 100 65 25 100 65 25 100 65 25 100 65 25 100 65 25 100 65 25 100 65 25 100 65 25 100 65 25 100 65 25 100 65 25 100 65 25 100 65 25 100 65 25 100 65 25 100 65 25 100 65 25 100 65 25 100 65 25 100 65 25 100 65 25 100 65 25 100 65 25 100 65 25 100 65 25 100 65 25 100 65 25 100 65 25 100 65 25 100 65 25 100 65 25 100 65 25 100 65 25 100 65 25 100 65 25 100 65 25 100 65 25 100 65 25 100 65 25 100 65 25 100 65 25 100 65 25 100 65 25 100 65 25 100 65 25 100 65 25 100 65 25 100 65 25 100 65 25 100 65 25 100 65 25 100 65 25 100 65 25 100 65 25 100 65 25 100 65 25 100 65 25 100 65 25 100 65 25 100 65 25 100 65 25 100 65 25 100 65 25 100 65 25 100 65 25 100 65 25 100 65 25 100 65 25 100 65 25 100 65 25 100 65 25 100 65 25 100 65 25 100 65 25 100 65 25 100 65 25 100 65 25 100 65 25 100 65 25 100 65 25 100 65 25 100 65 25 100 65 25 100 65 25 100 65 25 100 65 25 100 65 25 100 65 25 100 65 25 100 65 25 100 65 25 100 65 25 100 65 25 100 65 25 100 65 25 100 65
25 100 65 25 100 65 25 100 65 25 100 65 25 100 65 25 100 65 25 100 65 25 100 65 25 100 65 25 100 65 25 100 65 25 100 65 25 100 65 25 100 65 25 100 65 25 100 65 25 100 65 25 100 65 25 100 65 25 100 65 25 100 65 25 100 65 25 100 65 25 100 65 25 100 65 25 100 65 25 100 65 25 100 65 25 100 65 25 100 65 25 100 65 25 100 65 25 100 65 25 100 65 25 100 65 25 100 65 25 100 65 25 100 65 25 100 65 25 100 65 25 100 65 25 100 65 25 100 65 25 100 65 25 100 65 25 100 65 25 100 65 25 100 65 25 100 65 25 100 65 25 100 65 25 100 65 25 100 65 25 100 65 25 100 65 25 100 65 25 100 65 25 100 65 25 100 65 25 100 65 25 100 65 25 100 65 25 100 65 25 100 65 25 100 65 25 100 65 25 100 65 25 100 65 25 100 65 25 100 65 25 100 65 25 100 65 25 100 65 25 100 65 25 100 65 25 100 65 25 100 65 25 100 65 25 100 65 25 100 65 25 100 65 25 100 65 25 100 65 25 100 65 25 100 65 25 100 65 25 100 65 25 100 65 25 100 65 25 100 65 25 100 65 25 100 65 245 245 240 245 245 240 245 245 240 245 245 240 245 245 240 245 245 240 245 245 240 245 245 240 25 100 65 25 100 65 25 100 65 25 100 65 25 100 65 25 100 65 25 100 65 25 100 65 25 100 65 25 100 65 25 100 65 25 100 65 25 100 65 25 100 65 25 100 65 25 100 65 25 100 65 25 100 65 25 100 65 25 100 65 25 100 65 25 100 65 25 100 65 25 100 65 25 100 65 25 100 65 25 100 65 25 100 65 25 100 65 25 100 65 25 100 65 25 100 65 25 100 65 25 100 65 25 100 65 25 100 65 25 100 65 25 100 65 25 100 65 25 100 65 25 100 65 25 100 65 25 100 65 25 100 65 25 100 65 25 100 65 25 100 65 25 100 65 25 100 65 25 100 65 25 100 65 25 100 65 25 100 65 25 100 65 25 100 65 25 100 65 25 100 65 25 100 65 25 100 65 25 100 65 25 100 65 25 100 65 25 100 65 25 100 65 25 100 65 25 100 65 25 100 65 25 100 65 25 100 65 25 100 65 25 100 65 25 100 65 25 100 65 25 100 65 25 100 65 25 100 65 25 100 65 25 100 65 25 100 65 25 100 65 25 100 65 25 100 65 25 100 65 25 100 65 25 100 65 25 100 65 25 100 65 25 100 65 25 100 65 25 100 65 25 100 65 25 100 65 25 100 65 25 100 65 25 100 65 25 100 65 25 100 65 25 100 65 25 100 65 25 100 65 25 100 65 25 100 65 25 100 65 25 100 65 25 100 65 25 100 65 25 100 65 25 100 65 25 100 65 25 100 65 25 100 65 25 100 65 25 100 65 25 100 65 25 100 65 25 100 65 25 100 65 25 100 65 25 100 65 25 100 65 25 100 65 25 100 65 25 100 65 25 100 65 25 100 65 25 100 65 25 100 65 25 100 65 25 100 65 25 100 65 25 100 65 25 100 65 25 100 65 25 100 65 25 100 65 25 100 65 25 100 65 25 100 65 25 100 65 25 100 65 25 100 65 25 100 65 25 100 65 25 100 65 25 100 65 25 100 65 25 100 65 25 100 65 25 100 65 25 100 65 25 100 65 25 100 65 25 100 65 25 100 65 25 100 65 25 100 65 25 100 65 25 100 65 25 100 65 25 100 65 25 100 65 25 100 65 25 100 65 25 100 65 25 100 65 25 100 65 25 100 65 25 100 65 25 100 65 25 100 65 25 100 65 25 100 65 25 100 65 25 100 65 25 100 65 25 100 65 25 100 65 25 100 65 25 100 65 25 100 65 25 100 65 25 100 65 25 100 65 25 100 65 25 100 65 25 100 65 25 100 65 25 100 65 25 100 65 25 100 65 25 100 65 25 100 65 25 100 65 25 100 65 25 100 65 25 100 65 25 100 65 25 100 65 25 100 65 25 100 65 25 100 65 25 100 65 25 100 65 25 100 65 25 100 65 25 100 65 25 100 65 25 100 65 25 100 65 25 100 65 25 100 65 25 100 65 25 100 65 25 100 65 25 100 65 25 100 65 25 100 65 25 100 65 25 100 65 25 100 65
25 100 65 25 100 65 25 100 65 25 100 65 25 100 65 25 100 65 25 100 65 25 100 65 25 100 65 25 100 65 25 100 65 25 100 65 25 100 65 25 100 65 25 100 65 25 100 65 25 100 65 25 100 65 25 100 65 25 100 65 25 100 65 25 100 65 25 100 65 25 100 65 25 100 65 25 100 65 25 100 65 25 100 65 25 100 65 25 100 65 25 100 65 25 100 65 25 100 65 25 100 65 25 100 65 25 100 65 25 100 65 25 100 65 25 100 65 25 100 65 25 100 65 25 100 65 25 100 65 25 100 65 25 100 65 25 100 65 25 100 65 25 100 65 25 100 65 25 100 65 25 100 65 25 100 65 25 100 65 25 100 65 25 100 65 25 100 65 25 100 65 25 100 65 25 100 65 25 100 65 25 100 65 25 100 65 25 100 65 25 100 65 25 100 65 25 100 65 25 100 65 25 100 65 25 100 65 25 100 65 25 100 65 25 100 65 25 100 65 25 100 65 25 100 65 25 100 65 25 100 65 25 100 65 25 100 65 25 100 65 25 100 65 25 100 65 25 100 65 25 100 65 25 100 65 25 100 65 25 100 65 25 100 65 25 100 65 25 100 65 25 100 65 25 100 65 25 100 65 245 245 240 245 245 240 245 245 240 245 245 240 245 245 240 245 245 240 25 100 65 25 100 65 25 100 65 25 100 65 25 100 65 25 100 65 25 100 65 25 100 65 25 100 65 25 100 65 25 100 65 25 100 65 25 100 65 25 100 65 25 100 65 25 100 65 25 100 65 25 100 65 25 100 65 25 100 65 25 100 65 25 100 65 25 100 65 25 100 65 25 100 65 25 100 65 25 100 65 25 100 65 25 100 65 25 100 65 25 100 65 25 100 65 25 100 65 25 100 65 25 100 65 25 100 65 25 100 65 25 100 65 25 100 65 25 100 65 25 100 65 25 100 65 25 100 65 25 100 65 25 100 65 25 100 65 25 100 65 25 100 65 25 100 65 25 100 65 25 100 65 25 100 65 25 100 65 25 100 65 25 100 65 25 100 65 25 100 65 25 100 65 25 100 65 25 100 65 25 100 65 25 100 65 25 100 65 25 100 65 25 100 65 25 100 65 25 100 65 25 100 65 25 100 65 25 100 65 25 100 65 25 100 65 25 100 65 25 100 65 25 100 65 25 100 65 25 100 65 25 100 65 25 100 65 25 100 65 25 100 65 25 100 65 25 100 65 25 100 65 25 100 65 25 100 65 25 100 65 25 100 65 25 100 65 25 100 65 25 100 65 25 100 65 25 100 65 25 100 65 25 100 65 25 100 65 25 100 65 25 100 65 25 100 65 25 100 65 25 100 65 25 100 65 25 100 65 25 100 65 25 100 65 25 100 65 25 100 65 25 100 65 25 100 65 25 100 65 25 100 65 25 100 65 25 100 65 25 100 65 25 100 65 25 100 65 25 100 65 25 100 65 25 100 65 25 100 65 25 100 65 25 100 65 25 100 65 25 100 65 25 100 65 25 100 65 25 100 65 25 100 65 25 100 65 25 100 65 25 100 65 25 100 65 25 100 65 25 100 65 25 100 65 25 100 65 25 100 65 25 100 65 25 100 65 25 100 65 25 100 65 25 100 65 25 100 65 25 100 65 25 100 65 25 100 65 25 100 65 25 100 65 25 100 65 25 100 65 25 100 65 25 100 65 25 100 65 25 100 65 25 100 65 25 100 65 25 100 65 25 100 65 25 100 65 25 100 65 25 100 65 25 100 65 25 100 65 25 100 65 25 100 65 25 100 65 25 100 65 25 100 65 25 100 65 25 100 65 25 100 65 25 100 65 25 100 65 25 100 65 25 100 65 25 100 65 25 100 65 25 100 65 25 100 65 25 100 65 25 100 65 25 100 65 25 100 65 25 100 65 25 100 65 25 100 65 25 100 65 25 100 65 25 100 65 25 100 65 25 100 65 25 100 65 25 100 65 25 100 65 25 100 65 25 100 65 25 100 65 25 100 65 25 100 65 25 100 65 25 100 65 25 100 65 25 100 65 25 100 65 25 100 65 25 100 65 25 100 65 25 100 65 25 100 65 25 100 65 25 100 65 25 100 65 25 100 65 25 100 65 25 100 65 25 100 65 25 100 65 25 100 65 25 100 65 25 100 65 25 100 65
25 100 65 25 100 65 25 100 65 25 100 65 25 100 65 25 100 65 25 100 65 25 100 65 25 100 65 25 100 65 25 100 65 25 100 65 25 100 65 25 100 65 25 100 65 25 100 65 25 100 65 25 100 65 25 100 65 25 100 65 25 100 65 25 100 65 25 100 65 25 100 65 25 100 65 25 100 65 25 100 65 25 100 65 25 100 65 25 100 65 25 100 65 25 100 65 25 100 65 25 100 65 25 100 65 25 100 65 25 100 65 25 100 65 25 100 65 25 100 65 25 100 65 25 100 65 25 100 65 25 100 65 25 100 65 25 100 65 25 100 65 25 100 65 25 100 65 25 100 65 25 100 65 25 100 65 25 100 65 25 100 65 25 100 65 25 100 65 25 100 65 25 100 65 25 100 65 25 100 65 25 100 65 25 100 65 25 100 65 25 100 65 25 100 65 25 100 65 25 100 65 25 100 65 25 100 65 25 100 65 25 100 65 25 100 65 25 100 65 25 100 65 25 100 65 25 100 65 25 100 65 25 100 65 25 100 65 25 100 65 25 100 65 25 100 65 25 100 65 25 100 65 25 100 65 25 100 65 25 100 65 25 100 65 25 100 65 25 100 65 25 100 65 25 100 65 25 100 65 25 100 65 25 100 65 245 245 240 245 245 240 25 100 65 25 100 65 25 100 65 25 100 65 25 100 65 25 100 65 25 100 65 25 100 65 25 100 65 25 100 65 25 100 65 25 100 65 25 100 65 25 100 65 25 100 65 25 100 65 25 100 65 25 100 65 25 100 65 25 100 65 25 100 65 25 100 65 25 100 65 25 100 65 25 100 65 25 100 65 25 100 65 25 100 65 25 100 65 25 100 65 25 100 65 25 100 65 25 100 65 25 100 65 25 100 65 25 100 65 25 100 65 25 100 65 25 100 65 25 100 65 25 100 65 25 100 65 25 100 65 25 100 65 25 100 65 25 100 65 25 100 65 25 100 65 25 100 65 25 100 65 25 100 65 25 100 65 25 100 65 25 100 65 25 100 65 25 100 65 25 100 65 25 100 65 25 100 65 25 100 65 25 100 65 25 100 65 25 100 65 25 100 65 25 100 65 25 100 65 25 100 65 25 100 65 25 100 65 25 100 65 25 100 65 25 100 65 25 100 65 25 100 65 25 100 65 25 100 65 25 100 65 25 100 65 25 100 65 25 100 65 25 100 65 25 100 65 25 100 65 25 100 65 25 100 65 25 100 65 25 100 65 25 100 65 25 100 65 25 100 65 25 100 65 25 100 65 25 100 65 25 100 65 25 100 65 25 100 65 25 100 65 25 100 65 25 100 65 25 100 65 25 100 65 25 100 65 25 100 65 25 100 65 25 100 65 25 100 65 25 100 65 25 100 65 25 100 65 25 100 65 25 100 65 25 100 65 25 100 65 25 100 65 25 100 65 25 100 65 25 100 65 25 100 65 25 100 65 25 100 65 25 100 65 25 100 65 25 100 65 25 100 65 25 100 65 25 100 65 25 100 65 25 100 65 25 100 65 25 100 65 25 100 65 25 100 65 25 100 65 25 100 65 25 100 65 25 100 65 25 100 65 25 100 65 25 100 65 25 100 65 25 100 65 25 100 65 25 100 65 25 100 65 25 100 65 25 100 65 25 100 65 25 100 65 25 100 65 25 100 65 25 100 65 25 100 65 25 100 65 25 100 65 25 100 65 25 100 65 25 100 65 25 100 65 25 100 65 25 100 65 25 100 65 25 100 65 25 100 65 25 100 65 25 100 65 25 100 65 25 100 65 25 100 65 25 100 65 25 100 65 25 100 65 25 100 65 25 100 65 25 100 65 25 100 65 25 100 65 25 100 65 25 100 65 25 100 65 25 100 65 25 100 65 25 100 65 25 100 65 25 100 65 25 100 65 25 100 65 25 100 65 25 100 65 25 100 65 25 100 65 25 100 65 25 100 65 25 100 65 25 100 65 25 100 65 25 100 65 25 100 65 25 100 65 25 100 65 25 100 65 25 100 65 25 100 65 25 100 65 25 100 65 25 100 65 25 100 65 25 100 65 25 100 65 25 100 65 25 100 65 25 100 65 25 100 65 25 100 65 25 100 65 25 100 65 25 100 65 25 100 65 25 100 65 25 100 65 25 100 65 25 100 65 25 100 65 25 100 65
25 100 65 25 100 65 25 100 65 25 100 65 25 100 65 25 100 65 25 100 65 25 100 65 25 100 65 25 100 65 25 100 65 25 100 65 25 100 65 25 100 65 25 100 65 25 100 65 25 100 65 25 100 65 25 100 65 25 100 65 25 100 65 25 100 65 25 100 65 25 100 65 25 100 65 25 100 65 25 100 65 25 100 65 25 100 65 25 100 65 25 100 65 25 100 65 25 100 65 25 100 65 25 100 65 25 100 65 25 100 65 25 100 65 25 100 65 25 100 65 25 100 65 25 100 65 25 100 65 25 100 65 25 100 65 25 100 65 25 100 65 25 100 65 25 100 65 25 100 65 25 100 65 25 100 65 25 100 65 25 100 65 25 100 65 25 100 65 25 100 65 25 100 65 25 100 65 25 100 65 25 100 65 25 100 65 25 100 65 25 100 65 25 100 65 25 100 65 25 100 65 25 100 65 25 100 65 25 100 65 25 100 65 25 100 65 25 100 65 25 100 65 25 100 65 25 100 65 25 100 65 25 100 65 25 100 65 25 100 65 25 100 65 25 100 65 25 100 65 25 100 65 25 100 65 25 100 65 25 100 65 25 100 65 25 100 65 25 100 65 25 100 65 25 100 65 25 100 65 25 100 65 25 100 65 25 100 65 25 100 65 25 100 65 25 100 65 25 100 65 25 100 65 25 100 65 25 100 65 25 100 65 25 100 65 25 100 65 25 100 65 25 100 65 25 100 65 25 100 65 25 100 65 25 100 65 25 100 65 25 100 65 25 100 65 25 100 65 25 100 65 25 100 65 25 100 65 25 100 65 25 100 65 25 100 65 25 100 65 25 100 65 25 100 65 25 100 65 25 100 65 25 100 65 25 100 65 25 100 65 25 100 65 25 100 65 25 100 65 25 100 65 25 100 65 25 100 65 25 100 65 25 100 65 25 100 65 25 100 65 25 100 65 25 100 65 25 100 65 25 100 65 25 100 65 25 100 65 25 100 65 25 100 65 25 100 65 25 100 65 25 100 65 25 100 65 25 100 65 25 100 65 25 100 65 25 100 65 25 100 65 25 100 65 25 100 65 25 100 65 25 100 65 25 100 65 25 100 65 25 100 65 25 100 65 25 100 65 25 100 65 25 100 65 25 100 65 25 100 65 25 100 65 25 100 65 25 100 65 25 100 65 25 100 65 25 100 65 25 100 65 25 100 65 25 100 65 25 100 65 25 100 65 25 100 65 25 100 65 25 100 65 25 100 65 25 100 65 25 100 65 25 100 65 25 100 65 25 100 65 25 100 65 25 100 65 25 100 65 25 100 65 25 100 65 25 100 65 25 100 65 25 100 65 25 100 65 25 100 65 25 100 65 25 100 65 25 100 65 25 100 65 25 100 65 25 100 65 25 100 65 25 100 65 25 100 65 25 100 65 25 100 65 25 100 65 25 100 65 25 100 65 25 100 65 25 100 65 25 100 65 25 100 65 25 100 65 25 100 65 25 100 65 25 100 65 25 100 65 25 100 65 25 100 65 25 100 65 25 100 65 25 100 65 25 100 65 25 100 65 25 100 65 25 100 65 25 100 65 25 100 65 25 100 65 25 100 65 25 100 65 25 100 65 25 100 65 25 100 65 25 100 65 25 100 65 25 100 65 25 100 65 25 100 65 25 100 65 25 100 65 25 100 65 25 100 65 25 100 65 25 100 65 25 100 65 25 100 65 25 100 65 25 100 65 25 100 65 25 100 65 25 100 65 25 100 65 25 100 65 25 100 65 25 100 65 25 100 65 25 100 65 25 100 65 25 100 65 25 100 65 25 100 65 25 100 65 25 100 65 25 100 65 25 100 65 25 100 65 25 100 65 25 100 65 25 100 65 25 100 65 25 100 65 25 100 65 25 100 65 25 100 65 25 100 65 25 100 65 25 100 65 25 100 65 25 100 65 25 100 65 25 100 65 25 100 65 25 100 65 25 100 65 25 100 65 25 100 65 25 100 65 25 100 65 25 100 65 25 100 65 25 100 65 25 100 65 25 100 65 25 100 65 25 100 65 25 100 65 25 100 65 25 100 65 25 100 65 25 100 65 25 100 65 25 100 65 25 100 65 25 100 65 25 100 65 25 100 65 25 100 65 25 100 65 25 100 65 25 100 65 25 100 65 25 100 65 25 100 65
25 100 65 25 100 65 25 100 65 25 100 65 25 100 65 25 100 65 25 100 65 25 100 65 25 100 65 25 100 65 25 100 65 25 100 65 25 100 65 25 100 65 25 100 65 25 100 65 25 100 65 25 100 65 25 100 65 25 100 65 25 100 65 25 100 65 25 100 65 25 100 65 25 100 65 25 100 65 25 100 65 25 100 65 25 100 65 25 100 65 25 100 65 25 100 65 25 100 65 25 100 65 25 100 65 25 100 65 25 100 65 25 100 65 25 100 65 25 100 65 25 100 65 25 100 65 25 100 65 25 100 65 25 100 65 25 100 65 25 100 65 25 100 65 25 100 65 25 100 65 25 100 65 25 100 65 25 100 65 25 100 65 25 100 65 25 100 65 25 100 65 25 100 65 25 100 65 25 100 65 25 100 65 25 100 65 25 100 65 25 100 65 25 100 65 25 100 65 25 100 65 25 100 65 25 100 65 25 100 65 25 100 65 25 100 65 25 100 65 25 100 65 25 100 65 25 100 65 25 100 65 25 100 65 25 100 65 25 100 65 25 100 65 25 100 65 25 100 65 25 100 65 25 100 65 25 100 65 25 100 65 25 100 65 25 100 65 25 100 65 25 100 65 25 100 65 25 100 65 25 100 65 25 100 65 25 100 65 25 100 65 25 100 65 25 100 65 25 100 65 25 100 65 25 100 65 25 100 65 25 100 65 25 100 65 25 100 65 25 100 65 25 100 65 25 100 65 25 100 65 25 100 65 25 100 65 25 100 65 25 100 65 25 100 65 25 100 65 25 100 65 25 100 65 25 100 65 25 100 65 25 100 65 25 100 65 25 100 65 25 100 65 25 100 65 25 100 65 25 100 65 25 100 65 25 100 65 25 100 65 25 100 65 25 100 65 25 100 65 25 100 65 25 100 65 25 100 65 25 100 65 25 100 65 25 100 65 25 100 65 25 100 65 25 100 65 25 100 65 25 100 65 25 100 65 25 100 65 25 100 65 25 100 65 25 100 65 25 100 65 25 100 65 25 100 65 25 100 65 25 100 65 25 100 65 25 100 65 25 100 65 25 100 65 25 100 65 25 100 65 25 100 65 25 100 65 25 100 65 25 100 65 25 100 65 25 100 65 25 100 65 25 100 65 25 100 65 25 100 65 25 100 65 25 100 65 25 100 65 25 100 65 25 100 65 25 100 65 25 100 65 25 100 65 25 100 65 25 100 65 25 100 65 25 100 65 25 100 65 25 100 65 25 100 65 25 100 65 25 100 65 25 100 65 25 100 65 25 100 65 25 100 65 25 100 65 25 100 65 25 100 65 25 100 65 25 100 65 25 100 65 25 100 65 25 100 65 25 100 65 25 100 65 25 100 65 25 100 65 25 100 65 25 100 65 25 100 65 25 100 65 25 100 65 25 100 65 25 100 65 25 100 65 25 100 65 25 100 65 25 100 65 25 100 65 25 100 65 25 100 65 25 100 65 25 100 65 25 100 65 25 100 65 25 100 65 25 100 65 25 100 65 25 100 65 25 100 65 25 100 65 25 100 65 25 100 65 25 100 65 25 100 65 25 100 65 25 100 65 25 100 65 25 100 65 25 100 65 25 100 65 25 100 65 25 100 65 25 100 65 25 100 65 25 100 65 25 100 65 25 100 65 25 100 65 25 100 65 25 100 65 25 100 65 25 100 65 25 100 65 25 100 65 25 100 65 25 100 65 25 100 65 25 100 65 25 100 65 25 100 65 25 100 65 25 100 65 25 100 65 25 100 65 25 100 65 25 100 65 25 100 65 25 100 65 25 100 65 25 100 65 25 100 65 25 100 65 25 100 65 25 100 65 25 100 65 25 100 65 25 100 65 25 100 65 25 100 65 25 100 65 25 100 65 25 100 65 25 100 65 25 100 65 25 100 65 25 100 65 25 100 65 25 100 65 25 100 65 25 100 65 25 100 65 25 100 65 25 100 65 25 100 65 25 100 65 25 100 65 25 100 65 25 100 65 25 100 65 25 100 65 25 100 65 25 100 65 25 100 65 25 100 65 25 100 65 25 100 65 25 100 65 25 100 65 25 100 65 25 100 65 25 100 65 25 100 65 25 100 65 25 100 65 25 100 65 25 100 65 25 100 65 25 100 65 25 100 65 25 100 65 25 100 65 25 100 65 25 100 65
25 100 65 25 100 65 25 100 65 25 100 65 25 100 65 25 100 65 25 100 65 25 100 65 25 100 65 25 100 65 25 100 65 25 100 65 25 100 65 25 100 65 25 100 65 25 100 65 25 100 65 25 100 65 25 100 65 25 100 65 25 100 65 25 100 65 25 100 65 25 100 65 25 100 65 25 100 65 25 100 65 25 100 65 25 100 65 25 100 65 25 100 65 25 100 65 25 100 65 25 100 65 25 100 65 25 100 65 25 100 65 25 100 65 25 100 65 25 100 65 25 100 65 25 100 65 25 100 65 25 100 65 25 100 65 25 100 65 25 100 65 25 100 65 25 100 65 25 100 65 25 100 65 25 100 65 25 100 65 25 100 65 25 100 65 25 100 65 25 100 65 25 100 65 25 100 65 25 100 65 25 100 65 25 100 65 25 100 65 25 100 65 25 100 65 25 100 65 25 100 65 25 100 65 25 100 65 25 100 65 25 100 65 25 100 65 25 100 65 25 100 65 25 100 65 25 100 65 25 100 65 25 100 65 25 100 65 25 100 65 25 100 65 25 100 65 25 100 65 25 100 65 25 100 65 25 100 65 25 100 65 25 100 65 25 100 65 25 100 65 25 100 65 25 100 65 25 100 65 25 100 65 25 100 65 25 100 65 25 100 65 25 100 65 25 100 65 25 100 65 25 100 65 25 100 65 25 100 65 25 100 65 25 100 65 25 100 65 25 100 65 25 100 65 25 100 65 25 100 65 25 100 65 25 100 65 25 100 65 25 100 65 25 100 65 25 100 65 25 100 65 25 100 65 25 100 65 25 100 65 25 100 65 25 100 65 25 100 65 25 100 65 25 100 65 25 100 65 25 100 65 25 100 65 25 100 65 25 100 65 25 100 65 25 100 65 25 100 65 25 100 65 25 100 65 25 100 65 25 100 65 25 100 65 25 100 65 25 100 65 25 100 65 25 100 65 25 100 65 25 100 65 25 100 65 25 100 65 25 100 65 25 100 65 25 100 65 25 100 65 25 100 65 25 100 65 25 100 65 25 100 65 25 100 65 25 100 65 25 100 65 25 100 65 25 100 65 25 100 65 25 100 65 25 100 65 25 100 65 25 100 65 25 100 65 25 100 65 25 100 65 25 100 65 25 100 65 25 100 65 25 100 65 25 100 65 25 100 65 25 100 65 25 100 65 25 100 65 25 100 65 25 100 65 25 100 65 25 100 65 25 100 65 25 100 65 25 100 65 25 100 65 25 100 65 25 100 65 25 100 65 25 100 65 25 100 65 25 100 65 25 100 65 25 100 65 25 100 65 25 100 65 25 100 65 25 100 65 25 100 65 25 100 65 25 100 65 25 100 65 25 100 65 25 100 65 25 100 65 25 100 65 25 100 65 25 100 65 25 100 65 25 100 65 25 100 65 25 100 65 25 100 65 25 100 65 25 100 65 25 100 65 25 100 65 25 100 65 25 100 65 25 100 65 25 100 65 25 100 65 25 100 65 25 100 65 25 100 65 25 100 65 25 100 65 25 100 65 25 100 65 25 100 65 25 100 65 25 100 65 25 100 65 25 100 65 25 100 65 25 100 65 25 100 65 25 100 65 25 100 65 25 100 65 25 100 65 25 100 65 25 100 65 25 100 65 25 100 65 25 100 65 25 100 65 25 100 65 25 100 65 25 100 65 25 100 65 25 100 65 25 100 65 25 100 65 25 100 65 25 100 65 25 100 65 25 100 65 25 100 65 25 100 65 25 100 65 25 100 65 25 100 65 25 100 65 25 100 65 25 100 65 25 100 65 25 100 65 25 100 65 25 100 65 25 100 65 25 100 65 25 100 65 25 100 65 25 100 65 25 100 65 25 100 65 25 100 65 25 100 65 25 100 65 25 100 65 25 100 65 25 100 65 25 100 65 25 100 65 25 100 65 25 100 65 25 100 65 25 100 65 25 100 65 25 100 65 25 100 65 25 100 65 25 100 65 25 100 65 25 100 65 25 100 65 25 100 65 25 100 65 25 100 65 25 100 65 25 100 65 25 100 65 25 100 65 25 100 65 25 100 65 25 100 65 25 100 65 25 100 65 25 100 65 25 100 65 25 100 65 25 100 65 25 100 65 25 100 65 25 100 65 25 100 65 25 100 65 25 100 65 25 100 65 25 100 65 25 100 65
25 100 65 25 100 65 25 100 65 25 100 65 25 100 65 25 100 65 25 100 65 25 100 65 25 100 65 25 100 65 25 100 65 25 100 65 25 100 65 25 100 65 25 100 65 25 100 65 25 100 65 25 100 65 25 100 65 25 100 65 25 100 65 25 100 65 25 100 65 25 100 65 25 100 65 25 100 65 25 100 65 25 100 65 25 100 65 25 100 65 25 100 65 25 100 65 25 100 65 25 100 65 25 100 65 25 100 65 25 100 65 25 100 65 25 100 65 25 100 65 25 100 65 25 100 65 25 100 65 25 100 65 25 100 65 25 100 65 25 100 65 25 100 65 25 100 65 25 100 65 25 100 65 25 100 65 25 100 65 25 100 65 25 100 65 25 100 65 25 100 65 25 100 65 25 100 65 25 100 65 25 100 65 25 100 65 25 100 65 25 100 65 25 100 65 25 100 65 25 100 65 25 100 65 25 100 65 25 100 65 25 100 65 25 100 65 25 100 65 25 100 65 25 100 65 25 100 65 25 100 65 25 100 65 25 100 65 25 100 65 25 100 65 25 100 65 25 100 65 25 100 65 25 100 65 25 100 65 25 100 65 25 100 65 25 100 65 25 100 65 25 100 65 25 100 65 25 100 65 25 100 65 25 100 65 25 100 65 25 100 65 25 100 65 25 100 65 25 100 65 25 100 65 25 100 65 25 100 65 25 100 65 25 100 65 25 100 65 25 100 65 25 100 65 25 100 65 25 100 65 25 100 65 25 100 65 25 100 65 25 100 65 25 100 65 25 100 65 25 100 65 25 100 65 25 100 65 25 100 65 25 100 65 25 100 65 25 100 65 25 100 65 25 100 65 25 100 65 25 100 65 25 100 65 25 100 65 25 100 65 25 100 65 25 100 65 25 100 65 25 100 65 25 100 65 25 100 65 25 100 65 25 100 65 25 100 65 25 100 65 25 100 65 25 100 65 25 100 65 25 100 65 25 100 65 25 100 65 25 100 65 25 100 65 25 100 65 25 100 65 25 100 65 25 100 65 25 100 65 25 100 65 25 100 65 25 100 65 25 100 65 25 100 65 25 100 65 25 100 65 25 100 65 25 100 65 25 100 65 25 100 65 25 100 65 25 100 65 25 100 65 25 100 65 25 100 65 25 100 65 25 100 65 25 100 65 25 100 65 25 100 65 25 100 65 25 100 65 25 100 65 25 100 65 25 100 65 25 100 65 25 100 65 25 100 65 25 100 65 25 100 65 25 100 65 25 100 65 25 100 65 25 100 65 25 100 65 25 100 65 25 100 65 25 100 65 25 100 65 25 100 65 25 100 65 25 100 65 25 100 65 25 100 65 25 100 65 25 100 65 25 100 65 25 100 65 25 100 65 25 100 65 25 100 65 25 100 65 25 100 65 25 100 65 25 100 65 25 100 65 25 100 65 25 100 65 25 100 65 25 100 65 25 100 65 25 100 65 25 100 65 25 100 65 25 100 65 25 100 65 25 100 65 25 100 65 25 100 65 25 100 65 25 100 65 25 100 65 25 100 65 25 100 65 25 100 65 25 100 65 25 100 65 25 100 65 25 100 65 25 100 65 25 100 65 25 100 65 25 100 65 25 100 65 25 100 65 25 100 65 25 100 65 25 100 65 25 100 65 25 100 65 25 100 65 25 100 65 25 100 65 25 100 65 25 100 65 25 100 65 25 100 65 25 100 65 25 100 65 25 100 65 25 100 65 25 100 65 25 100 65 25 100 65 25 100 65 25 100 65 25 100 65 25 100 65 25 100 65 25 100 65 25 100 65 25 100 65 25 100 65 25 100 65 25 100 65 25 100 65 25 100 65 25 100 65 25 100 65 25 100 65 25 100 65 25 100 65 25 100 65 25 100 65 25 100 65 25 100 65 25 100 65 25 100 65 25 100 65 25 100 65 25 100 65 25 100 65 25 100 65 25 100 65 25 100 65 25 100 65 25 100 65 25 100 65 25 100 65 25 100 65 25 100 65 25 100 65 25 100 65 25 100 65 25 100 65 25 100 65 25 100 65 25 100 65 25 100 65 25 100 65 25 100 65 25 100 65 25 100 65 25 100 65 25 100 65 25 100 65 25 100 65 25 100 65 25 100 65 25 100 65 25 100 65 25 100 65 25 100 65 25 100 65 25 100 65 25 100 65
25 100 65 25 100 65 25 100 65 25 100 65 25 100 65 25 100 65 25 100 65 25 100 65 25 100 65 25 100 65 25 100 65 25 100 65 25 100 65 25 100 65 25 100 65 25 100 65 25 100 65 25 100 65 25 100 65 25 100 65 25 100 65 25 100 65 25 100 65 25 100 65 25 100 65 25 100 65 25 100 65 25 100 65 25 100 65 25 100 65 25 100 65 25 100 65 25 100 65 25 100 65 25 100 65 25 100 65 25 100 65 25 100 65 25 100 65 25 100 65 25 100 65 25 100 65 25 100 65 25 100 65 25 100 65 25 100 65 25 100 65 25 100 65 25 100 65 25 100 65 25 100 65 25 100 65 25 100 65 25 100 65 25 100 65 25 100 65 25 100 65 25 100 65 25 100 65 25 100 65 25 100 65 25 100 65 25 100 65 25 100 65 25 100 65 25 100 65 25 100 65 25 100 65 25 100 65 25 100 65 25 100 65 25 100 65 25 100 65 25 100 65 25 100 65 25 100 65 25 100 65 25 100 65 25 100 65 25 100 65 25 100 65 25 100 65 25 100 65 25 100 65 25 100 65 25 100 65 25 100 65 25 100 65 25 100 65 25 100 65 25 100 65 25 100 65 25 100 65 25 100 65 25 100 65 25 100 65 25 100 65 25 100 65 25 100 65 25 100 65 25 100 65 25 100 65 25 100 65 25 100 65 25 100 65 25 100 65 25 100 65 25 100 65 25 100 65 25 100 65 25 100 65 25 100 65 25 100 65 25 100 65 25 100 65 25 100 65 25 100 65 25 100 65 25 100 65 25 100 65 25 100 65 25 100 65 25 100 65 25 100 65 25 100 65 25 100 65 25 100 65 25 100 65 25 100 65 25 100 65 25 100 65 25 100 65 25 100 65 25 100 65 25 100 65 25 100 65 25 100 65 25 100 65 25 100 65 25 100 65 25 100 65 25 100 65 25 100 65 25 100 65 25 100 65 25 100 65 25 100 65 25 100 65 25 100 65 25 100 65 25 100 65 25 100 65 25 100 65 25 100 65 25 100 65 25 100 65 25 100 65 25 100 65 25 100 65 25 100 65 25 100 65 25 100 65 25 100 65 25 100 65 25 100 65 25 100 65 25 100 65 25 100 65 25 100 65 25 100 65 25 100 65 25 100 65 25 100 65 25 100 65 25 100 65 25 100 65 25 100 65 25 100 65 25 100 65 25 100 65 25 100 65 25 100 65 25 100 65 25 100 65 25 100 65 25 100 65 25 100 65 25 100 65 25 100 65 25 100 65 25 100 65 25 100 65 25 100 65 25 100 65 25 100 65 25 100 65 25 100 65 25 100 65 25 100 65 25 100 65 25 100 65 25 100 65 25 100 65 25 100 65 25 100 65 25 100 65 25 100 65 25 100 65 25 100 65 25 100 65 25 100 65 25 100 65 25 100 65 25 100 65 25 100 65 25 100 65 25 100 65 25 100 65 25 100 65 25 100 65 25 100 65 25 100 65 25 100 65 25 100 65 25 100 65 25 100 65 25 100 65 25 100 65 25 100 65 25 100 65 25 100 65 25 100 65 25 100 65 25 100 65 25 100 65 25 100 65 25 100 65 25 100 65 25 100 65 25 100 65 25 100 65 25 100 65 25 100 65 25 100 65 25 100 65 25 100 65 25 100 65 25 100 65 25 100 65 25 100 65 25 100 65 25 100 65 25 100 65 25 100 65 25 100 65 25 100 65 25 100 65 25 100 65 25 100 65 25 100 65 25 100 65 25 100 65 25 100 65 25 100 65 25 100 65 25 100 65 25 100 65 25 100 65 25 100 65 25 100 65 25 100 65 25 100 65 25 100 65 25 100 65 25 100 65 25 100 65 25 100 65 25 100 65 25 100 65 25 100 65 25 100 65 25 100 65 25 100 65 25 100 65 25 100 65 25 100 65 25 100 65 25 100 65 25 100 65 25 100 65 25 100 65 25 100 65 25 100 65 25 100 65 25 100 65 25 100 65 25 100 65 25 100 65 25 100 65 25 100 65 25 100 65 25 100 65 25 100 65 25 100 65 25 100 65 25 100 65 25 100 65 25 100 65 25 100 65 25 100 65 25 100 65 25 100 65 25 100 65 25 100 65 25 100 65 25 100 65 25 100 65 25 100 65 25 100 65 25 100 65
25 100 65 25 100 65 25 100 65 25 100 65 25 100 65 25 100 65 25 100 65 25 100 65 25 100 65 25 100 65 25 100 65 25 100 65 25 100 65 25 100 65 25 100 65 25 100 65 25 100 65 25 100 65 25 100 65 25 100 65 25 100 65 25 100 65 25 100 65 25 100 65 25 100 65 25 100 65 25 100 65 25 100 65 25 100 65 25 100 65 25 100 65 25 100 65 25 100 65 25 100 65 25 100 65 25 100 65 25 100 65 25 100 65 25 100 65 25 100 65 25 100 65 25 100 65 25 100 65 25 100 65 25 100 65 25 100 65 25 100 65 25 100 65 25 100 65 25 100 65 25 100 65 25 100 65 25 100 65 25 100 65 25 100 65 25 100 65 25 100 65 25 100 65 25 100 65 25 100 65 25 100 65 25 100 65 25 100 65 25 100 65 25 100 65 25 100 65 25 100 65 25 100 65 25 100 65 25 100 65 25 100 65 25 100 65 25 100 65 25 100 65 25 100 65 25 100 65 25 100 65 25 100 65 25 100 65 25 100 65 25 100 65 25 100 65 25 100 65 25 100 65 25 100 65 25 100 65 25 100 65 25 100 65 25 100 65 25 100 65 25 100 65 25 100 65 25 100 65 25 100 65 25 100 65 25 100 65 25 100 65 25 100 65 25 100 65 25 100 65 25 100 65 25 100 65 25 100 65 25 100 65 25 100 65 25 100 65 25 100 65 25 100 65 25 100 65 25 100 65 25 100 65 25 100 65 25 100 65 25 100 65 25 100 65 25 100 65 25 100 65 25 100 65 25 100 65 25 100 65 25 100 65 25 100 65 25 100 65 25 100 65 25 100 65 25 100 65 25 100 65 25 100 65 25 100 65 25 100 65 25 100 65 25 100 65 25 100 65 25 100 65 25 100 65 25 100 65 25 100 65 25 100 65 25 100 65 25 100 65 25 100 65 25 100 65 25 100 65 25 100 65 25 100 65 25 100 65 25 100 65 25 100 65 25 100 65 25 100 65 25 100 65 25 100 65 25 100 65 25 100 65 25 100 65 25 100 65 25 100 65 25 100 65 25 100 65 25 100 65 25 100 65 25 100 65 25 100 65 25 100 65 25 100 65 25 100 65 25 100 65 25 100 65 25 100 65 25 100 65 25 100 65 25 100 65 25 100 65 25 100 65 25 100 65 25 100 65 25 100 65 25 100 65 25 100 65 25 100 65 25 100 65 25 100 65 25 100 65 25 100 65 25 100 65 25 100 65 25 100 65 25 100 65 25 100 65 25 100 65 25 100 65 25 100 65 25 100 65 25 100 65 25 100 65 25 100 65 25 100 65 25 100 65 25 100 65 25 100 65 25 100 65 25 100 65 25 100 65 25 100 65 25 100 65 25 100 65 25 100 65 25 100 65 25 100 65 25 100 65 25 100 65 25 100 65 25 100 65 25 100 65 25 100 65 25 100 65 25 100 65 25 100 65 25 100 65 25 100 65 25 100 65 25 100 65 25 100 65 25 100 65 25 100 65 25 100 65 25 100 65 25 100 65 25 100 65 25 100 65 25 100 65 25 100 65 25 100 65 25 100 65 25 100 65 25 100 65 25 100 65 25 100 65 25 100 65 25 100 65 25 100 65 25 100 65 25 100 65 25 100 65 25 100 65 25 100 65 25 100 65 25 100 65 25 100 65 25 100 65 25 100 65 25 100 65 25 100 65 25 100 65 25 100 65 25 100 65 25 100 65 25 100 65 25 100 65 25 100 65 25 100 65 25 100 65 25 100 65 25 100 65 25 100 65 25 100 65 25 100 65 25 100 65 25 100 65 25 100 65 25 100 65 25 100 65 25 100 65 25 100 65 25 100 65 25 100 65 25 100 65 25 100 65 25 100 65 25 100 65 25 100 65 25 100 65 25 100 65 25 100 65 25 100 65 25 100 65 25 100 65 25 100 65 25 100 65 25 100 65 25 100 65 25 100 65 25 100 65 25 100 65 25 100 65 25 100 65 25 100 65 25 100 65 25 100 65 25 100 65 25 100 65 25 100 65 25 100 65 25 100 65 25 100 65 25 100 65 25 100 65 25 100 65 25 100 65 25 100 65 25 100 65 25 100 65 25 100 65 25 100 65 25 100 65 25 100 65 25 100 65 25 100 65 25 100 65 25 100 65
25 100 65 25 100 65 25 100 65 25 100 65 25 100 65 25 100 65 25 100 65 25 100 65 25 100 65 25 100 65 25 100 65 25 100 65 25 100 65 25 100 65 25 100 65 25 100 65 25 100 65 25 100 65 25 100 65 25 100 65 25 100 65 25 100 65 25 100 65 25 100 65 25 100 65 25 100 65 25 100 65 25 100 65 25 100 65 25 100 65 25 100 65 25 100 65 25 100 65 25 100 65 25 100 65 25 100 65 25 100 65 25 100 65 25 100 65 25 100 65 25 100 65 25 100 65 25 100 65 25 100 65 25 100 65 25 100 65 25 100 65 25 100 65 25 100 65 25 100 65 25 100 65 25 100 65 25 100 65 25 100 65 25 100 65 25 100 65 25 100 65 25 100 65 25 100 65 25 100 65 25 100 65 25 100 65 25 100 65 25 100 65 25 100 65 25 100 65 25 100 65 25 100 65 25 100 65 25 100 65 25 100 65 25 100 65 25 100 65 25 100 65 25 100 65 25 100 65 25 100 65 25 100 65 25 100 65 25 100 65 25 100 65 25 100 65 25 100 65 25 100 65 25 100 65 25 100 65 25 100 65 25 100 65 25 100 65 25 100 65 25 100 65 25 100 65 25 100 65 25 100 65 25 100 65 25 100 65 25 100 65 25 100 65 25 100 65 25 100 65 25 100 65 25 100 65 25 100 65 25 100 65 25 100 65 25 100 65 25 100 65 25 100 65 25 100 65 25 100 65 25 100 65 25 100 65 25 100 65 25 100 65 25 100 65 25 100 65 25 100 65 25 100 65 25 100 65 25 100 65 25 100 65 25 100 65 25 100 65 25 100 65 25 100 65 25 100 65 25 100 65 25 100 65 25 100 65 25 100 65 25 100 65 25 100 65 25 100 65 25 100 65 25 100 65 25 100 65 25 100 65 25 100 65 25 100 65 25 100 65 25 100 65 25 100 65 25 100 65 25 100 65 25 100 65 25 100 65 25 100 65 25 100 65 25 100 65 25 100 65 25 100 65 25 100 65 25 100 65 25 100 65 25 100 65 25 100 65 25 100 65 25 100 65 25 100 65 25 100 65 25 100 65 25 100 65 25 100 65 25 100 65 25 100 65 25 100 65 25 100 65 25 100 65 25 100 65 25 100 65 25 100 65 25 100 65 25 100 65 25 100 65 25 100 65 25 100 65 25 100 65 25 100 65 25 100 65 25 100 65 25 100 65 25 100 65 25 100 65 25 100 65 25 100 65 25 100 65 25 100 65 25 100 65 25 100 65 25 100 65 25 100 65 25 100 65 25 100 65 25 100 65 25 100 65 25 100 65 25 100 65 25 100 65 25 100 65 25 100 65 25 100 65 25 100 65 25 100 65 25 100 65 25 100 65 25 100 65 25 100 65 25 100 65 25 100 65 25 100 65 25 100 65 25 100 65 25 100 65 25 100 65 25 100 65 25 100 65 25 100 65 25 100 65 25 100 65 25 100 65 25 100 65 25 100 65 25 100 65 25 100 65 25 100 65 25 100 65 25 100 65 25 100 65 25 100 65 25 100 65 25 100 65 25 100 65 25 100 65 25 100 65 25 100 65 25 100 65 25 100 65 25 100 65 25 100 65 25 100 65 25 100 65 25 100 65 25 100 65 25 100 65 25 100 65 25 100 65 25 100 65 25 100 65 25 100 65 25 100 65 25 100 65 25 100 65 25 100 65 25 100 65 25 100 65 25 100 65 25 100 65 25 100 65 25 100 65 25 100 65 25 100 65 25 100 65 25 100 65 25 100 65 25 100 65 25 100 65 25 100 65 25 100 65 25 100 65 25 100 65 25 100 65 25 100 65 25 100 65 25 100 65 25 100 65 25 100 65 25 100 65 25 100 65 25 100 65 25 100 65 25 100 65 25 100 65 25 100 65 25 100 65 25 100 65 25 100 65 25 100 65 25 100 65 25 100 65 25 100 65 25 100 65 25 100 65 25 100 65 25 100 65 25 100 65 25 100 65 25 100 65 25 100 65 25 100 65 25 100 65 25 100 65 25 100 65 25 100 65 25 100 65 25 100 65 25 100 65 25 100 65 25 100 65 25 100 65 25 100 65 25 100 65 25 100 65 25 100 65 25 100 65 25 100 65 25 100 65 25 100 65 25 100 65 25 100 65 25 100 65
25 100 65 25 100 65 25 100 65 25 100 65 25 100 65 25 100 65 25 100 65 25 100 65 25 100 65 25 100 65 25 100 65 25 100 65 25 100 65 25 100 65 25 100 65 25 100 65 25 100 65 25 100 65 25 100 65 25 100 65 25 100 65 25 100 65 25 100 65 25 100 65 25 100 65 25 100 65 25 100 65 25 100 65 25 100 65 25 100 65 25 100 65 25 100 65 25 100 65 25 100 65 25 100 65 25 100 65 25 100 65 25 100 65 25 100 65 25 100 65 25 100 65 25 100 65 25 100 65 25 100 65 25 100 65 25 100 65 25 100 65 25 100 65 25 100 65 25 100 65 25 100 65 25 100 65 25 100 65 25 100 65 25 100 65 25 100 65 25 100 65 25 100 65 25 100 65 25 100 65 25 100 65 25 100 65 25 100 65 25 100 65 25 100 65 25 100 65 25 100 65 25 100 65 25 100 65 25 100 65 25 100 65 25 100 65 25 100 65 25 100 65 25 100 65 25 100 65 25 100 65 25 100 65 25 100 65 25 100 65 25 100 65 25 100 65 25 100 65 25 100 65 25 100 65 25 100 65 25 100 65 25 100 65 25 100 65 25 100 65 25 100 65 25 100 65 25 100 65 25 100 65 25 100 65 25 100 65 25 100 65 25 100 65 25 100 65 25 100 65 25 100 65 25 100 65 25 100 65 25 100 65 25 100 65 25 100 65 25 100 65 25 100 65 25 100 65 25 100 65 25 100 65 25 100 65 25 100 65 25 100 65 25 100 65 25 100 65 25 100 65 25 100 65 25 100 65 25 100 65 25 100 65 25 100 65 25 100 65 25 100 65 25 100 65 25 100 65 25 100 65 25 100 65 25 100 65 25 100 65 25 100 65 25 100 65 25 100 65 25 100 65 25 100 65 25 100 65 25 100 65 25 100 65 25 100 65 25 100 65 25 100 65 25 100 65 25 100 65 25 100 65 25 100 65 25 100 65 25 100 65 25 100 65 25 100 65 25 100 65 25 100 65 25 100 65 25 100 65 25 100 65 25 100 65 25 100 65 25 100 65 25 100 65 25 100 65 25 100 65 25 100 65 25 100 65 25 100 65 25 100 65 25 100 65 25 100 65 25 100 65 25 100 65 25 100 65 25 100 65 25 100 65 25 100 65 25 100 65 25 100 65 25 100 65 25 100 65 25 100 65 25 100 65 25 100 65 25 100 65 25 100 65 25 100 65 25 100 65 25 100 65 25 100 65 25 100 65 25 100 65 25 100 65 25 100 65 25 100 65 25 100 65 25 100 65 25 100 65 25 100 65 25 100 65 25 100 65 25 100 65 25 100 65 25 100 65 25 100 65 25 100 65 25 100 65 25 100 65 25 100 65 25 100 65 25 100 65 25 100 65 25 100 65 25 100 65 25 100 65 25 100 65 25 100 65 25 100 65 25 100 65 25 100 65 25 100 65 25 100 65 25 100 65 25 100 65 25 100 65 25 100 65 25 100 65 25 100 65 25 100 65 25 100 65 25 100 65 25 100 65 25 100 65 25 100 65 25 100 65 25 100 65 25 100 65 25 100 65 25 100 65 25 100 65 25 100 65 25 100 65 25 100 65 25 100 65 25 100 65 25 100 65 25 100 65 25 100 65 25 100 65 25 100 65 25 100 65 25 100 65 25 100 65 25 100 65 25 100 65 25 100 65 25 100 65 25 100 65 25 100 65 25 100 65 25 100 65 25 100 65 25 100 65 25 100 65 25 100 65 25 100 65 25 100 65 25 100 65 25 100 65 25 100 65 25 100 65 25 100 65 25 100 65 25 100 65 25 100 65 25 100 65 25 100 65 25 100 65 25 100 65 25 100 65 25 100 65 25 100 65 25 100 65 25 100 65 25 100 65 25 100 65 25 100 65 25 100 65 25 100 65 25 100 65 25 100 65 25 100 65 25 100 65 25 100 65 25 100 65 25 100 65 25 100 65 25 100 65 25 100 65 25 100 65 25 100 65 25 100 65 25 100 65 25 100 65 25 100 65 25 100 65 25 100 65 25 100 65 25 100 65 25 100 65 25 100 65 25 100 65 25 100 65 25 100 65 25 100 65 25 100 65 25 100 65 25 100 65 25 100 65 25 100 65 25 100 65 25 100 65 25 100 65 25 100 65 25 100 65
25 100 65 25 100 65 25 100 65 25 100 65 25 100 65 25 100 65 25 100 65 25 100 65 25 100 65 25 100 65 25 100 65 25 100 65 25 100 65 25 100 65 25 100 65 25 100 65 25 100 65 25 100 65 25 100 65 25 100 65 25 100 65 25 100 65 25 100 65 25 100 65 25 100 65 25 100 65 25 100 65 25 100 65 25 100 65 25 100 65 25 100 65 25 100 65 25 100 65 25 100 65 25 100 65 25 100 65 25 100 65 25 100 65 25 100 65 25 100 65 25 100 65 25 100 65 25 100 65 25 100 65 25 100 65 25 100 65 25 100 65 25 100 65 25 100 65 25 100 65 25 100 65 25 100 65 25 100 65 25 100 65 25 100 65 25 100 65 25 100 65 25 100 65 25 100 65 25 100 65 25 100 65 25 100 65 25 100 65 25 100 65 25 100 65 25 100 65 25 100 65 25 100 65 25 100 65 25 100 65 25 100 65 25 100 65 25 100 65 25 100 65 25 100 65 25 100 65 25 100 65 25 100 65 25 100 65 25 100 65 25 100 65 25 100 65 25 100 65 25 100 65 25 100 65 25 100 65 25 100 65 25 100 65 25 100 65 25 100 65 25 100 65 25 100 65 25 100 65 25 100 65 25 100 65 25 100 65 25 100 65 25 100 65 25 100 65 25 100 65 25 100 65 25 100 65 25 100 65 25 100 65 25 100 65 25 100 65 25 100 65 25 100 65 25 100 65 25 100 65 25 100 65 25 100 65 25 100 65 25 100 65 25 100 65 25 100 65 25 100 65 25 100 65 25 100 65 25 100 65 25 100 65 25 100 65 25 100 65 25 100 65 25 100 65 25 100 65 25 100 65 25 100 65 25 100 65 25 100 65 25 100 65 25 100 65 25 100 65 25 100 65 25 100 65 25 100 65 25 100 65 25 100 65 25 100 65 25 100 65 25 100 65 25 100 65 25 100 65 25 100 65 25 100 65 25 100 65 25 100 65 25 100 65 25 100 65 25 100 65 25 100 65 25 100 65 25 100 65 25 100 65 25 100 65 25 100 65 25 100 65 25 100 65 25 100 65 25 100 65 25 100 65 25 100 65 25 100 65 25 100 65 25 100 65 25 100 65 25 100 65 25 100 65 25 100 65 25 100 65 25 100 65 25 100 65 25 100 65 25 100 65 25 100 65 25 100 65 25 100 65 25 100 65 25 100 65 25 100 65 25 100 65 25 100 65 25 100 65 25 100 65 25 100 65 25 100 65 25 100 65 25 100 65 25 100 65 25 100 65 25 100 65 25 100 65 25 100 65 25 100 65 25 100 65 25 100 65 25 100 65 25 100 65 25 100 65 25 100 65 25 100 65 25 100 65 25 100 65 25 100 65 25 100 65 25 100 65 25 100 65 25 100 65 25 100 65 25 100 65 25 100 65 25 100 65 25 100 65 25 100 65 25 100 65 25 100 65 25 100 65 25 100 65 25 100 65 25 100 65 25 100 65 25 100 65 25 100 65 25 100 65 25 100 65 25 100 65 25 100 65 25 100 65 25 100 65 25 100 65 25 100 65 25 100 65 25 100 65 25 100 65 25 100 65 25 100 65 25 100 65 25 100 65 25 100 65 25 100 65 25 100 65 25 100 65 25 100 65 25 100 65 25 100 65 25 100 65 25 100 65 25 100 65 25 100 65 25 100 65 25 100 65 25 100 65 25 100 65 25 100 65 25 100 65 25 100 65 25 100 65 25 100 65 25 100 65 25 100 65 25 100 65 25 100 65 25 100 65 25 100 65 25 100 65 25 100 65 25 100 65 25 100 65 25 100 65 25 100 65 25 100 65 25 100 65 25 100 65 25 100 65 25 100 65 25 100 65 25 100 65 25 100 65 25 100 65 25 100 65 25 100 65 25 100 65 25 100 65 25 100 65 25 100 65 25 100 65 25 100 65 25 100 65 25 100 65 25 100 65 25 100 65 25 100 65 25 100 65 25 100 65 25 100 65 25 100 65 25 100 65 25 100 65 25 100 65 25 100 65 25 100 65 25 100 65 25 100 65 25 100 65 25 100 65 25 100 65 25 100 65 25 100 65 25 100 65 25 100 65 25 100 65 25 100 65 25 100 65 25 100 65 25 100 65 25 100 65 25 100 65 25 100 65 25 100 65 25 100 65
25 100 65 25 100 65 25 100 65 25 100 65 25 100 65 25 100 65 25 100 65 25 100 65 25 100 65 25 100 65 25 100 65 25 100 65 25 100 65 25 100 65 25 100 65 25 100 65 25 100 65 25 100 65 25 100 65 25 100 65 25 100 65 25 100 65 25 100 65 25 100 65 25 100 65 25 100 65 25 100 65 25 100 65 25 100 65 25 100 65 25 100 65 25 100 65 25 100 65 25 100 65 25 100 65 25 100 65 25 100 65 25 100 65 25 100 65 25 100 65 25 100 65 25 100 65 25 100 65 25 100 65 25 100 65 25 100 65 25 100 65 25 100 65 25 100 65 25 100 65 25 100 65 25 100 65 25 100 65 25 100 65 25 100 65 25 100 65 25 100 65 25 100 65 25 100 65 25 100 65 25 100 65 25 100 65 25 100 65 25 100 65 25 100 65 25 100 65 25 100 65 25 100 65 25 100 65 25 100 65 25 100 65 25 100 65 25 100 65 25 100 65 25 100 65 25 100 65 25 100 65 25 100 65 25 100 65 25 100 65 25 100 65 25 100 65 25 100 65 25 100 65 25 100 65 25 100 65 25 100 65 25 100 65 25 100 65 25 100 65 25 100 65 25 100 65 25 100 65 25 100 65 25 100 65 25 100 65 25 100 65 25 100 65 25 100 65 25 100 65 25 100 65 25 100 65 25 100 65 25 100 65 25 100 65 25 100 65 25 100 65 25 100 65 25 100 65 25 100 65 25 100 65 25 100 65 25 100 65 25 100 65 25 100 65 25 100 65 25 100 65 25 100 65 25 100 65 25 100 65 25 100 65 25 100 65 25 100 65 25 100 65 25 100 65 25 100 65 25 100 65 25 100 65 25 100 65 25 100 65 25 100 65 25 100 65 25 100 65 25 100 65 25 100 65 25 100 65 25 100 65 25 100 65 25 100 65 25 100 65 25 100 65 25 100 65 25 100 65 25 100 65 25 100 65 25 100 65 25 100 65 25 100 65 25 100 65 25 100 65 25 100 65 25 100 65 25 100 65 25 100 65 25 100 65 25 100 65 25 100 65 25 100 65 25 100 65 25 100 65 25 100 65 25 100 65 25 100 65 25 100 65 25 100 65 25 100 65 25 100 65 25 100 65 25 100 65 25 100 65 25 100 65 25 100 65 25 100 65 25 100 65 25 100 65 25 100 65 25 100 65 25 100 65 25 100 65 25 100 65 25 100 65 25 100 65 25 100 65 25 100 65 25 100 65 25 100 65 25 100 65 25 100 65 25 100 65 25 100 65 25 100 65 25 100 65 25 100 65 25 100 65 25 100 65 25 100 65 25 100 65 25 100 65 25 100 65 25 100 65 25 100 65 25 100 65 25 100 65 25 100 65 25 100 65 25 100 65 25 100 65 25 100 65 25 100 65 25 100 65 25 100 65 25 100 65 25 100 65 25 100 65 25 100 65 25 100 65 25 100 65 25 100 65 25 100 65 25 100 65 25 100 65 25 100 65 25 100 65 25 100 65 25 100 65 25 100 65 25 100 65 25 100 65 25 100 65 25 100 65 25 100 65 25 100 65 25 100 65 25 100 65 25 100 65 25 100 65 25 100 65 25 100 65 25 100 65 25 100 65 25 100 65 25 100 65 25 100 65 25 100 65 25 100 65 25 100 65 25 100 65 25 100 65 25 100 65 25 100 65 25 100 65 25 100 65 25 100 65 25 100 65 25 100 65 25 100 65 25 100 65 25 100 65 25 100 65 25 100 65 25 100 65 25 100 65 25 100 65 25 100 65 25 100 65 25 100 65 25 100 65 25 100 65 25 100 65 25 100 65 25 100 65 25 100 65 25 100 65 25 100 65 25 100 65 25 100 65 25 100 65 25 100 65 25 100 65 25 100 65 25 100 65 25 100 65 25 100 65 25 100 65 25 100 65 25 100 65 25 100 65 25 100 65 25 100 65 25 100 65 25 100 65 25 100 65 25 100 65 25 100 65 25 100 65 25 100 65 25 100 65 25 100 65 25 100 65 25 100 65 25 100 65 25 100 65 25 100 65 25 100 65 25 100 65 25 100 65 25 100 65 25 100 65 25 100 65 25 100 65 25 100 65 25 100 65 25 100 65 25 100 65 25 100 65 25 100 65 25 100 65 25 100 65 25 100 65 25 100 65
25 100 65 25 100 65 25 100 65 25 100 65 25 100 65 25 100 65 25 100 65 25 100 65 25 100 65 25 100 65 25 100 65 25 100 65 25 100 65 25 100 65 25 100 65 25 100 65 25 100 65 25 100 65 25 100 65 25 100 65 25 100 65 25 100 65 25 100 65 25 100 65 25 100 65 25 100 65 25 100 65 25 100 65 25 100 65 25 100 65 25 100 65 25 100 65 25 100 65 25 100 65 25 100 65 25 100 65 25 100 65 25 100 65 25 100 65 25 100 65 25 100 65 25 100 65 25 100 65 25 100 65 25 100 65 25 100 65 25 100 65 25 100 65 25 100 65 25 100 65 25 100 65 25 100 65 25 100 65 25 100 65 25 100 65 25 100 65 25 100 65 25 100 65 25 100 65 25 100 65 25 100 65 25 100 65 25 100 65 25 100 65 25 100 65 25 100 65 25 100 65 25 100 65 25 100 65 25 100 65 25 100 65 25 100 65 25 100 65 25 100 65 25 100 65 25 100 65 25 100 65 25 100 65 25 100 65 25 100 65 25 100 65 25 100 65 25 100 65 25 100 65 25 100 65 25 100 65 25 100 65 25 100 65 25 100 65 25 100 65 25 100 65 25 100 65 25 100 65 25 100 65 25 100 65 25 100 65 25 100 65 25 100 65 25 100 65 25 100 65 25 100 65 25 100 65 25 100 65 25 100 65 25 100 65 25 100 65 25 100 65 25 100 65 25 100 65 25 100 65 25 100 65 25 100 65 25 100 65 25 100 65 25 100 65 25 100 65 25 100 65 25 100 65 25 100 65 25 100 65 25 100 65 25 100 65 25 100 65 25 100 65 25 100 65 25 100 65 25 100 65 25 100 65 25 100 65 25 100 65 25 100 65 25 100 65 25 100 65 25 100 65 25 100 65 25 100 65 25 100 65 25 100 65 25 100 65 25 100 65 25 100 65 25 100 65 25 100 65 25 100 65 25 100 65 25 100 65 25 100 65 25 100 65 25 100 65 25 100 65 25 100 65 25 100 65 25 100 65 25 100 65 25 100 65 25 100 65 25 100 65 25 100 65 25 100 65 25 100 65 25 100 65 25 100 65 25 100 65 25 100 65 25 100 65 25 100 65 25 100 65 25 100 65 25 100 65 25 100 65 25 100 65 25 100 65 25 100 65 25 100 65 25 100 65 25 100 65 25 100 65 25 100 65 25 100 65 25 100 65 25 100 65 25 100 65 25 100 65 25 100 65 25 100 65 25 100 65 25 100 65 25 100 65 25 100 65 25 100 65 25 100 65 25 100 65 25 100 65 25 100 65 25 100 65 25 100 65 25 100 65 25 100 65 25 100 65 25 100 65 25 100 65 25 100 65 25 100 65 25 100 65 25 100 65 25 100 65 25 100 65 25 100 65 25 100 65 25 100 65 25 100 65 25 100 65 25 100 65 25 100 65 25 100 65 25 100 65 25 100 65 25 100 65 25 100 65 25 100 65 25 100 65 25 100 65 25 100 65 25 100 65 25 100 65 25 100 65 25 100 65 25 100 65 25 100 65 25 100 65 25 100 65 25 100 65 25 100 65 25 100 65 25 100 65 25 100 65 25 100 65 25 100 65 25 100 65 25 100 65 25 100 65 25 100 65 25 100 65 25 100 65 25 100 65 25 100 65 25 100 65 25 100 65 25 100 65 25 100 65 25 100 65 25 100 65 25 100 65 25 100 65 25 100 65 25 100 65 25 100 65 25 100 65 25 100 65 25 100 65 25 100 65 25 100 65 25 100 65 25 100 65 25 100 65 25 100 65 25 100 65 25 100 65 25 100 65 25 100 65 25 100 65 25 100 65 25 100 65 25 100 65 25 100 65 25 100 65 25 100 65 25 100 65 25 100 65 25 100 65 25 100 65 25 100 65 25 100 65 25 100 65 25 100 65 25 100 65 25 100 65 25 100 65 25 100 65 25 100 65 25 100 65 25 100 65 25 100 65 25 100 65 25 100 65 25 100 65 25 100 65 25 100 65 25 100 65 25 100 65 25 100 65 25 100 65 25 100 65 25 100 65 25 100 65 25 100 65 25 100 65 25 100 65 25 100 65 25 100 65 25 100 65 25 100 65 25 100 65 25 100 65 25 100 65 25 100 65 25 100 65 25 100 65 25 100 65 25 100 65
25 100 65 25 100 65 25 100 65 25 100 65 25 100 65 25 100 65 25 100 65 25 100 65 25 100 65 25 100 65 25 100 65 25 100 65 25 100 65 25 100 65 25 100 65 25 100 65 25 100 65 25 100 65 25 100 65 25 100 65 25 100 65 25 100 65 25 100 65 25 100 65 25 100 65 25 100 65 25 100 65 25 100 65 25 100 65 25 100 65 25 100 65 25 100 65 25 100 65 25 100 65 25 100 65 25 100 65 25 100 65 25 100 65 25 100 65 25 100 65 25 100 65 25 100 65 25 100 65 25 100 65 25 100 65 25 100 65 25 100 65 25 100 65 25 100 65 25 100 65 25 100 65 25 100 65 25 100 65 25 100 65 25 100 65 25 100 65 25 100 65 25 100 65 25 100 65 25 100 65 25 100 65 25 100 65 25 100 65 25 100 65 25 100 65 25 100 65 25 100 65 25 100 65 25 100 65 25 100 65 25 100 65 25 100 65 25 100 65 25 100 65 25 100 65 25 100 65 25 100 65 25 100 65 25 100 65 25 100 65 25 100 65 25 100 65 25 100 65 25 100 65 25 100 65 25 100 65 25 100 65 25 100 65 25 100 65 25 100 65 25 100 65 25 100 65 25 100 65 25 100 65 25 100 65 25 100 65 25 100 65 25 100 65 25 100 65 25 100 65 25 100 65 25 100 65 25 100 65 25 100 65 25 100 65 25 100 65 25 100 65 25 100 65 25 100 65 25 100 65 25 100 65 25 100 65 25 100 65 25 100 65 25 100 65 25 100 65 25 100 65 25 100 65 25 100 65 25 100 65 25 100 65 25 100 65 25 100 65 25 100 65 25 100 65 25 100 65 25 100 65 25 100 65 25 100 65 25 100 65 25 100 65 25 100 65 25 100 65 25 100 65 25 100 65 25 100 65 25 100 65 25 100 65 25 100 65 25 100 65 25 100 65 25 100 65 25 100 65 25 100 65 25 100 65 25 100 65 25 100 65 25 100 65 25 100 65 25 100 65 25 100 65 25 100 65 25 100 65 25 100 65 25 100 65 25 100 65 25 100 65 25 100 65 25 100 65 25 100 65 25 100 65 25 100 65 25 100 65 25 100 65 25 100 65 25 100 65 25 100 65 25 100 65 25 100 65 25 100 65 25 100 65 25 100 65 25 100 65 25 100 65 25 100 65 25 100 65 25 100 65 25 100 65 25 100 65 25 100 65 25 100 65 25 100 65 25 100 65 25 100 65 25 100 65 25 100 65 25 100 65 25 100 65 25 100 65 25 100 65 25 100 65 25 100 65 25 100 65 25 100 65 25 100 65 25 100 65 25 100 65 25 100 65 25 100 65 25 100 65 25 100 65 25 100 65 25 100 65 25 100 65 25 100 65 25 100 65 25 100 65 25 100 65 25 100 65 25 100 65 25 100 65 25 100 65 25 100 65 25 100 65 25 100 65 25 100 65 25 100 65 25 100 65 25 100 65 25 100 65 25 100 65 25 100 65 25 100 65 25 100 65 25 100 65 25 100 65 25 100 65 25 100 65 25 100 65 25 100 65 25 100 65 25 100 65 25 100 65 25 100 65 25 100 65 25 100 65 25 100 65 25 100 65 25 100 65 25 100 65 25 100 65 25 100 65 25 100 65 25 100 65 25 100 65 25 100 65 25 100 65 25 100 65 25 100 65 25 100 65 25 100 65 25 100 65 25 100 65 25 100 65 25 100 65 25 100 65 25 100 65 25 100 65 25 100 65 25 100 65 25 100 65 25 100 65 25 100 65 25 100 65 25 100 65 25 100 65 25 100 65 25 100 65 25 100 65 25 100 65 25 100 65 25 100 65 25 100 65 25 100 65 25 100 65 25 100 65 25 100 65 25 100 65 25 100 65 25 100 65 25 100 65 25 100 65 25 100 65 25 100 65 25 100 65 25 100 65 25 100 65 25 100 65 25 100 65 25 100 65 25 100 65 25 100 65 25 100 65 25 100 65 25 100 65 25 100 65 25 100 65 25 100 65 25 100 65 25 100 65 25 100 65 25 100 65 25 100 65 25 100 65 25 100 65 25 100 65 25 100 65 25 100 65 25 100 65 25 100 65 25 100 65 25 100 65 25 100 65 25 100 65 25 100 65 25 100 65 25 100 65 25 100 65 25 100 65 25 100 65
25 100 65 25 100 65 25 100 65 25 100 65 25 100 65 25 100 65 25 100 65 25 100 65 25 100 65 25 100 65 25 100 65 25 100 65 25 100 65 25 100 65 25 100 65 25 100 65 25 100 65 25 100 65 25 100 65 25 100 65 25 100 65 25 100 65 25 100 65 25 100 65 25 100 65 25 100 65 25 100 65 25 100 65 25 100 65 25 100 65 25 100 65 25 100 65 25 100 65 25 100 65 25 100 65 25 100 65 25 100 65 25 100 65 25 100 65 25 100 65 25 100 65 25 100 65 25 100 65 25 100 65 25 100 65 25 100 65 25 100 65 25 100 65 25 100 65 25 100 65 25 100 65 25 100 65 25 100 65 25 100 65 25 100 65 25 100 65 25 100 65 25 100 65 25 100 65 25 100 65 25 100 65 25 100 65 25 100 65 25 100 65 25 100 65 25 100 65 25 100 65 25 100 65 25 100 65 25 100 65 25 100 65 25 100 65 25 100 65 25 100 65 25 100 65 25 100 65 25 100 65 25 100 65 25 100 65 25 100 65 25 100 65 25 100 65 25 100 65 25 100 65 25 100 65 25 100 65 25 100 65 25 100 65 25 100 65 25 100 65 25 100 65 25 100 65 25 100 65 25 100 65 25 100 65 25 100 65 25 100 65 25 100 65 25 100 65 25 100 65 25 100 65 25 100 65 25 100 65 25 100 65 25 100 65 25 100 65 25 100 65 25 100 65 25 100 65 25 100 65 25 100 65 25 100 65 25 100 65 25 100 65 25 100 65 25 100 65 25 100 65 25 100 65 25 100 65 25 100 65 25 100 65 25 100 65 25 100 65 25 100 65 25 100 65 25 100 65 25 100 65 25 100 65 25 100 65 25 100 65 25 100 65 25 100 65 25 100 65 25 100 65 25 100 65 25 100 65 25 100 65 25 100 65 25 100 65 25 100 65 25 100 65 25 100 65 25 100 65 25 100 65 25 100 65 25 100 65 25 100 65 25 100 65 25 100 65 25 100 65 25 100 65 25 100 65 25 100 65 25 100 65 25 100 65 25 100 65 25 100 65 25 100 65 25 100 65 25 100 65 25 100 65 25 100 65 25 100 65 25 100 65 25 100 65 25 100 65 25 100 65 25 100 65 25 100 65 25 100 65 25 100 65 25 100 65 25 100 65 25 100 65 25 100 65 25 100 65 25 100 65 25 100 65 25 100 65 25 100 65 25 100 65 25 100 65 25 100 65 25 100 65 25 100 65 25 100 65 25 100 65 25 100 65 25 100 65 25 100 65 25 100 65 25 100 65 25 100 65 25 100 65 25 100 65 25 100 65 25 100 65 25 100 65 25 100 65 25 100 65 25 100 65 25 100 65 25 100 65 25 100 65 25 100 65 25 100 65 25 100 65 25 100 65 25 100 65 25 100 65 25 100 65 25 100 65 25 100 65 25 100 65 25 100 65 25 100 65 25 100 65 25 100 65 25 100 65 25 100 65 25 100 65 25 100 65 25 100 65 25 100 65 25 100 65 25 100 65 25 100 65 25 100 65 25 100 65 25 100 65 25 100 65 25 100 65 25 100 65 25 100 65 25 100 65 25 100 65 25 100 65 25 100 65 25 100 65 25 100 65 25 100 65 25 100 65 25 100 65 25 100 65 25 100 65 25 100 65 25 100 65 25 100 65 25 100 65 25 100 65 25 100 65 25 100 65 25 100 65 25 100 65 25 100 65 25 100 65 25 100 65 25 100 65 25 100 65 25 100 65 25 100 65 25 100 65 25 100 65 25 100 65 25 100 65 25 100 65 25 100 65 25 100 65 25 100 65 25 100 65 25 100 65 25 100 65 25 100 65 25 100 65 25 100 65 25 100 65 25 100 65 25 100 65 25 100 65 25 100 65 25 100 65 25 100 65 25 100 65 25 100 65 25 100 65 25 100 65 25 100 65 25 100 65 25 100 65 25 100 65 25 100 65 25 100 65 25 100 65 25 100 65 25 100 65 25 100 65 25 100 65 25 100 65 25 100 65 25 100 65 25 100 65 25 100 65 25 100 65 25 100 65 25 100 65 25 100 65 25 100 65 25 100 65 25 100 65 25 100 65 25 100 65 25 100 65 25 100 65 25 100 65 25 100 65 25 100 65 25 100 65 25 100 65 25 100 65 25 100 65
25 100 65 25 100 65 25 100 65 25 100 65 25 100 65 25 100 65 25 100 65 25 100 65 25 100 65 25 100 65 25 100 65 25 100 65 25 100 65 25 100 65 25 100 65 25 100 65 25 100 65 25 100 65 25 100 65 25 100 65 25 100 65 25 100 65 25 100 65 25 100 65 25 100 65 25 100 65 25 100 65 25 100 65 25 100 65 25 100 65 25 100 65 25 100 65 25 100 65 25 100 65 25 100 65 25 100 65 25 100 65 25 100 65 25 100 65 25 100 65 25 100 65 25 100 65 25 100 65 25 100 65 25 100 65 25 100 65 25 100 65 25 100 65 25 100 65 25 100 65 25 100 65 25 100 65 25 100 65 25 100 65 25 100 65 25 100 65 25 100 65 25 100 65 25 100 65 25 100 65 25 100 65 25 100 65 25 100 65 25 100 65 25 100 65 25 100 65 25 100 65 25 100 65 25 100 65 25 100 65 25 100 65 25 100 65 25 100 65 25 100 65 25 100 65 25 100 65 25 100 65 25 100 65 25 100 65 25 100 65 25 100 65 25 100 65 25 100 65 25 100 65 25 100 65 25 100 65 25 100 65 25 100 65 25 100 65 25 100 65 25 100 65 25 100 65 25 100 65 25 100 65 25 100 65 25 100 65 25 100 65 25 100 65 25 100 65 25 100 65 25 100 65 25 100 65 25 100 65 25 100 65 25 100 65 25 100 65 25 100 65 25 100 65 25 100 65 25 100 65 25 100 65 25 100 65 25 100 65 25 100 65 25 100 65 25 100 65 25 100 65 25 100 65 25 100 65 25 100 65 25 100 65 25 100 65 25 100 65 25 100 65 25 100 65 25 100 65 25 100 65 25 100 65 25 100 65 25 100 65 25 100 65 25 100 65 25 100 65 25 100 65 25 100 65 25 100 65 25 100 65 25 100 65 25 100 65 25 100 65 25 100 65 25 100 65 25 100 65 25 100 65 25 100 65 25 100 65 25 100 65 25 100 65 25 100 65 25 100 65 25 100 65 25 100 65 25 100 65 25 100 65 25 100 65 25 100 65 25 100 65 25 100 65 25 100 65 25 100 65 25 100 65 25 100 65 25 100 65 25 100 65 25 100 65 25 100 65 25 100 65 25 100 65 25 100 65 25 100 65 25 100 65 25 100 65 25 100 65 25 100 65 25 100 65 25 100 65 25 100 65 25 100 65 25 100 65 25 100 65 25 100 65 25 100 65 25 100 65 25 100 65 25 100 65 25 100 65 25 100 65 25 100 65 25 100 65 25 100 65 25 100 65 25 100 65 25 100 65 25 100 65 25 100 65 25 100 65 25 100 65 25 100 65 25 100 65 25 100 65 25 100 65 25 100 65 25 100 65 25 100 65 25 100 65 25 100 65 25 100 65 25 100 65 25 100 65 25 100 65 25 100 65 25 100 65 25 100 65 25 100 65 25 100 65 25 100 65 25 100 65 25 100 65 25 100 65 25 100 65 25 100 65 25 100 65 25 100 65 25 100 65 25 100 65 25 100 65 25 100 65 25 100 65 25 100 65 25 100 65 25 100 65 25 100 65 25 100 65 25 100 65 25 100 65 25 100 65 25 100 65 25 100 65 25 100 65 25 100 65 25 100 65 25 100 65 25 100 65 25 100 65 25 100 65 25 100 65 25 100 65 25 100 65 25 100 65 25 100 65 25 100 65 25 100 65 25 100 65 25 100 65 25 100 65 25 100 65 25 100 65 25 100 65 25 100 65 25 100 65 25 100 65 25 100 65 25 100 65 25 100 65 25 100 65 25 100 65 25 100 65 25 100 65 25 100 65 25 100 65 25 100 65 25 100 65 25 100 65 25 100 65 25 100 65 25 100 65 25 100 65 25 100 65 25 100 65 25 100 65 25 100 65 25 100 65 25 100 65 25 100 65 25 100 65 25 100 65 25 100 65 25 100 65 25 100 65 25 100 65 25 100 65 25 100 65 25 100 65 25 100 65 25 100 65 25 100 65 25 100 65 25 100 65 25 100 65 25 100 65 25 100 65 25 100 65 25 100 65 25 100 65 25 100 65 25 100 65 25 100 65 25 100 65 25 100 65 25 100 65 25 100 65 25 100 65 25 100 65 25 100 65 25 100 65 25 100 65 25 100 65 25 100 65 25 100 65 25 100 65
25 100 65 25 100 65 25 100 65 25 100 65 25 100 65 25 100 65 25 100 65 25 100 65 25 100 65 25 100 65 25 100 65 25 100 65 25 100 65 25 100 65 25 100 65 25 100 65 25 100 65 25 100 65 25 100 65 25 100 65 25 100 65 25 100 65 25 100 65 25 100 65 25 100 65 25 100 65 25 100 65 25 100 65 25 100 65 25 100 65 25 100 65 25 100 65 25 100 65 25 100 65 25 100 65 25 100 65 25 100 65 25 100 65 25 100 65 25 100 65 25 100 65 25 100 65 25 100 65 25 100 65 25 100 65 25 100 65 25 100 65 25 100 65 25 100 65 25 100 65 25 100 65 25 100 65 25 100 65 25 100 65 25 100 65 25 100 65 25 100 65 25 100 65 25 100 65 25 100 65 25 100 65 25 100 65 25 100 65 25 100 65 25 100 65 25 100 65 25 100 65 25 100 65 25 100 65 25 100 65 25 100 65 25 100 65 25 100 65 25 100 65 25 100 65 25 100 65 25 100 65 25 100 65 25 100 65 25 100 65 25 100 65 25 100 65 25 100 65 25 100 65 25 100 65 25 100 65 25 100 65 25 100 65 25 100 65 25 100 65 25 100 65 25 100 65 25 100 65 25 100 65 25 100 65 25 100 65 25 100 65 25 100 65 25 100 65 25 100 65 25 100 65 25 100 65 25 100 65 25 100 65 25 100 65 25 100 65 25 100 65 25 100 65 25 100 65 25 100 65 25 100 65 25 100 65 25 100 65 25 100 65 25 100 65 25 100 65 25 100 65 25 100 65 25 100 65 25 100 65 25 100 65 25 100 65 25 100 65 25 100 65 25 100 65 25 100 65 25 100 65 25 100 65 25 100 65 25 100 65 25 100 65 25 100 65 25 100 65 25 100 65 25 100 65 25 100 65 25 100 65 25 100 65 25 100 65 25 100 65 25 100 65 25 100 65 25 100 65 25 100 65 25 100 65 25 100 65 25 100 65 25 100 65 25 100 65 25 100 65 25 100 65 25 100 65 25 100 65 25 100 65 25 100 65 25 100 65 25 100 65 25 100 65 25 100 65 25 100 65 25 100 65 25 100 65 25 100 65 25 100 65 25 100 65 25 100 65 25 100 65 25 100 65 25 100 65 25 100 65 25 100 65 25 100 65 25 100 65 25 100 65 25 100 65 25 100 65 25 100 65 25 100 65 25 100 65 25 100 65 25 100 65 25 100 65 25 100 65 25 100 65 25 100 65 25 100 65 25 100 65 25 100 65 25 100 65 25 100 65 25 100 65 25 100 65 25 100 65 25 100 65 25 100 65 25 100 65 25 100 65 25 100 65 25 100 65 25 100 65 25 100 65 25 100 65 25 100 65 25 100 65 25 100 65 25 100 65 25 100 65 25 100 65 25 100 65 25 100 65 25 100 65 25 100 65 25 100 65 25 100 65 25 100 65 25 100 65 25 100 65 25 100 65 25 100 65 25 100 65 25 100 65 25 100 65 25 100 65 25 100 65 25 100 65 25 100 65 25 100 65 25 100 65 25 100 65 25 100 65 25 100 65 25 100 65 25 100 65 25 100 65 25 100 65 25 100 65 25 100 65 25 100 65 25 100 65 25 100 65 25 100 65 25 100 65 25 100 65 25 100 65 25 100 65 25 100 65 25 100 65 25 100 65 25 100 65 25 100 65 25 100 65 25 100 65 25 100 65 25 100 65 25 100 65 25 100 65 25 100 65 25 100 65 25 100 65 25 100 65 25 100 65 25 100 65 25 100 65 25 100 65 25 100 65 25 100 65 25 100 65 25 100 65 25 100 65 25 100 65 25 100 65 25 100 65 25 100 65 25 100 65 25 100 65 25 100 65 25 100 65 25 100 65 25 100 65 25 100 65 25 100 65 25 100 65 25 100 65 25 100 65 25 100 65 25 100 65 25 100 65 25 100 65 25 100 65 25 100 65 25 100 65 25 100 65 25 100 65 25 100 65 25 100 65 25 100 65 25 100 65 25 100 65 25 100 65 25 100 65 25 100 65 25 100 65 25 100 65 25 100 65 25 100 65 25 100 65 25 100 65 25 100 65 25 100 65 25 100 65 25 100 65 25 100 65 25 100 65 25 100 65 25 100 65 25 100 65 25 100 65 25 100 65 25 100 65 25 100 65
25 100 65 25 100 65 25 100 65 25 100 65 25 100 65 25 100 65 25 100 65 25 100 65 25 100 65 25 100 65 25 100 65 25 100 65 25 100 65 25 100 65 25 100 65 25 100 65 25 100 65 25 100 65 25 100 65 25 100 65 25 100 65 25 100 65 25 100 65 25 100 65 25 100 65 25 100 65 25 100 65 25 100 65 25 100 65 25 100 65 25 100 65 25 100 65 25 100 65 25 100 65 25 100 65 25 100 65 25 100 65 25 100 65 25 100 65 25 100 65 25 100 65 25 100 65 25 100 65 25 100 65 25 100 65 25 100 65 25 100 65 25 100 65 25 100 65 25 100 65 25 100 65 25 100 65 25 100 65 25 100 65 25 100 65 25 100 65 25 100 65 25 100 65 25 100 65 25 100 65 25 100 65 25 100 65 25 100 65 25 100 65 25 100 65 25 100 65 25 100 65 25 100 65 25 100 65 25 100 65 25 100 65 25 100 65 25 100 65 25 100 65 25 100 65 25 100 65 25 100 65 25 100 65 25 100 65 25 100 65 25 100 65 25 100 65 25 100 65 25 100 65 25 100 65 25 100 65 25 100 65 25 100 65 25 100 65 25 100 65 25 100 65 25 100 65 25 100 65 25 100 65 25 100 65 25 100 65 25 100 65 25 100 65 25 100 65 25 100 65 25 100 65 25 100 65 25 100 65 25 100 65 25 100 65 25 100 65 25 100 65 25 100 65 25 100 65 25 100 65 25 100 65 25 100 65 25 100 65 25 100 65 25 100 65 25 100 65 25 100 65 25 100 65 25 100 65 25 100 65 25 100 65 25 100 65 25 100 65 25 100 65 25 100 65 25 100 65 25 100 65 25 100 65 25 100 65 25 100 65 25 100 65 25 100 65 25 100 65 25 100 65 25 100 65 25 100 65 25 100 65 25 100 65 25 100 65 25 100 65 25 100 65 25 100 65 25 100 65 25 100 65 25 100 65 25 100 65 25 100 65 25 100 65 25 100 65 25 100 65 25 100 65 25 100 65 25 100 65 25 100 65 25 100 65 25 100 65 25 100 65 25 100 65 25 100 65 25 100 65 25 100 65 25 100 65 25 100 65 25 100 65 25 100 65 25 100 65 25 100 65 25 100 65 25 100 65 25 100 65 25 100 65 25 100 65 25 100 65 25 100 65 25 100 65 25 100 65 25 100 65 25 100 65 25 100 65 25 100 65 25 100 65 25 100 65 25 100 65 25 100 65 25 100 65 25 100 65 25 100 65 25 100 65 25 100 65 25 100 65 25 100 65 25 100 65 25 100 65 25 100 65 25 100 65 25 100 65 25 100 65 25 100 65 25 100 65 25 100 65 25 100 65 25 100 65 25 100 65 25 100 65 25 100 65 25 100 65 25 100 65 25 100 65 25 100 65 25 100 65 25 100 65 25 100 65 25 100 65 25 100 65 25 100 65 25 100 65 25 100 65 25 100 65 25 100 65 25 100 65 25 100 65 25 100 65 25 100 65 25 100 65 25 100 65 25 100 65 25 100 65 25 100 65 25 100 65 25 100 65 25 100 65 25 100 65 25 100 65 25 100 65 25 100 65 25 100 65 25 100 65 25 100 65 25 100 65 25 100 65 25 100 65 25 100 65 25 100 65 25 100 65 25 100 65 25 100 65 25 100 65 25 100 65 25 100 65 25 100 65 25 100 65 25 100 65 25 100 65 25 100 65 25 100 65 25 100 65 25 100 65 25 100 65 25 100 65 25 100 65 25 100 65 25 100 65 25 100 65 25 100 65 25 100 65 25 100 65 25 100 65 25 100 65 25 100 65 25 100 65 25 100 65 25 100 65 25 100 65 25 100 65 25 100 65 25 100 65 25 100 65 25 100 65 25 100 65 25 100 65 25 100 65 25 100 65 25 100 65 25 100 65 25 100 65 25 100 65 25 100 65 25 100 65 25 100 65 25 100 65 25 100 65 25 100 65 25 100 65 25 100 65 25 100 65 25 100 65 25 100 65 25 100 65 25 100 65 25 100 65 25 100 65 25 100 65 25 100 65 25 100 65 25 100 65 25 100 65 25 100 65 25 100 65 25 100 65 25 100 65 25 100 65 25 100 65 25 100 65 25 100 65 25 100 65 25 100 65 25 100 65 25 100 65 25 100 65 25 100 65
25 100 65 25 100 65 25 100 65 25 100 65 25 100 65 25 100 65 25 100 65 25 100 65 25 100 65 25 100 65 25 100 65 25 100 65 25 100 65 25 100 65 25 100 65 25 100 65 25 100 65 25 100 65 25 100 65 25 100 65 25 100 65 25 100 65 25 100 65 25 100 65 25 100 65 25 100 65 25 100 65 25 100 65 25 100 65 25 100 65 25 100 65 25 100 65 25 100 65 25 100 65 25 100 65 25 100 65 25 100 65 25 100 65 25 100 65 25 100 65 25 100 65 25 100 65 25 100 65 25 100 65 25 100 65 25 100 65 25 100 65 25 100 65 25 100 65 25 100 65 25 100 65 25 100 65 25 100 65 25 100 65 25 100 65 25 100 65 25 100 65 25 100 65 25 100 65 25 100 65 25 100 65 25 100 65 25 100 65 25 100 65 25 100 65 25 100 65 25 100 65 25 100 65 25 100 65 25 100 65 25 100 65 25 100 65 25 100 65 25 100 65 25 100 65 25 100 65 25 100 65 25 100 65 25 100 65 25 100 65 25 100 65 25 100 65 25 100 65 25 100 65 25 100 65 25 100 65 25 100 65 25 100 65 25 100 65 25 100 65 25 100 65 25 100 65 25 100 65 25 100 65 25 100 65 25 100 65 25 100 65 25 100 65 25 100 65 25 100 65 25 100 65 25 100 65 25 100 65 25 100 65 25 100 65 25 100 65 25 100 65 25 100 65 25 100 65 25 100 65 25 100 65 25 100 65 25 100 65 25 100 65 25 100 65 25 100 65 25 100 65 25 100 65 25 100 65 25 100 65 25 100 65 25 100 65 25 100 65 25 100 65 25 100 65 25 100 65 25 100 65 25 100 65 25 100 65 25 100 65 25 100 65 25 100 65 25 100 65 25 100 65 25 100 65 25 100 65 25 100 65 25 100 65 25 100 65 25 100 65 25 100 65 25 100 65 25 100 65 25 100 65 25 100 65 25 100 65 25 100 65 25 100 65 25 100 65 25 100 65 25 100 65 25 100 65 25 100 65 25 100 65 25 100 65 25 100 65 25 100 65 25 100 65 25 100 65 25 100 65 25 100 65 25 100 65 25 100 65 25 100 65 25 100 65 25 100 65 25 100 65 25 100 65 25 100 65 25 100 65 25 100 65 25 100 65 25 100 65 25 100 65 25 100 65 25 100 65 25 100 65 25 100 65 25 100 65 25 100 65 25 100 65 25 100 65 25 100 65 25 100 65 25 100 65 25 100 65 25 100 65 25 100 65 25 100 65 25 100 65 25 100 65 25 100 65 25 100 65 25 100 65 25 100 65 25 100 65 25 100 65 25 100 65 25 100 65 25 100 65 25 100 65 25 100 65 25 100 65 25 100 65 25 100 65 25 100 65 25 100 65 25 100 65 25 100 65 25 100 65 25 100 65 25 100 65 25 100 65 25 100 65 25 100 65 25 100 65 25 100 65 25 100 65 25 100 65 25 100 65 25 100 65 25 100 65 25 100 65 25 100 65 25 100 65 25 100 65 25 100 65 25 100 65 25 100 65 25 100 65 25 100 65 25 100 65 25 100 65 25 100 65 25 100 65 25 100 65 25 100 65 25 100 65 25 100 65 25 100 65 25 100 65 25 100 65 25 100 65 25 100 65 25 100 65 25 100 65 25 100 65 25 100 65 25 100 65 25 100 65 25 100 65 25 100 65 25 100 65 25 100 65 25 100 65 25 100 65 25 100 65 25 100 65 25 100 65 25 100 65 25 100 65 25 100 65 25 100 65 25 100 65 25 100 65 25 100 65 25 100 65 25 100 65 25 100 65 25 100 65 25 100 65 25 100 65 25 100 65 25 100 65 25 100 65 25 100 65 25 100 65 25 100 65 25 100 65 25 100 65 25 100 65 25 100 65 25 100 65 25 100 65 25 100 65 25 100 65 25 100 65 25 100 65 25 100 65 25 100 65 25 100 65 25 100 65 25 100 65 25 100 65 25 100 65 25 100 65 25 100 65 25 100 65 25 100 65 25 100 65 25 100 65 25 100 65 25 100 65 25 100 65 25 100 65 25 100 65 25 100 65 25 100 65 25 100 65 25 100 65 25 100 65 25 100 65 25 100 65 25 100 65 25 100 65 25 100 65 25 100 65 25 100 65 25 100 65 25 100 65
25 100 65 25 100 65 25 100 65 25 100 65 25 100 65 25 100 65 25 100 65 25 100 65 25 100 65 25 100 65 25 100 65 25 100 65 25 100 65 25 100 65 25 100 65 25 100 65 25 100 65 25 100 65 25 100 65 25 100 65 25 100 65 25 100 65 25 100 65 25 100 65 25 100 65 25 100 65 25 100 65 25 100 65 25 100 65 25 100 65 25 100 65 25 100 65 25 100 65 25 100 65 25 100 65 25 100 65 25 100 65 25 100 65 25 100 65 25 100 65 25 100 65 25 100 65 25 100 65 25 100 65 25 100 65 25 100 65 25 100 65 25 100 65 25 100 65 25 100 65 25 100 65 25 100 65 25 100 65 25 100 65 25 100 65 25 100 65 25 100 65 25 100 65 25 100 65 25 100 65 25 100 65 25 100 65 25 100 65 25 100 65 25 100 65 25 100 65 25 100 65 25 100 65 25 100 65 25 100 65 25 100 65 25 100 65 25 100 65 25 100 65 25 100 65 25 100 65 25 100 65 25 100 65 25 100 65 25 100 65 25 100 65 25 100 65 25 100 65 25 100 65 25 100 65 25 100 65 25 100 65 25 100 65 25 100 65 25 100 65 25 100 65 25 100 65 25 100 65 25 100 65 25 100 65 25 100 65 25 100 65 25 100 65 25 100 65 25 100 65 25 100 65 25 100 65 25 100 65 25 100 65 25 100 65 25 100 65 25 100 65 25 100 65 25 100 65 25 100 65 25 100 65 25 100 65 25 100 65 25 100 65 25 100 65 25 100 65 25 100 65 25 100 65 25 100 65 25 100 65 25 100 65 25 100 65 25 100 65 25 100 65 25 100 65 25 100 65 25 100 65 25 100 65 25 100 65 25 100 65 25 100 65 25 100 65 25 100 65 25 100 65 25 100 65 25 100 65 25 100 65 25 100 65 25 100 65 25 100 65 25 100 65 25 100 65 25 100 65 25 100 65 25 100 65 25 100 65 25 100 65 25 100 65 25 100 65 25 100 65 25 100 65 25 100 65 25 100 65 25 100 65 25 100 65 25 100 65 25 100 65 25 100 65 25 100 65 25 100 65 25 100 65 25 100 65 25 100 65 25 100 65 25 100 65 25 100 65 25 100 65 25 100 65 25 100 65 25 100 65 25 100 65 25 100 65 25 100 65 25 100 65 25 100 65 25 100 65 25 100 65 25 100 65 25 100 65 25 100 65 25 100 65 25 100 65 25 100 65 25 100 65 25 100 65 25 100 65 25 100 65 25 100 65 25 100 65 25 100 65 25 100 65 25 100 65 25 100 65 25 100 65 25 100 65 25 100 65 25 100 65 25 100 65 25 100 65 25 100 65 25 100 65 25 100 65 25 100 65 25 100 65 25 100 65 25 100 65 25 100 65 25 100 65 25 100 65 25 100 65 25 100 65 25 100 65 25 100 65 25 100 65 25 100 65 25 100 65 25 100 65 25 100 65 25 100 65 25 100 65 25 100 65 25 100 65 25 100 65 25 100 65 25 100 65 25 100 65 25 100 65 25 100 65 25 100 65 25 100 65 25 100 65 25 100 65 25 100 65 25 100 65 25 100 65 25 100 65 25 100 65 25 100 65 25 100 65 25 100 65 25 100 65 25 100 65 25 100 65 25 100 65 25 100 65 25 100 65 25 100 65 25 100 65 25 100 65 25 100 65 25 100 65 25 100 65 25 100 65 25 100 65 25 100 65 25 100 65 25 100 65 25 100 65 25 100 65 25 100 65 25 100 65 25 100 65 25 100 65 25 100 65 25 100 65 25 100 65 25 100 65 25 100 65 25 100 65 25 100 65 25 100 65 25 100 65 25 100 65 25 100 65 25 100 65 25 100 65 25 100 65 25 100 65 25 100 65 25 100 65 25 100 65 25 100 65 25 100 65 25 100 65 25 100 65 25 100 65 25 100 65 25 100 65 25 100 65 25 100 65 25 100 65 25 100 65 25 100 65 25 100 65 25 100 65 25 100 65 25 100 65 25 100 65 25 100 65 25 100 65 25 100 65 25 100 65 25 100 65 25 100 65 25 100 65 25 100 65 25 100 65 25 100 65 25 100 65 25 100 65 25 100 65 25 100 65 25 100 65 25 100 65 25 100 65 25 100 65 25 100 65 25 100 65 25 100 65 25 100 65
25 100 65 25 100 65 25 100 65 25 100 65 25 100 65 25 100 65 25 100 65 25 100 65 25 100 65 25 100 65 25 100 65 25 100 65 25 100 65 25 100 65 25 100 65 25 100 65 25 100 65 25 100 65 25 100 65 25 100 65 25 100 65 25 100 65 25 100 65 25 100 65 25 100 65 25 100 65 25 100 65 25 100 65 25 100 65 25 100 65 25 100 65 25 100 65 25 100 65 25 100 65 25 100 65 25 100 65 25 100 65 25 100 65 25 100 65 25 100 65 25 100 65 25 100 65 25 100 65 25 100 65 25 100 65 25 100 65 25 100 65 25 100 65 25 100 65 25 100 65 25 100 65 25 100 65 25 100 65 25 100 65 25 100 65 25 100 65 25 100 65 25 100 65 25 100 65 25 100 65 25 100 65 25 100 65 25 100 65 25 100 65 25 100 65 25 100 65 25 100 65 25 100 65 25 100 65 25 100 65 25 100 65 25 100 65 25 100 65 25 100 65 25 100 65 25 100 65 25 100 65 25 100 65 25 100 65 25 100 65 25 100 65 25 100 65 25 100 65 25 100 65 25 100 65 25 100 65 25 100 65 25 100 65 25 100 65 25 100 65 25 100 65 25 100 65 25 100 65 25 100 65 25 100 65 25 100 65 25 100 65 25 100 65 25 100 65 25 100 65 25 100 65 25 100 65 25 100 65 25 100 65 25 100 65 25 100 65 25 100 65 25 100 65 25 100 65 25 100 65 25 100 65 25 100 65 25 100 65 25 100 65 25 100 65 25 100 65 25 100 65 25 100 65 25 100 65 25 100 65 25 100 65 25 100 65 25 100 65 25 100 65 25 100 65 25 100 65 25 100 65 25 100 65 25 100 65 25 100 65 25 100 65 25 100 65 25 100 65 25 100 65 25 100 65 25 100 65 25 100 65 25 100 65 25 100 65 25 100 65 25 100 65 25 100 65 25 100 65 25 100 65 25 100 65 25 100 65 25 100 65 25 100 65 25 100 65 25 100 65 25 100 65 25 100 65 25 100 65 25 100 65 25 100 65 25 100 65 25 100 65 25 100 65 25 100 65 25 100 65 25 100 65 25 100 65 25 100 65 25 100 65 25 100 65 25 100 65 25 100 65 25 100 65 25 100 65 25 100 65 25 100 65 25 100 65 25 100 65 25 100 65 25 100 65 25 100 65 25 100 65 25 100 65 25 100 65 25 100 65 25 100 65 25 100 65 25 100 65 25 100 65 25 100 65 25 100 65 25 100 65 25 100 65 25 100 65 25 100 65 25 100 65 25 100 65 25 100 65 25 100 65 25 100 65 25 100 65 25 100 65 25 100 65 25 100 65 25 100 65 25 100 65 25 100 65 25 100 65 25 100 65 25 100 65 25 100 65 25 100 65 25 100 65 25 100 65 25 100 65 25 100 65 25 100 65 25 100 65 25 100 65 25 100 65 25 100 65 25 100 65 25 100 65 25 100 65 25 100 65 25 100 65 25 100 65 25 100 65 25 100 65 25 100 65 25 100 65 25 100 65 25 100 65 25 100 65 25 100 65 25 100 65 25 100 65 25 100 65 25 100 65 25 100 65 25 100 65 25 100 65 25 100 65 25 100 65 25 100 65 25 100 65 25 100 65 25 100 65 25 100 65 25 100 65 25 100 65 25 100 65 25 100 65 25 100 65 25 100 65 25 100 65 25 100 65 25 100 65 25 100 65 25 100 65 25 100 65 25 100 65 25 100 65 25 100 65 25 100 65 25 100 65 25 100 65 25 100 65 25 100 65 25 100 65 25 100 65 25 100 65 25 100 65 25 100 65 25 100 65 25 100 65 25 100 65 25 100 65 25 100 65 25 100 65 25 100 65 25 100 65 25 100 65 25 100 65 25 100 65 25 100 65 25 100 65 25 100 65 25 100 65 25 100 65 25 100 65 25 100 65 25 100 65 25 100 65 25 100 65 25 100 65 25 100 65 25 100 65 25 100 65 25 100 65 25 100 65 25 100 65 25 100 65 25 100 65 25 100 65 25 100 65 25 100 65 25 100 65 25 100 65 25 100 65 25 100 65 25 100 65 25 100 65 25 100 65 25 100 65 25 100 65 25 100 65 25 100 65 25 100 65 25 100 65 25 100 65 25 100 65 25 100 65 25 100 65 25 100 65
25 100 65 25 100 65 25 100 65 25 100 65 25 100 65 25 100 65 25 100 65 25 100 65 25 100 65 25 100 65 25 100 65 25 100 65 25 100 65 25 100 65 25 100 65 25 100 65 25 100 65 25 100 65 25 100 65 25 100 65 25 100 65 25 100 65 25 100 65 25 100 65 25 100 65 25 100 65 25 100 65 25 100 65 25 100 65 25 100 65 25 100 65 25 100 65 25 100 65 25 100 65 25 100 65 25 100 65 25 100 65 25 100 65 25 100 65 25 100 65 25 100 65 25 100 65 25 100 65 25 100 65 25 100 65 25 100 65 25 100 65 25 100 65 25 100 65 25 100 65 25 100 65 25 100 65 25 100 65 25 100 65 25 100 65 25 100 65 25 100 65 25 100 65 25 100 65 25 100 65 25 100 65 25 100 65 25 100 65 25 100 65 25 100 65 25 100 65 25 100 65 25 100 65 25 100 65 25 100 65 25 100 65 25 100 65 25 100 65 25 100 65 25 100 65 25 100 65 25 100 65 25 100 65 25 100 65 25 100 65 25 100 65 25 100 65 25 100 65 25 100 65 25 100 65 25 100 65 25 100 65 25 100 65 25 100 65 25 100 65 25 100 65 25 100 65 25 100 65 25 100 65 25 100 65 25 100 65 25 100 65 25 100 65 25 100 65 25 100 65 25 100 65 25 100 65 25 100 65 25 100 65 25 100 65 25 100 65 25 100 65 25 100 65 25 100 65 25 100 65 25 100 65 25 100 65 25 100 65 25 100 65 25 100 65 25 100 65 25 100 65 25 100 65 25 100 65 25 100 65 25 100 65 25 100 65 25 100 65 25 100 65 25 100 65 25 100 65 25 100 65 25 100 65 25 100 65 25 100 65 25 100 65 25 100 65 25 100 65 25 100 65 25 100 65 25 100 65 25 100 65 25 100 65 25 100 65 25 100 65 25 100 65 25 100 65 25 100 65 25 100 65 25 100 65 25 100 65 25 100 65 25 100 65 25 100 65 25 100 65 25 100 65 25 100 65 25 100 65 25 100 65 25 100 65 25 100 65 25 100 65 25 100 65 25 100 65 25 100 65 25 100 65 25 100 65 25 100 65 25 100 65 25 100 65 25 100 65 25 100 65 25 100 65 25 100 65 25 100 65 25 100 65 25 100 65 25 100 65 25 100 65 25 100 65 25 100 65 25 100 65 25 100 65 25 100 65 25 100 65 25 100 65 25 100 65 25 100 65 25 100 65 25 100 65 25 100 65 25 100 65 25 100 65 25 100 65 25 100 65 25 100 65 25 100 65 25 100 65 25 100 65 25 100 65 25 100 65 25 100 65 25 100 65 25 100 65 25 100 65 25 100 65 25 100 65 25 100 65 25 100 65 25 100 65 25 100 65 25 100 65 25 100 65 25 100 65 25 100 65 25 100 65 25 100 65 25 100 65 25 100 65 25 100 65 25 100 65 25 100 65 25 100 65 25 100 65 25 100 65 25 100 65 25 100 65 25 100 65 25 100 65 25 100 65 25 100 65 25 100 65 25 100 65 25 100 65 25 100 65 25 100 65 25 100 65 25 100 65 25 100 65 25 100 65 25 100 65 25 100 65 25 100 65 25 100 65 25 100 65 25 100 65 25 100 65 25 100 65 25 100 65 25 100 65 25 100 65 25 100 65 25 100 65 25 100 65 25 100 65 25 100 65 25 100 65 25 100 65 25 100 65 25 100 65 25 100 65 25 100 65 25 100 65 25 100 65 25 100 65 25 100 65 25 100 65 25 100 65 25 100 65 25 100 65 25 100 65 25 100 65 25 100 65 25 100 65 25 100 65 25 100 65 25 100 65 25 100 65 25 100 65 25 100 65 25 100 65 25 100 65 25 100 65 25 100 65 25 100 65 25 100 65 25 100 65 25 100 65 25 100 65 25 100 65 25 100 65 25 100 65 25 100 65 25 100 65 25 100 65 25 100 65 25 100 65 25 100 65 25 100 65 25 100 65 25 100 65 25 100 65 25 100 65 25 100 65 25 100 65 25 100 65 25 100 65 25 100 65 25 100 65 25 100 65 25 100 65 25 100 65 25 100 65 25 100 65 25 100 65 25 100 65 25 100 65 25 100 65 25 100 65 25 100 65 25 100 65 25 100 65 25 100 65 25 100 65 25 100 65
25 100 65 25 100 65 25 100 65 25 100 65 25 100 65 25 100 65 25 100 65 25 100 65 25 100 65 25 100 65 25 100 65 25 100 65 25 100 65 25 100 65 25 100 65 25 100 65 25 100 65 25 100 65 25 100 65 25 100 65 25 100 65 25 100 65 25 100 65 25 100 65 25 100 65 25 100 65 25 100 65 25 100 65 25 100 65 25 100 65 25 100 65 25 100 65 25 100 65 25 100 65 25 100 65 25 100 65 25 100 65 25 100 65 25 100 65 25 100 65 25 100 65 25 100 65 25 100 65 25 100 65 25 100 65 25 100 65 25 100 65 25 100 65 25 100 65 25 100 65 25 100 65 25 100 65 25 100 65 25 100 65 25 100 65 25 100 65 25 100 65 25 100 65 25 100 65 25 100 65 25 100 65 25 100 65 25 100 65 25 100 65 25 100 65 25 100 65 25 100 65 25 100 65 25 100 65 25 100 65 25 100 65 25 100 65 25 100 65 25 100 65 25 100 65 25 100 65 25 100 65 25 100 65 25 100 65 25 100 65 25 100 65 25 100 65 25 100 65 25 100 65 25 100 65 25 100 65 25 100 65 25 100 65 25 100 65 25 100 65 25 100 65 25 100 65 25 100 65 25 100 65 25 100 65 25 100 65 25 100 65 25 100 65 25 100 65 25 100 65 25 100 65 25 100 65 25 100 65 25 100 65 25 100 65 25 100 65 25 100 65 25 100 65 25 100 65 25 100 65 25 100 65 25 100 65 25 100 65 25 100 65 25 100 65 25 100 65 25 100 65 25 100 65 25 100 65 25 100 65 25 100 65 25 100 65 25 100 65 25 100 65 25 100 65 25 100 65 25 100 65 25 100 65 25 100 65 25 100 65 25 100 65 25 100 65 25 100 65 25 100 65 25 100 65 25 100 65 25 100 65 25 100 65 25 100 65 25 100 65 25 100 65 25 100 65 25 100 65 25 100 65 25 100 65 25 100 65 25 100 65 25 100 65 25 100 65 25 100 65 25 100 65 25 100 65 25 100 65 25 100 65 25 100 65 25 100 65 25 100 65 25 100 65 25 100 65 25 100 65 25 100 65 25 100 65 25 100 65 25 100 65 25 100 65 25 100 65 25 100 65 25 100 65 25 100 65 25 100 65 25 100 65 25 100 65 25 100 65 25 100 65 25 100 65 25 100 65 25 100 65 25 100 65 25 100 65 25 100 65 25 100 65 25 100 65 25 100 65 25 100 65 25 100 65 25 100 65 25 100 65 25 100 65 25 100 65 25 100 65 25 100 65 25 100 65 25 100 65 25 100 65 25 100 65 25 100 65 25 100 65 25 100 65 25 100 65 25 100 65 25 100 65 25 100 65 25 100 65 25 100 65 25 100 65 25 100 65 25 100 65 25 100 65 25 100 65 25 100 65 25 100 65 25 100 65 25 100 65 25 100 65 25 100 65 25 100 65 25 100 65 25 100 65 25 100 65 25 100 65 25 100 65 25 100 65 25 100 65 25 100 65 25 100 65 25 100 65 25 100 65 25 100 65 25 100 65 25 100 65 25 100 65 25 100 65 25 100 65 25 100 65 25 100 65 25 100 65 25 100 65 25 100 65 25 100 65 25 100 65 25 100 65 25 100 65 25 100 65 25 100 65 25 100 65 25 100 65 25 100 65 25 100 65 25 100 65 25 100 65 25 100 65 25 100 65 25 100 65 25 100 65 25 100 65 25 100 65 25 100 65 25 100 65 25 100 65 25 100 65 25 100 65 25 100 65 25 100 65 25 100 65 25 100 65 25 100 65 25 100 65 25 100 65 25 100 65 25 100 65 25 100 65 25 100 65 25 100 65 25 100 65 25 100 65 25 100 65 25 100 65 25 100 65 25 100 65 25 100 65 25 100 65 25 100 65 25 100 65 25 100 65 25 100 65 25 100 65 25 100 65 25 100 65 25 100 65 25 100 65 25 100 65 25 100 65 25 100 65 25 100 65 25 100 65 25 100 65 25 100 65 25 100 65 25 100 65 25 100 65 25 100 65 25 100 65 25 100 65 25 100 65 25 100 65 25 100 65 25 100 65 25 100 65 25 100 65 25 100 65 25 100 65 25 100 65 25 100 65 25 100 65 25 100 65 25 100 65 25 100 65 25 100 65 25 100 65 25 100 65
25 100 65 25 100 65 25 100 65 25 100 65 25 100 65 25 100 65 25 100 65 25 100 65 25 100 65 25 100 65 25 100 65 25 100 65 25 100 65 25 100 65 25 100 65 25 100 65 25 100 65 25 100 65 25 100 65 25 100 65 25 100 65 25 100 65 25 100 65 25 100 65 25 100 65 25 100 65 25 100 65 25 100 65 25 100 65 25 100 65 25 100 65 25 100 65 25 100 65 25 100 65 25 100 65 25 100 65 25 100 65 25 100 65 25 100 65 25 100 65 25 100 65 25 100 65 25 100 65 25 100 65 25 100 65 25 100 65 25 100 65 25 100 65 25 100 65 25 100 65 25 100 65 25 100 65 25 100 65 25 100 65 25 100 65 25 100 65 25 100 65 25 100 65 25 100 65 25 100 65 25 100 65 25 100 65 25 100 65 25 100 65 25 100 65 25 100 65 25 100 65 25 100 65 25 100 65 25 100 65 25 100 65 25 100 65 25 100 65 25 100 65 25 100 65 25 100 65 25 100 65 25 100 65 25 100 65 25 100 65 25 100 65 25 100 65 25 100 65 25 100 65 25 100 65 25 100 65 25 100 65 25 100 65 25 100 65 25 100 65 25 100 65 25 100 65 25 100 65 25 100 65 25 100 65 25 100 65 25 100 65 25 100 65 25 100 65 25 100 65 25 100 65 25 100 65 25 100 65 25 100 65 25 100 65 25 100 65 25 100 65 25 100 65 25 100 65 25 100 65 25 100 65 25 100 65 25 100 65 25 100 65 25 100 65 25 100 65 25 100 65 25 100 65 25 100 65 25 100 65 25 100 65 25 100 65 25 100 65 25 100 65 25 100 65 25 100 65 25 100 65 25 100 65 25 100 65 25 100 65 25 100 65 25 100 65 25 100 65 25 100 65 25 100 65 25 100 65 25 100 65 25 100 65 25 100 65 25 100 65 25 100 65 25 100 65 25 100 65 25 100 65 25 100 65 25 100 65 25 100 65 25 100 65 25 100 65 25 100 65 25 100 65 25 100 65 25 100 65 25 100 65 25 100 65 25 100 65 25 100 65 25 100 65 25 100 65 25 100 65 25 100 65 25 100 65 25 100 65 25 100 65 25 100 65 25 100 65 25 100 65 25 100 65 25 100 65 25 100 65 25 100 65 25 100 65 25 100 65 25 100 65 25 100 65 25 100 65 25 100 65 25 100 65 25 100 65 25 100 65 25 100 65 25 100 65 25 100 65 25 100 65 25 100 65 25 100 65 25 100 65 25 100 65 25 100 65 25 100 65 25 100 65 25 100 65 25 100 65 25 100 65 25 100 65 25 100 65 25 100 65 25 100 65 25 100 65 25 100 65 25 100 65 25 100 65 25 100 65 25 100 65 25 100 65 25 100 65 25 100 65 25 100 65 25 100 65 25 100 65 25 100 65 25 100 65 25 100 65 25 100 65 25 100 65 25 100 65 25 100 65 25 100 65 25 100 65 25 100 65 25 100 65 25 100 65 25 100 65 25 100 65 25 100 65 25 100 65 25 100 65 25 100 65 25 100 65 25 100 65 25 100 65 25 100 65 25 100 65 25 100 65 25 100 65 25 100 65 25 100 65 25 100 65 25 100 65 25 100 65 25 100 65 25 100 65 25 100 65 25 100 65 25 100 65 25 100 65 25 100 65 25 100 65 25 100 65 25 100 65 25 100 65 25 100 65 25 100 65 25 100 65 25 100 65 25 100 65 25 100 65 25 100 65 25 100 65 25 100 65 25 100 65 25 100 65 25 100 65 25 100 65 25 100 65 25 100 65 25 100 65 25 100 65 25 100 65 25 100 65 25 100 65 25 100 65 25 100 65 25 100 65 25 100 65 25 100 65 25 100 65 25 100 65 25 100 65 25 100 65 25 100 65 25 100 65 25 100 65 25 100 65 25 100 65 25 100 65 25 100 65 25 100 65 25 100 65 25 100 65 25 100 65 25 100 65 25 100 65 25 100 65 25 100 65 25 100 65 25 100 65 25 100 65 25 100 65 25 100 65 25 100 65 25 100 65 25 100 65 25 100 65 25 100 65 25 100 65 25 100 65 25 100 65 25 100 65 25 100 65 25 100 65 25 100 65 25 100 65 25 100 65 25 100 65 25 100 65 25 100 65 25 100 65 25 100 65 25 100 65
25 100 65 25 100 65 25 100 65 25 100 65 25 100 65 25 100 65 25 100 65 25 100 65 25 100 65 25 100 65 25 100 65 25 100 65 25 100 65 25 100 65 25 100 65 25 100 65 25 100 65 25 100 65 25 100 65 25 100 65 25 100 65 25 100 65 25 100 65 25 100 65 25 100 65 25 100 65 25 100 65 25 100 65 25 100 65 25 100 65 25 100 65 25 100 65 25 100 65 25 100 65 25 100 65 25 100 65 25 100 65 25 100 65 25 100 65 25 100 65 25 100 65 25 100 65 25 100 65 25 100 65 25 100 65 25 100 65 25 100 65 25 100 65 25 100 65 25 100 65 25 100 65 25 100 65 25 100 65 25 100 65 25 100 65 25 100 65 25 100 65 25 100 65 25 100 65 25 100 65 25 100 65 25 100 65 25 100 65 25 100 65 25 100 65 25 100 65 25 100 65 25 100 65 25 100 65 25 100 65 25 100 65 25 100 65 25 100 65 25 100 65 25 100 65 25 100 65 25 100 65 25 100 65 25 100 65 25 100 65 25 100 65 25 100 65 25 100 65 25 100 65 25 100 65 25 100 65 25 100 65 25 100 65 25 100 65 25 100 65 25 100 65 25 100 65 25 100 65 25 100 65 25 100 65 25 100 65 25 100 65 25 100 65 25 100 65 25 100 65 25 100 65 25 100 65 25 100 65 25 100 65 25 100 65 25 100 65 25 100 65 25 100 65 25 100 65 25 100 65 25 100 65 25 100 65 25 100 65 25 100 65 25 100 65 25 100 65 25 100 65 25 100 65 25 100 65 25 100 65 25 100 65 25 100 65 25 100 65 25 100 65 25 100 65 25 100 65 25 100 65 25 100 65 25 100 65 25 100 65 25 100 65 25 100 65 25 100 65 25 100 65 25 100 65 25 100 65 25 100 65 25 100 65 25 100 65 25 100 65 25 100 65 25 100 65 25 100 65 25 100 65 25 100 65 25 100 65 25 100 65 25 100 65 25 100 65 25 100 65 25 100 65 25 100 65 25 100 65 25 100 65 25 100 65 25 100 65 25 100 65 25 100 65 25 100 65 25 100 65 25 100 65 25 100 65 25 100 65 25 100 65 25 100 65 25 100 65 25 100 65 25 100 65 25 100 65 25 100 65 25 100 65 25 100 65 25 100 65 25 100 65 25 100 65 25 100 65 25 100 65 25 100 65 25 100 65 25 100 65 25 100 65 25 100 65 25 100 65 25 100 65 25 100 65 25 100 65 25 100 65 25 100 65 25 100 65 25 100 65 25 100 65 25 100 65 25 100 65 25 100 65 25 100 65 25 100 65 25 100 65 25 100 65 25 100 65 25 100 65 25 100 65 25 100 65 25 100 65 25 100 65 25 100 65 25 100 65 25 100 65 25 100 65 25 100 65 25 100 65 25 100 65 25 100 65 25 100 65 25 100 65 25 100 65 25 100 65 25 100 65 25 100 65 25 100 65 25 100 65 25 100 65 25 100 65 25 100 65 25 100 65 25 100 65 25 100 65 25 100 65 25 100 65 25 100 65 25 100 65 25 100 65 25 100 65 25 100 65 25 100 65 25 100 65 25 100 65 25 100 65 25 100 65 25 100 65 25 100 65 25 100 65 25 100 65 25 100 65 25 100 65 25 100 65 25 100 65 25 100 65 25 100 65 25 100 65 25 100 65 25 100 65 25 100 65 25 100 65 25 100 65 25 100 65 25 100 65 25 100 65 25 100 65 25 100 65 25 100 65 25 100 65 25 100 65 25 100 65 25 100 65 25 100 65 25 100 65 25 100 65 25 100 65 25 100 65 25 100 65 25 100 65 25 100 65 25 100 65 25 100 65 25 100 65 25 100 65 25 100 65 25 100 65 25 100 65 25 100 65 25 100 65 25 100 65 25 100 65 25 100 65 25 100 65 25 100 65 25 100 65 25 100 65 25 100 65 25 100 65 25 100 65 25 100 65 25 100 65 25 100 65 25 100 65 25 100 65 25 100 65 25 100 65 25 100 65 25 100 65 25 100 65 25 100 65 25 100 65 25 100 65 25 100 65 25 100 65 25 100 65 25 100 65 25 100 65 25 100 65 25 100 65 25 100 65 25 100 65 25 100 65 25 100 65 25 100 65 25 100 65 25 100 65 25 100 65 25 100 65
25 100 65 25 100 65 25 100 65 25 100 65 25 100 65 25 100 65 25 100 65 25 100 65 25 100 65 25 100 65 25 100 65 25 100 65 25 100 65 25 100 65 25 100 65 25 100 65 25 100 65 25 100 65 25 100 65 25 100 65 25 100 65 25 100 65 25 100 65 25 100 65 25 100 65 25 100 65 25 100 65 25 100 65 25 100 65 25 100 65 25 100 65 25 100 65 25 100 65 25 100 65 25 100 65 25 100 65 25 100 65 25 100 65 25 100 65 25 100 65 25 100 65 25 100 65 25 100 65 25 100 65 25 100 65 25 100 65 25 100 65 25 100 65 25 100 65 25 100 65 25 100 65 25 100 65 25 100 65 25 100 65 25 100 65 25 100 65 25 100 65 25 100 65 25 100 65 25 100 65 25 100 65 25 100 65 25 100 65 25 100 65 25 100 65 25 100 65 25 100 65 25 100 65 25 100 65 25 100 65 25 100 65 25 100 65 25 100 65 25 100 65 25 100 65 25 100 65 25 100 65 25 100 65 25 100 65 25 100 65 25 100 65 25 100 65 25 100 65 25 100 65 25 100 65 25 100 65 25 100 65 25 100 65 25 100 65 25 100 65 25 100 65 25 100 65 25 100 65 25 100 65 25 100 65 25 100 65 25 100 65 25 100 65 25 100 65 25 100 65 25 100 65 25 100 65 25 100 65 25 100 65 25 100 65 25 100 65 25 100 65 25 100 65 25 100 65 25 100 65 25 100 65 25 100 65 25 100 65 25 100 65 25 100 65 25 100 65 25 100 65 25 100 65 25 100 65 25 100 65 25 100 65 25 100 65 25 100 65 25 100 65 25 100 65 25 100 65 25 100 65 25 100 65 25 100 65 25 100 65 25 100 65 25 100 65 25 100 65 25 100 65 25 100 65 25 100 65 25 100 65 25 100 65 25 100 65 25 100 65 25 100 65 25 100 65 25 100 65 25 100 65 25 100 65 25 100 65 25 100 65 25 100 65 25 100 65 25 100 65 25 100 65 25 100 65 25 100 65 25 100 65 25 100 65 25 100 65 25 100 65 25 100 65 25 100 65 25 100 65 25 100 65 25 100 65 25 100 65 25 100 65 25 100 65 25 100 65 25 100 65 25 100 65 25 100 65 25 100 65 25 100 65 25 100 65 25 100 65 25 100 65 25 100 65 25 100 65 25 100 65 25 100 65 25 100 65 25 100 65 25 100 65 25 100 65 25 100 65 25 100 65 25 100 65 25 100 65 25 100 65 25 100 65 25 100 65 25 100 65 25 100 65 25 100 65 25 100 65 25 100 65 25 100 65 25 100 65 25 100 65 25 100 65 25 100 65 25 100 65 25 100 65 25 100 65 25 100 65 25 100 65 25 100 65 25 100 65 25 100 65 25 100 65 25 100 65 25 100 65 25 100 65 25 100 65 25 100 65 25 100 65 25 100 65 25 100 65 25 100 65 25 100 65 25 100 65 25 100 65 25 100 65 25 100 65 25 100 65 25 100 65 25 100 65 25 100 65 25 100 65 25 100 65 25 100 65 25 100 65 25 100 65 25 100 65 25 100 65 25 100 65 25 100 65 25 100 65 25 100 65 25 100 65 25 100 65 25 100 65 25 100 65 25 100 65 25 100 65 25 100 65 25 100 65 25 100 65 25 100 65 25 100 65 25 100 65 25 100 65 25 100 65 25 100 65 25 100 65 25 100 65 25 100 65 25 100 65 25 100 65 25 100 65 25 100 65 25 100 65 25 100 65 25 100 65 25 100 65 25 100 65 25 100 65 25 100 65 25 100 65 25 100 65 25 100 65 25 100 65 25 100 65 25 100 65 25 100 65 25 100 65 25 100 65 25 100 65 25 100 65 25 100 65 25 100 65 25 100 65 25 100 65 25 100 65 25 100 65 25 100 65 25 100 65 25 100 65 25 100 65 25 100 65 25 100 65 25 100 65 25 100 65 25 100 65 25 100 65 25 100 65 25 100 65 25 100 65 25 100 65 25 100 65 25 100 65 25 100 65 25 100 65 25 100 65 25 100 65 25 100 65 25 100 65 25 100 65 25 100 65 25 100 65 25 100 65 25 100 65 25 100 65 25 100 65 25 100 65 25 100 65 25 100 65 25 100 65 25 100 65 25 100 65 25 100 65 25 100 65
25 100 65 25 100 65 25 100 65 25 100 65 25 100 65 25 100 65 25 100 65 25 100 65 25 100 65 25 100 65 25 100 65 25 100 65 25 100 65 25 100 65 25 100 65 25 100 65 25 100 65 25 100 65 25 100 65 25 100 65 25 100 65 25 100 65 25 100 65 25 100 65 25 100 65 25 100 65 25 100 65 25 100 65 25 100 65 25 100 65 25 100 65 25 100 65 25 100 65 25 100 65 25 100 65 25 100 65 25 100 65 25 100 65 25 100 65 25 100 65 25 100 65 25 100 65 25 100 65 25 100 65 25 100 65 25 100 65 25 100 65 25 100 65 25 100 65 25 100 65 25 100 65 25 100 65 25 100 65 25 100 65 25 100 65 25 100 65 25 100 65 25 100 65 25 100 65 25 100 65 25 100 65 25 100 65 25 100 65 25 100 65 25 100 65 25 100 65 25 100 65 25 100 65 25 100 65 25 100 65 25 100 65 25 100 65 25 100 65 25 100 65 25 100 65 25 100 65 25 100 65 25 100 65 25 100 65 25 100 65 25 100 65 25 100 65 25 100 65 25 100 65 25 100 65 25 100 65 25 100 65 25 100 65 25 100 65 25 100 65 25 100 65 25 100 65 25 100 65 25 100 65 25 100 65 25 100 65 25 100 65 25 100 65 25 100 65 25 100 65 25 100 65 25 100 65 25 100 65 25 100 65 25 100 65 25 100 65 25 100 65 25 100 65 25 100 65 25 100 65 25 100 65 25 100 65 25 100 65 25 100 65 25 100 65 25 100 65 25 100 65 25 100 65 25 100 65 25 100 65 25 100 65 25 100 65 25 100 65 25 100 65 25 100 65 25 100 65 25 100 65 25 100 65 25 100 65 25 100 65 25 100 65 25 100 65 25 100 65 25 100 65 25 100 65 25 100 65 25 100 65 25 100 65 25 100 65 25 100 65 25 100 65 25 100 65 25 100 65 25 100 65 25 100 65 25 100 65 25 100 65 25 100 65 25 100 65 25 100 65 25 100 65 25 100 65 25 100 65 25 100 65 25 100 65 25 100 65 25 100 65 25 100 65 25 100 65 25 100 65 25 100 65 25 100 65 25 100 65 25 100 65 25 100 65 25 100 65 25 100 65 25 100 65 25 100 65 25 100 65 25 100 65 25 100 65 25 100 65 25 100 65 25 100 65 25 100 65 25 100 65 25 100 65 25 100 65 25 100 65 25 100 65 25 100 65 25 100 65 25 100 65 25 100 65 25 100 65 25 100 65 25 100 65 25 100 65 25 100 65 25 100 65 25 100 65 25 100 65 25 100 65 25 100 65 25 100 65 25 100 65 25 100 65 25 100 65 25 100 65 25 100 65 25 100 65 25 100 65 25 100 65 25 100 65 25 100 65 25 100 65 25 100 65 25 100 65 25 100 65 25 100 65 25 100 65 25 100 65 25 100 65 25 100 65 25 100 65 25 100 65 25 100 65 25 100 65 25 100 65 25 100 65 25 100 65 25 100 65 25 100 65 25 100 65 25 100 65 25 100 65 25 100 65 25 100 65 25 100 65 25 100 65 25 100 65 25 100 65 25 100 65 25 100 65 25 100 65 25 100 65 25 100 65 25 100 65 25 100 65 25 100 65 25 100 65 25 100 65 25 100 65 25 100 65 25 100 65 25 100 65 25 100 65 25 100 65 25 100 65 25 100 65 25 100 65 25 100 65 25 100 65 25 100 65 25 100 65 25 100 65 25 100 65 25 100 65 25 100 65 25 100 65 25 100 65 25 100 65 25 100 65 25 100 65 25 100 65 25 100 65 25 100 65 25 100 65 25 100 65 25 100 65 25 100 65 25 100 65 25 100 65 25 100 65 25 100 65 25 100 65 25 100 65 25 100 65 25 100 65 25 100 65 25 100 65 25 100 65 25 100 65 25 100 65 25 100 65 25 100 65 25 100 65 25 100 65 25 100 65 25 100 65 25 100 65 25 100 65 25 100 65 25 100 65 25 100 65 25 100 65 25 100 65 25 100 65 25 100 65 25 100 65 25 100 65 25 100 65 25 100 65 25 100 65 25 100 65 25 100 65 25 100 65 25 100 65 25 100 65 25 100 65 25 100 65 25 100 65 25 100 65 25 100 65 25 100 65 25 100 65 25 100 65 25 100 65 25 100 65
25 100 65 25 100 65 25 100 65 25 100 65 25 100 65 25 100 65 25 100 65 25 100 65 25 100 65 25 100 65 25 100 65 25 100 65 25 100 65 25 100 65 25 100 65 25 100 65 25 100 65 25 100 65 25 100 65 25 100 65 25 100 65 25 100 65 25 100 65 25 100 65 25 100 65 25 100 65 25 100 65 25 100 65 25 100 65 25 100 65 25 100 65 25 100 65 25 100 65 25 100 65 25 100 65 25 100 65 25 100 65 25 100 65 25 100 65 25 100 65 25 100 65 25 100 65 25 100 65 25 100 65 25 100 65 25 100 65 25 100 65 25 100 65 25 100 65 25 100 65 25 100 65 25 100 65 25 100 65 25 100 65 25 100 65 25 100 65 25 100 65 25 100 65 25 100 65 25 100 65 25 100 65 25 100 65 25 100 65 25 100 65 25 100 65 25 100 65 25 100 65 25 100 65 25 100 65 25 100 65 25 100 65 25 100 65 25 100 65 25 100 65 25 100 65 25 100 65 25 100 65 25 100 65 25 100 65 25 100 65 25 100 65 25 100 65 25 100 65 25 100 65 25 100 65 25 100 65 25 100 65 25 100 65 25 100 65 25 100 65 25 100 65 25 100 65 25 100 65 25 100 65 25 100 65 25 100 65 25 100 65 25 100 65 25 100 65 25 100 65 25 100 65 25 100 65 25 100 65 25 100 65 25 100 65 25 100 65 25 100 65 25 100 65 25 100 65 25 100 65 25 100 65 25 100 65 25 100 65 25 100 65 25 100 65 25 100 65 25 100 65 25 100 65 25 100 65 25 100 65 25 100 65 25 100 65 25 100 65 25 100 65 25 100 65 25 100 65 25 100 65 25 100 65 25 100 65 25 100 65 25 100 65 25 100 65 25 100 65 25 100 65 25 100 65 25 100 65 25 100 65 25 100 65 25 100 65 25 100 65 25 100 65 25 100 65 25 100 65 25 100 65 25 100 65 25 100 65 25 100 65 25 100 65 25 100 65 25 100 65 25 100 65 25 100 65 25 100 65 25 100 65 25 100 65 25 100 65 25 100 65 25 100 65 25 100 65 25 100 65 25 100 65 25 100 65 25 100 65 25 100 65 25 100 65 25 100 65 25 100 65 25 100 65 25 100 65 25 100 65 25 100 65 25 100 65 25 100 65 25 100 65 25 100 65 25 100 65 25 100 65 25 100 65 25 100 65 25 100 65 25 100 65 25 100 65 25 100 65 25 100 65 25 100 65 25 100 65 25 100 65 25 100 65 25 100 65 25 100 65 25 100 65 25 100 65 25 100 65 25 100 65 25 100 65 25 100 65 25 100 65 25 100 65 25 100 65 25 100 65 25 100 65 25 100 65 25 100 65 25 100 65 25 100 65 25 100 65 25 100 65 25 100 65 25 100 65 25 100 65 25 100 65 25 100 65 25 100 65 25 100 65 25 100 65 25 100 65 25 100 65 25 100 65 25 100 65 25 100 65 25 100 65 25 100 65 25 100 65 25 100 65 25 100 65 25 100 65 25 100 65 25 100 65 25 100 65 25 100 65 25 100 65 25 100 65 25 100 65 25 100 65 25 100 65 25 100 65 25 100 65 25 100 65 25 100 65 25 100 65 25 100 65 25 100 65 25 100 65 25 100 65 25 100 65 25 100 65 25 100 65 25 100 65 25 100 65 25 100 65 25 100 65 25 100 65 25 100 65 25 100 65 25 100 65 25 100 65 25 100 65 25 100 65 25 100 65 25 100 65 25 100 65 25 100 65 25 100 65 25 100 65 25 100 65 25 100 65 25 100 65 25 100 65 25 100 65 25 100 65 25 100 65 25 100 65 25 100 65 25 100 65 25 100 65 25 100 65 25 100 65 25 100 65 25 100 65 25 100 65 25 100 65 25 100 65 25 100 65 25 100 65 25 100 65 25 100 65 25 100 65 25 100 65 25 100 65 25 100 65 25 100 65 25 100 65 25 100 65 25 100 65 25 100 65 25 100 65 25 100 65 25 100 65 25 100 65 25 100 65 25 100 65 25 100 65 25 100 65 25 100 65 25 100 65 25 100 65 25 100 65 25 100 65 25 100 65 25 100 65 25 100 65 25 100 65 25 100 65 25 100 65 25 100 65 25 100 65 25 100 65 25 100 65 25 100 65 25 100 65
25 100 65 25 100 65 25 100 65 25 100 65 25 100 65 25 100 65 25 100 65 25 100 65 25 100 65 25 100 65 25 100 65 25 100 65 25 100 65 25 100 65 25 100 65 25 100 65 25 100 65 25 100 65 25 100 65 25 100 65 25 100 65 25 100 65 25 100 65 25 100 65 25 100 65 25 100 65 25 100 65 25 100 65 25 100 65 25 100 65 25 100 65 25 100 65 25 100 65 25 100 65 25 100 65 25 100 65 25 100 65 25 100 65 25 100 65 25 100 65 25 100 65 25 100 65 25 100 65 25 100 65 25 100 65 25 100 65 25 100 65 25 100 65 25 100 65 25 100 65 25 100 65 25 100 65 25 100 65 25 100 65 25 100 65 25 100 65 25 100 65 25 100 65 25 100 65 25 100 65 25 100 65 25 100 65 25 100 65 25 100 65 25 100 65 25 100 65 25 100 65 25 100 65 25 100 65 25 100 65 25 100 65 25 100 65 25 100 65 25 100 65 25 100 65 25 100 65 25 100 65 25 100 65 25 100 65 25 100 65 25 100 65 25 100 65 25 100 65 25 100 65 25 100 65 25 100 65 25 100 65 25 100 65 25 100 65 25 100 65 25 100 65 25 100 65 25 100 65 25 100 65 25 100 65 25 100 65 25 100 65 25 100 65 25 100 65 25 100 65 25 100 65 25 100 65 25 100 65 25 100 65 25 100 65 25 100 65 25 100 65 25 100 65 25 100 65 25 100 65 25 100 65 25 100 65 25 100 65 25 100 65 25 100 65 25 100 65 25 100 65 25 100 65 25 100 65 25 100 65 25 100 65 25 100 65 25 100 65 25 100 65 25 100 65 25 100 65 25 100 65 25 100 65 25 100 65 25 100 65 25 100 65 25 100 65 25 100 65 25 100 65 25 100 65 25 100 65 25 100 65 25 100 65 25 100 65 25 100 65 25 100 65 25 100 65 25 100 65 25 100 65 25 100 65 25 100 65 25 100 65 25 100 65 25 100 65 25 100 65 25 100 65 25 100 65 25 100 65 25 100 65 25 100 65 25 100 65 25 100 65 25 100 65 25 100 65 25 100 65 25 100 65 25 100 65 25 100 65 25 100 65 25 100 65 25 100 65 25 100 65 25 100 65 25 100 65 25 100 65 25 100 65 25 100 65 25 100 65 25 100 65 25 100 65 25 100 65 25 100 65 25 100 65 25 100 65 25 100 65 25 100 65 25 100 65 25 100 65 25 100 65 25 100 65 25 100 65 25 100 65 25 100 65 25 100 65 25 100 65 25 100 65 25 100 65 25 100 65 25 100 65 25 100 65 25 100 65 25 100 65 25 100 65 25 100 65 25 100 65 25 100 65 25 100 65 25 100 65 25 100 65 25 100 65 25 100 65 25 100 65 25 100 65 25 100 65 25 100 65 25 100 65 25 100 65 25 100 65 25 100 65 25 100 65 25 100 65 25 100 65 25 100 65 25 100 65 25 100 65 25 100 65 25 100 65 25 100 65 25 100 65 25 100 65 25 100 65 25 100 65 25 100 65 25 100 65 25 100 65 25 100 65 25 100 65 25 100 65 25 100 65 25 100 65 25 100 65 25 100 65 25 100 65 25 100 65 25 100 65 25 100 65 25 100 65 25 100 65 25 100 65 25 100 65 25 100 65 25 100 65 25 100 65 25 100 65 25 100 65 25 100 65 25 100 65 25 100 65 25 100 65 25 100 65 25 100 65 25 100 65 25 100 65 25 100 65 25 100 65 25 100 65 25 100 65 25 100 65 25 100 65 25 100 65 25 100 65 25 100 65 25 100 65 25 100 65 25 100 65 25 100 65 25 100 65 25 100 65 25 100 65 25 100 65 25 100 65 25 100 65 25 100 65 25 100 65 25 100 65 25 100 65 25 100 65 25 100 65 25 100 65 25 100 65 25 100 65 25 100 65 25 100 65 25 100 65 25 100 65 25 100 65 25 100 65 25 100 65 25 100 65 25 100 65 25 100 65 25 100 65 25 100 65 25 100 65 25 100 65 25 100 65 25 100 65 25 100 65 25 100 65 25 100 65 25 100 65 25 100 65 25 100 65 25 100 65 25 100 65 25 100 65 25 100 65 25 100 65 25 100 65 25 100 65 25 100 65 25 100 65 25 100 65 25 100 65 25 100 65
25 100 65 25 100 65 25 100 65 25 100 65 25 100 65 25 100 65 25 100 65 25 100 65 25 100 65 25 100 65 25 100 65 25 100 65 25 100 65 25 100 65 25 100 65 25 100 65 25 100 65 25 100 65 25 100 65 25 100 65 25 100 65 25 100 65 25 100 65 25 100 65 25 100 65 25 100 65 25 100 65 25 100 65 25 100 65 25 100 65 25 100 65 25 100 65 25 100 65 25 100 65 25 100 65 25 100 65 25 100 65 25 100 65 25 100 65 25 100 65 25 100 65 25 100 65 25 100 65 25 100 65 25 100 65 25 100 65 25 100 65 25 100 65 25 100 65 25 100 65 25 100 65 25 100 65 25 100 65 25 100 65 25 100 65 25 100 65 25 100 65 25 100 65 25 100 65 25 100 65 25 100 65 25 100 65 25 100 65 25 100 65 25 100 65 25 100 65 25 100 65 25 100 65 25 100 65 25 100 65 25 100 65 25 100 65 25 100 65 25 100 65 25 100 65 25 100 65 25 100 65 25 100 65 25 100 65 25 100 65 25 100 65 25 100 65 25 100 65 25 100 65 25 100 65 25 100 65 25 100 65 25 100 65 25 100 65 25 100 65 25 100 65 25 100 65 25 100 65 25 100 65 25 100 65 25 100 65 25 100 65 25 100 65 25 100 65 25 100 65 25 100 65 25 100 65 25 100 65 25 100 65 25 100 65 25 100 65 25 100 65 25 100 65 25 100 65 25 100 65 25 100 65 25 100 65 25 100 65 25 100 65 25 100 65 25 100 65 25 100 65 25 100 65 25 100 65 25 100 65 25 100 65 25 100 65 25 100 65 25 100 65 25 100 65 25 100 65 25 100 65 25 100 65 25 100 65 25 100 65 25 100 65 25 100 65 25 100 65 25 100 65 25 100 65 25 100 65 25 100 65 25 100 65 25 100 65 25 100 65 25 100 65 25 100 65 25 100 65 25 100 65 25 100 65 25 100 65 25 100 65 25 100 65 25 100 65 25 100 65 25 100 65 25 100 65 25 100 65 25 100 65 25 100 65 25 100 65 25 100 65 25 100 65 25 100 65 25 100 65 25 100 65 25 100 65 25 100 65 25 100 65 25 100 65 25 100 65 25 100 65 25 100 65 25 100 65 25 100 65 25 100 65 25 100 65 25 100 65 25 100 65 25 100 65 25 100 65 25 100 65 25 100 65 25 100 65 25 100 65 25 100 65 25 100 65 25 100 65 25 100 65 25 100 65 25 100 65 25 100 65 25 100 65 25 100 65 25 100 65 25 100 65 25 100 65 25 100 65 25 100 65 25 100 65 25 100 65 25 100 65 25 100 65 25 100 65 25 100 65 25 100 65 25 100 65 25 100 65 25 100 65 25 100 65 25 100 65 25 100 65 25 100 65 25 100 65 25 100 65 25 100 65 25 100 65 25 100 65 25 100 65 25 100 65 25 100 65 25 100 65 25 100 65 25 100 65 25 100 65 25 100 65 25 100 65 25 100 65 25 100 65 25 100 65 25 100 65 25 100 65 25 100 65 25 100 65 25 100 65 25 100 65 25 100 65 25 100 65 25 100 65 25 100 65 25 100 65 25 100 65 25 100 65 25 100 65 25 100 65 25 100 65 25 100 65 25 100 65 25 100 65 25 100 65 25 100 65 25 100 65 25 100 65 25 100 65 25 100 65 25 100 65 25 100 65 25 100 65 25 100 65 25 100 65 25 100 65 25 100 65 25 100 65 25 100 65 25 100 65 25 100 65 25 100 65 25 100 65 25 100 65 25 100 65 25 100 65 25 100 65 25 100 65 25 100 65 25 100 65 25 100 65 25 100 65 25 100 65 25 100 65 25 100 65 25 100 65 25 100 65 25 100 65 25 100 65 25 100 65 25 100 65 25 100 65 25 100 65 25 100 65 25 100 65 25 100 65 25 100 65 25 100 65 25 100 65 25 100 65 25 100 65 25 100 65 25 100 65 25 100 65 25 100 65 25 100 65 25 100 65 25 100 65 25 100 65 25 100 65 25 100 65 25 100 65 25 100 65 25 100 65 25 100 65 25 100 65 25 100 65 25 100 65 25 100 65 25 100 65 25 100 65 25 100 65 25 100 65 25 100 65 25 100 65 25 100 65 25 100 65 25 100 65 25 100 65 25 100 65
25 100 65 25 100 65 25 100 65 25 100 65 25 100 65 25 100 65 25 100 65 25 100 65 25 100 65 25 100 65 25 100 65 25 100 65 25 100 65 25 100 65 25 100 65 25 100 65 25 100 65 25 100 65 25 100 65 25 100 65 25 100 65 25 100 65 25 100 65 25 100 65 25 100 65 25 100 65 25 100 65 25 100 65 25 100 65 25 100 65 25 100 65 25 100 65 25 100 65 25 100 65 25 100 65 25 100 65 25 100 65 25 100 65 25 100 65 25 100 65 25 100 65 25 100 65 25 100 65 25 100 65 25 100 65 25 100 65 25 100 65 25 100 65 25 100 65 25 100 65 25 100 65 25 100 65 25 100 65 25 100 65 25 100 65 25 100 65 25 100 65 25 100 65 25 100 65 25 100 65 25 100 65 25 100 65 25 100 65 25 100 65 25 100 65 25 100 65 25 100 65 25 100 65 25 100 65 25 100 65 25 100 65 25 100 65 25 100 65 25 100 65 25 100 65 25 100 65 25 100 65 25 100 65 25 100 65 25 100 65 25 100 65 25 100 65 25 100 65 25 100 65 25 100 65 25 100 65 25 100 65 25 100 65 25 100 65 25 100 65 25 100 65 25 100 65 25 100 65 25 100 65 25 100 65 25 100 65 25 100 65 25 100 65 25 100 65 25 100 65 25 100 65 25 100 65 25 100 65 25 100 65 25 100 65 25 100 65 25 100 65 25 100 65 25 100 65 25 100 65 25 100 65 25 100 65 25 100 65 25 100 65 25 100 65 25 100 65 25 100 65 25 100 65 25 100 65 25 100 65 25 100 65 25 100 65 25 100 65 25 100 65 25 100 65 25 100 65 25 100 65 25 100 65 25 100 65 25 100 65 25 100 65 25 100 65 25 100 65 25 100 65 25 100 65 25 100 65 25 100 65 25 100 65 25 100 65 25 100 65 25 100 65 25 100 65 25 100 65 25 100 65 25 100 65 25 100 65 25 100 65 25 100 65 25 100 65 25 100 65 25 100 65 25 100 65 25 100 65 25 100 65 25 100 65 25 100 65 25 100 65 25 100 65 25 100 65 25 100 65 25 100 65 25 100 65 25 100 65 25 100 65 25 100 65 25 100 65 25 100 65 25 100 65 25 100 65 25 100 65 25 100 65 25 100 65 25 100 65 25 100 65 25 100 65 25 100 65 25 100 65 25 100 65 25 100 65 25 100 65 25 100 65 25 100 65 25 100 65 25 100 65 25 100 65 25 100 65 25 100 65 25 100 65 25 100 65 25 100 65 25 100 65 25 100 65 25 100 65 25 100 65 25 100 65 25 100 65 25 100 65 25 100 65 25 100 65 25 100 65 25 100 65 25 100 65 25 100 65 25 100 65 25 100 65 25 100 65 25 100 65 25 100 65 25 100 65 25 100 65 25 100 65 25 100 65 25 100 65 25 100 65 25 100 65 25 100 65 25 100 65 25 100 65 25 100 65 25 100 65 25 100 65 25 100 65 25 100 65 25 100 65 25 100 65 25 100 65 25 100 65 25 100 65 25 100 65 25 100 65 25 100 65 25 100 65 25 100 65 25 100 65 25 100 65 25 100 65 25 100 65 25 100 65 25 100 65 25 100 65 25 100 65 25 100 65 25 100 65 25 100 65 25 100 65 25 100 65 25 100 65 25 100 65 25 100 65 25 100 65 25 100 65 25 100 65 25 100 65 25 100 65 25 100 65 25 100 65 25 100 65 25 100 65 25 100 65 25 100 65 25 100 65 25 100 65 25 100 65 25 100 65 25 100 65 25 100 65 25 100 65 25 100 65 25 100 65 25 100 65 25 100 65 25 100 65 25 100 65 25 100 65 25 100 65 25 100 65 25 100 65 25 100 65 25 100 65 25 100 65 25 100 65 25 100 65 25 100 65 25 100 65 25 100 65 25 100 65 25 100 65 25 100 65 25 100 65 25 100 65 25 100 65 25 100 65 25 100 65 25 100 65 25 100 65 25 100 65 25 100 65 25 100 65 25 100 65 25 100 65 25 100 65 25 100 65 25 100 65 25 100 65 25 100 65 25 100 65 25 100 65 25 100 65 25 100 65 25 100 65 25 100 65 25 100 65 25 100 65 25 100 65 25 100 65 25 100 65 25 100 65 25 100 65 25 100 65 25 100 65
25 100 65 25 100 65 25 100 65 25 100 65 25 100 65 25 100 65 25 100 65 25 100 65 25 100 65 25 100 65 25 100 65 25 100 65 25 100 65 25 100 65 25 100 65 25 100 65 25 100 65 25 100 65 25 100 65 25 100 65 25 100 65 25 100 65 25 100 65 25 100 65 25 100 65 25 100 65 25 100 65 25 100 65 25 100 65 25 100 65 25 100 65 25 100 65 25 100 65 25 100 65 25 100 65 25 100 65 25 100 65 25 100 65 25 100 65 25 100 65 25 100 65 25 100 65 25 100 65 25 100 65 25 100 65 25 100 65 25 100 65 25 100 65 25 100 65 25 100 65 25 100 65 25 100 65 25 100 65 25 100 65 25 100 65 25 100 65 25 100 65 25 100 65 25 100 65 25 100 65 25 100 65 25 100 65 25 100 65 25 100 65 25 100 65 25 100 65 25 100 65 25 100 65 25 100 65 25 100 65 25 100 65 25 100 65 25 100 65 25 100 65 25 100 65 25 100 65 25 100 65 25 100 65 25 100 65 25 100 65 25 100 65 25 100 65 25 100 65 25 100 65 25 100 65 25 100 65 25 100 65 25 100 65 25 100 65 25 100 65 25 100 65 25 100 65 25 100 65 25 100 65 25 100 65 25 100 65 25 100 65 25 100 65 25 100 65 25 100 65 25 100 65 25 100 65 25 100 65 25 100 65 25 100 65 25 100 65 25 100 65 25 100 65 25 100 65 25 100 65 25 100 65 25 100 65 25 100 65 25 100 65 25 100 65 25 100 65 25 100 65 25 100 65 25 100 65 25 100 65 25 100 65 25 100 65 25 100 65 25 100 65 25 100 65 25 100 65 25 100 65 25 100 65 25 100 65 25 100 65 25 100 65 25 100 65 25 100 65 25 100 65 25 100 65 25 100 65 25 100 65 25 100 65 25 100 65 25 100 65 25 100 65 25 100 65 25 100 65 25 100 65 25 100 65 25 100 65 25 100 65 25 100 65 25 100 65 25 100 65 25 100 65 25 100 65 25 100 65 25 100 65 25 100 65 25 100 65 25 100 65 25 100 65 25 100 65 25 100 65 25 100 65 25 100 65 25 100 65 25 100 65 25 100 65 25 100 65 25 100 65 25 100 65 25 100 65 25 100 65 25 100 65 25 100 65 25 100 65 25 100 65 25 100 65 25 100 65 25 100 65 25 100 65 25 100 65 25 100 65 25 100 65 25 100 65 25 100 65 25 100 65 25 100 65 25 100 65 25 100 65 25 100 65 25 100 65 25 100 65 25 100 65 25 100 65 25 100 65 25 100 65 25 100 65 25 100 65 25 100 65 25 100 65 25 100 65 25 100 65 25 100 65 25 100 65 25 100 65 25 100 65 25 100 65 25 100 65 25 100 65 25 100 65 25 100 65 25 100 65 25 100 65 25 100 65 25 100 65 25 100 65 25 100 65 25 100 65 25 100 65 25 100 65 25 100 65 25 100 65 25 100 65 25 100 65 25 100 65 25 100 65 25 100 65 25 100 65 25 100 65 25 100 65 25 100 65 25 100 65 25 100 65 25 100 65 25 100 65 25 100 65 25 100 65 25 100 65 25 100 65 25 100 65 25 100 65 25 100 65 25 100 65 25 100 65 25 100 65 25 100 65 25 100 65 25 100 65 25 100 65 25 100 65 25 100 65 25 100 65 25 100 65 25 100 65 25 100 65 25 100 65 25 100 65 25 100 65 25 100 65 25 100 65 25 100 65 25 100 65 25 100 65 25 100 65 25 100 65 25 100 65 25 100 65 25 100 65 25 100 65 25 100 65 25 100 65 25 100 65 25 100 65 25 100 65 25 100 65 25 100 65 25 100 65 25 100 65 25 100 65 25 100 65 25 100 65 25 100 65 25 100 65 25 100 65 25 100 65 25 100 65 25 100 65 25 100 65 25 100 65 25 100 65 25 100 65 25 100 65 25 100 65 25 100 65 25 100 65 25 100 65 25 100 65 25 100 65 25 100 65 25 100 65 25 100 65 25 100 65 25 100 65 25 100 65 25 100 65 25 100 65 25 100 65 25 100 65 25 100 65 25 100 65 25 100 65 25 100 65 25 100 65 25 100 65 25 100 65 25 100 65 25 100 65 25 100 65 25 100 65 25 100 65 25 100 65 25 100 65
25 100 65 25 100 65 25 100 65 25 100 65 25 100 65 25 100 65 25 100 65 25 100 65 25 100 65 25 100 65 25 100 65 25 100 65 25 100 65 25 100 65 25 100 65 25 100 65 25 100 65 25 100 65 25 100 65 25 100 65 25 100 65 25 100 65 25 100 65 25 100 65 25 100 65 25 100 65 25 100 65 25 100 65 25 100 65 25 100 65 25 100 65 25 100 65 25 100 65 25 100 65 25 100 65 25 100 65 25 100 65 25 100 65 25 100 65 25 100 65 25 100 65 25 100 65 25 100 65 25 100 65 25 100 65 25 100 65 25 100 65 25 100 65 25 100 65 25 100 65 25 100 65 25 100 65 25 100 65 25 100 65 25 100 65 25 100 65 25 100 65 25 100 65 25 100 65 25 100 65 25 100 65 25 100 65 25 100 65 25 100 65 25 100 65 25 100 65 25 100 65 25 100 65 25 100 65 25 100 65 25 100 65 25 100 65 25 100 65 25 100 65 25 100 65 25 100 65 25 100 65 25 100 65 25 100 65 25 100 65 25 100 65 25 100 65 25 100 65 25 100 65 25 100 65 25 100 65 25 100 65 25 100 65 25 100 65 25 100 65 25 100 65 25 100 65 25 100 65 25 100 65 25 100 65 25 100 65 25 100 65 25 100 65 25 100 65 25 100 65 25 100 65 25 100 65 25 100 65 25 100 65 25 100 65 25 100 65 25 100 65 25 100 65 25 100 65 25 100 65 25 100 65 25 100 65 25 100 65 25 100 65 25 100 65 25 100 65 25 100 65 25 100 65 25 100 65 25 100 65 25 100 65 25 100 65 25 100 65 25 100 65 25 100 65 25 100 65 25 100 65 25 100 65 25 100 65 25 100 65 25 100 65 25 100 65 25 100 65 25 100 65 25 100 65 25 100 65 25 100 65 25 100 65 25 100 65 25 100 65 25 100 65 25 100 65 25 100 65 25 100 65 25 100 65 25 100 65 25 100 65 25 100 65 25 100 65 25 100 65 25 100 65 25 100 65 25 100 65 25 100 65 25 100 65 25 100 65 25 100 65 25 100 65 25 100 65 25 100 65 25 100 65 25 100 65 25 100 65 25 100 65 25 100 65 25 100 65 25 100 65 25 100 65 25 100 65 25 100 65 25 100 65 25 100 65 25 100 65 25 100 65 25 100 65 25 100 65 25 100 65 25 100 65 25 100 65 25 100 65 25 100 65 25 100 65 25 100 65 25 100 65 25 100 65 25 100 65 25 100 65 25 100 65 25 100 65 25 100 65 25 100 65 25 100 65 25 100 65 25 100 65 25 100 65 25 100 65 25 100 65 25 100 65 25 100 65 25 100 65 25 100 65 25 100 65 25 100 65 25 100 65 25 100 65 25 100 65 25 100 65 25 100 65 25 100 65 25 100 65 25 100 65 25 100 65 25 100 65 25 100 65 25 100 65 25 100 65 25 100 65 25 100 65 25 100 65 25 100 65 25 100 65 25 100 65 25 100 65 25 100 65 25 100 65 25 100 65 25 100 65 25 100 65 25 100 65 25 100 65 25 100 65 25 100 65 25 100 65 25 100 65 25 100 65 25 100 65 25 100 65 25 100 65 25 100 65 25 100 65 25 100 65 25 100 65 25 100 65 25 100 65 25 100 65 25 100 65 25 100 65 25 100 65 25 100 65 25 100 65 25 100 65 25 100 65 25 100 65 25 100 65 25 100 65 25 100 65 25 100 65 25 100 65 25 100 65 25 100 65 25 100 65 25 100 65 25 100 65 25 100 65 25 100 65 25 100 65 25 100 65 25 100 65 25 100 65 25 100 65 25 100 65 25 100 65 25 100 65 25 100 65 25 100 65 25 100 65 25 100 65 25 100 65 25 100 65 25 100 65 25 100 65 25 100 65 25 100 65 25 100 65 25 100 65 25 100 65 25 100 65 25 100 65 25 100 65 25 100 65 25 100 65 25 100 65 25 100 65 25 100 65 25 100 65 25 100 65 25 100 65 25 100 65 25 100 65 25 100 65 25 100 65 25 100 65 25 100 65 25 100 65 25 100 65 25 100 65 25 100 65 25 100 65 25 100 65 25 100 65 25 100 65 25 100 65 25 100 65 25 100 65 25 100 65 25 100 65 25 100 65 25 100 65 25 100 65 25 100 65
25 100 65 25 100 65 25 100 65 25 100 65 25 100 65 25 100 65 25 100 65 25 100 65 25 100 65 25 100 65 25 100 65 25 100 65 25 100 65 25 100 65 25 100 65 25 100 65 25 100 65 25 100 65 25 100 65 25 100 65 25 100 65 25 100 65 25 100 65 25 100 65 25 100 65 25 100 65 25 100 65 25 100 65 25 100 65 25 100 65 25 100 65 25 100 65 25 100 65 25 100 65 25 100 65 25 100 65 25 100 65 25 100 65 25 100 65 25 100 65 25 100 65 25 100 65 25 100 65 25 100 65 25 100 65 25 100 65 25 100 65 25 100 65 25 100 65 25 100 65 25 100 65 25 100 65 25 100 65 25 100 65 25 100 65 25 100 65 25 100 65 25 100 65 25 100 65 25 100 65 25 100 65 25 100 65 25 100 65 25 100 65 25 100 65 25 100 65 25 100 65 25 100 65 25 100 65 25 100 65 25 100 65 25 100 65 25 100 65 25 100 65 25 100 65 25 100 65 25 100 65 25 100 65 25 100 65 25 100 65 25 100 65 25 100 65 25 100 65 25 100 65 25 100 65 25 100 65 25 100 65 25 100 65 25 100 65 25 100 65 25 100 65 25 100 65 25 100 65 25 100 65 25 100 65 25 100 65 25 100 65 25 100 65 25 100 65 25 100 65 25 100 65 25 100 65 25 100 65 25 100 65 25 100 65 25 100 65 25 100 65 25 100 65 25 100 65 25 100 65 25 100 65 25 100 65 25 100 65 25 100 65 25 100 65 25 100 65 25 100 65 25 100 65 25 100 65 25 100 65 25 100 65 25 100 65 25 100 65 25 100 65 25 100 65 25 100 65 25 100 65 25 100 65 25 100 65 25 100 65 25 100 65 25 100 65 25 100 65 25 100 65 25 100 65 25 100 65 25 100 65 25 100 65 25 100 65 25 100 65 25 100 65 25 100 65 25 100 65 25 100 65 25 100 65 25 100 65 25 100 65 25 100 65 25 100 65 25 100 65 25 100 65 25 100 65 25 100 65 25 100 65 25 100 65 25 100 65 25 100 65 25 100 65 25 100 65 25 100 65 25 100 65 25 100 65 25 100 65 25 100 65 25 100 65 25 100 65 25 100 65 25 100 65 25 100 65 25 100 65 25 100 65 25 100 65 25 100 65 25 100 65 25 100 65 25 100 65 25 100 65 25 100 65 25 100 65 25 100 65 25 100 65 25 100 65 25 100 65 25 100 65 25 100 65 25 100 65 25 100 65 25 100 65 25 100 65 25 100 65 25 100 65 25 100 65 25 100 65 25 100 65 25 100 65 25 100 65 25 100 65 25 100 65 25 100 65 25 100 65 25 100 65 25 100 65 25 100 65 25 100 65 25 100 65 25 100 65 25 100 65 25 100 65 25 100 65 25 100 65 25 100 65 25 100 65 25 100 65 25 100 65 25 100 65 25 100 65 25 100 65 25 100 65 25 100 65 25 100 65 25 100 65 25 100 65 25 100 65 25 100 65 25 100 65 25 100 65 25 100 65 25 100 65 25 100 65 25 100 65 25 100 65 25 100 65 25 100 65 25 100 65 25 100 65 25 100 65 25 100 65 25 100 65 25 100 65 25 100 65 25 100 65 25 100 65 25 100 65 25 100 65 25 100 65 25 100 65 25 100 65 25 100 65 25 100 65 25 100 65 25 100 65 25 100 65 25 100 65 25 100 65 25 100 65 25 100 65 25 100 65 25 100 65 25 100 65 25 100 65 25 100 65 25 100 65 25 100 65 25 100 65 25 100 65 25 100 65 25 100 65 25 100 65 25 100 65 25 100 65 25 100 65 25 100 65 25 100 65 25 100 65 25 100 65 25 100 65 25 100 65 25 100 65 25 100 65 25 100 65 25 100 65 25 100 65 25 100 65 25 100 65 25 100 65 25 100 65 25 100 65 25 100 65 25 100 65 25 100 65 25 100 65 25 100 65 25 100 65 25 100 65 25 100 65 25 100 65 25 100 65 25 100 65 25 100 65 25 100 65 25 100 65 25 100 65 25 100 65 25 100 65 25 100 65 25 100 65 25 100 65 25 100 65 25 100 65 25 100 65 25 100 65 25 100 65 25 100 65 25 100 65 25 100 65 25 100 65 25 100 65 25 100 65 25 100 65 25 100 65
25 100 65 25 100 65 25 100 65 25 100 65 25 100 65 25 100 65 25 100 65 25 100 65 25 100 65 25 100 65 25 100 65 25 100 65 25 100 65 25 100 65 25 100 65 25 100 65 25 100 65 25 100 65 25 100 65 25 100 65 25 100 65 25 100 65 25 100 65 25 100 65 25 100 65 25 100 65 25 100 65 25 100 65 25 100 65 25 100 65 25 100 65 25 100 65 25 100 65 25 100 65 25 100 65 25 100 65 25 100 65 25 100 65 25 100 65 25 100 65 25 100 65 25 100 65 25 100 65 25 100 65 25 100 65 25 100 65 25 100 65 25 100 65 25 100 65 25 100 65 25 100 65 25 100 65 25 100 65 25 100 65 25 100 65 25 100 65 25 100 65 25 100 65 25 100 65 25 100 65 25 100 65 25 100 65 25 100 65 25 100 65 25 100 65 25 100 65 25 100 65 25 100 65 25 100 65 25 100 65 25 100 65 25 100 65 25 100 65 25 100 65 25 100 65 25 100 65 25 100 65 25 100 65 25 100 65 25 100 65 25 100 65 25 100 65 25 100 65 25 100 65 25 100 65 25 100 65 25 100 65 25 100 65 25 100 65 25 100 65 25 100 65 25 100 65 25 100 65 25 100 65 25 100 65 25 100 65 25 100 65 25 100 65 25 100 65 25 100 65 25 100 65 25 100 65 25 100 65 25 100 65 25 100 65 25 100 65 25 100 65 25 100 65 25 100 65 25 100 65 25 100 65 25 100 65 25 100 65 25 100 65 25 100 65 25 100 65 25 100 65 25 100 65 25 100 65 25 100 65 25 100 65 25 100 65 25 100 65 25 100 65 25 100 65 25 100 65 25 100 65 25 100 65 25 100 65 25 100 65 25 100 65 25 100 65 25 100 65 25 100 65 25 100 65 25 100 65 25 100 65 25 100 65 25 100 65 25 100 65 25 100 65 25 100 65 25 100 65 25 100 65 25 100 65 25 100 65 25 100 65 25 100 65 25 100 65 25 100 65 25 100 65 25 100 65 25 100 65 25 100 65 25 100 65 25 100 65 25 100 65 25 100 65 25 100 65 25 100 65 25 100 65 25 100 65 25 100 65 25 100 65 25 100 65 25 100 65 25 100 65 25 100 65 25 100 65 25 100 65 25 100 65 25 100 65 25 100 65 25 100 65 25 100 65 25 100 65 25 100 65 25 100 65 25 100 65 25 100 65 25 100 65 25 100 65 25 100 65 25 100 65 25 100 65 25 100 65 25 100 65 25 100 65 25 100 65 25 100 65 25 100 65 25 100 65 25 100 65 25 100 65 25 100 65 25 100 65 25 100 65 25 100 65 25 100 65 25 100 65 25 100 65 25 100 65 25 100 65 25 100 65 25 100 65 25 100 65 25 100 65 25 100 65 25 100 65 25 100 65 25 100 65 25 100 65 25 100 65 25 100 65 25 100 65 25 100 65 25 100 65 25 100 65 25 100 65 25 100 65 25 100 65 25 100 65 25 100 65 25 100 65 25 100 65 25 100 65 25 100 65 25 100 65 25 100 65 25 100 65 25 100 65 25 100 65 25 100 65 25 100 65 25 100 65 25 100 65 25 100 65 25 100 65 25 100 65 25 100 65 25 100 65 25 100 65 25 100 65 25 100 65 25 100 65 25 100 65 25 100 65 25 100 65 25 100 65 25 100 65 25 100 65 25 100 65 25 100 65 25 100 65 25 100 65 25 100 65 25 100 65 25 100 65 25 100 65 25 100 65 25 100 65 25 100 65 25 100 65 25 100 65 25 100 65 25 100 65 25 100 65 25 100 65 25 100 65 25 100 65 25 100 65 25 100 65 25 100 65 25 100 65 25 100 65 25 100 65 25 100 65 25 100 65 25 100 65 25 100 65 25 100 65 25 100 65 25 100 65 25 100 65 25 100 65 25 100 65 25 100 65 25 100 65 25 100 65 25 100 65 25 100 65 25 100 65 25 100 65 25 100 65 25 100 65 25 100 65 25 100 65 25 100 65 25 100 65 25 100 65 25 100 65 25 100 65 25 100 65 25 100 65 25 100 65 25 100 65 25 100 65 25 100 65 25 100 65 25 100 65 25 100 65 25 100 65 25 100 65 25 100 65 25 100 65 25 100 65 25 100 65 25 100 65 25 100 65 25 100 65
25 100 65 25 100 65 25 100 65 25 100 65 25 100 65 25 100 65 25 100 65 25 100 65 25 100 65 25 100 65 25 100 65 25 100 65 25 100 65 25 100 65 25 100 65 25 100 65 25 100 65 25 100 65 25 100 65 25 100 65 25 100 65 25 100 65 25 100 65 25 100 65 25 100 65 25 100 65 25 100 65 25 100 65 25 100 65 25 100 65 25 100 65 25 100 65 25 100 65 25 100 65 25 100 65 25 100 65 25 100 65 25 100 65 25 100 65 25 100 65 25 100 65 25 100 65 25 100 65 25 100 65 25 100 65 25 100 65 25 100 65 25 100 65 25 100 65 25 100 65 25 100 65 25 100 65 25 100 65 25 100 65 25 100 65 25 100 65 25 100 65 25 100 65 25 100 65 25 100 65 25 100 65 25 100 65 25 100 65 25 100 65 25 100 65 25 100 65 25 100 65 25 100 65 25 100 65 25 100 65 25 100 65 25 100 65 25 100 65 25 100 65 25 100 65 25 100 65 25 100 65 25 100 65 25 100 65 25 100 65 25 100 65 25 100 65 25 100 65 25 100 65 25 100 65 25 100 65 25 100 65 25 100 65 25 100 65 25 100 65 25 100 65 25 100 65 25 100 65 25 100 65 25 100 65 25 100 65 25 100 65 25 100 65 25 100 65 25 100 65 25 100 65 25 100 65 25 100 65 25 100 65 25 100 65 25 100 65 25 100 65 25 100 65 25 100 65 25 100 65 25 100 65 25 100 65 25 100 65 25 100 65 25 100 65 25 100 65 25 100 65 25 100 65 25 100 65 25 100 65 25 100 65 25 100 65 25 100 65 25 100 65 25 100 65 25 100 65 25 100 65 25 100 65 25 100 65 25 100 65 25 100 65 25 100 65 25 100 65 25 100 65 25 100 65 25 100 65 25 100 65 25 100 65 25 100 65 25 100 65 25 100 65 25 100 65 25 100 65 25 100 65 25 100 65 25 100 65 25 100 65 25 100 65 25 100 65 25 100 65 25 100 65 25 100 65 25 100 65 25 100 65 25 100 65 25 100 65 25 100 65 25 100 65 25 100 65 25 100 65 25 100 65 25 100 65 25 100 65 25 100 65 25 100 65 25 100 65 25 100 65 25 100 65 25 100 65 25 100 65 25 100 65 25 100 65 25 100 65 25 100 65 25 100 65 25 100 65 25 100 65 25 100 65 25 100 65 25 100 65 25 100 65 25 100 65 25 100 65 25 100 65 25 100 65 25 100 65 25 100 65 25 100 65 25 100 65 25 100 65 25 100 65 25 100 65 25 100 65 25 100 65 25 100 65 25 100 65 25 100 65 25 100 65 25 100 65 25 100 65 25 100 65 25 100 65 25 100 65 25 100 65 25 100 65 25 100 65 25 100 65 25 100 65 25 100 65 25 100 65 25 100 65 25 100 65 25 100 65 25 100 65 25 100 65 25 100 65 25 100 65 25 100 65 25 100 65 25 100 65 25 100 65 25 100 65 25 100 65 25 100 65 25 100 65 25 100 65 25 100 65 25 100 65 25 100 65 25 100 65 25 100 65 25 100 65 25 100 65 25 100 65 25 100 65 25 100 65 25 100 65 25 100 65 25 100 65 25 100 65 25 100 65 25 100 65 25 100 65 25 100 65 25 100 65 25 100 65 25 100 65 25 100 65 25 100 65 25 100 65 25 100 65 25 100 65 25 100 65 25 100 65 25 100 65 25 100 65 25 100 65 25 100 65 25 100 65 25 100 65 25 100 65 25 100 65 25 100 65 25 100 65 25 100 65 25 100 65 25 100 65 25 100 65 25 100 65 25 100 65 25 100 65 25 100 65 25 100 65 25 100 65 25 100 65 25 100 65 25 100 65 25 100 65 25 100 65 25 100 65 25 100 65 25 100 65 25 100 65 25 100 65 25 100 65 25 100 65 25 100 65 25 100 65 25 100 65 25 100 65 25 100 65 25 100 65 25 100 65 25 100 65 25 100 65 25 100 65 25 100 65 25 100 65 25 100 65 25 100 65 25 100 65 25 100 65 25 100 65 25 100 65 25 100 65 25 100 65 25 100 65 25 100 65 25 100 65 25 100 65 25 100 65 25 100 65 25 100 65 25 100 65 25 100 65 25 100 65 25 100 65 25 100 65 25 100 65 25 100 65
25 100 65 25 100 65 25 100 65 25 100 65 25 100 65 25 100 65 25 100 65 25 100 65 25 100 65 25 100 65 25 100 65 25 100 65 25 100 65 25 100 65 25 100 65 25 100 65 25 100 65 25 100 65 25 100 65 25 100 65 25 100 65 25 100 65 25 100 65 25 100 65 25 100 65 25 100 65 25 100 65 25 100 65 25 100 65 25 100 65 25 100 65 25 100 65 25 100 65 25 100 65 25 100 65 25 100 65 25 100 65 25 100 65 25 100 65 25 100 65 25 100 65 25 100 65 25 100 65 25 100 65 25 100 65 25 100 65 25 100 65 25 100 65 25 100 65 25 100 65 25 100 65 25 100 65 25 100 65 25 100 65 25 100 65 25 100 65 25 100 65 25 100 65 25 100 65 25 100 65 25 100 65 25 100 65 25 100 65 25 100 65 25 100 65 25 100 65 25 100 65 25 100 65 25 100 65 25 100 65 25 100 65 25 100 65 25 100 65 25 100 65 25 100 65 25 100 65 25 100 65 25 100 65 25 100 65 25 100 65 25 100 65 25 100 65 25 100 65 25 100 65 25 100 65 25 100 65 25 100 65 25 100 65 25 100 65 25 100 65 25 100 65 25 100 65 25 100 65 25 100 65 25 100 65 25 100 65 25 100 65 25 100 65 25 100 65 25 100 65 25 100 65 25 100 65 25 100 65 25 100 65 25 100 65 25 100 65 25 100 65 25 100 65 25 100 65 25 100 65 25 100 65 25 100 65 25 100 65 25 100 65 25 100 65 25 100 65 25 100 65 25 100 65 25 100 65 25 100 65 25 100 65 25 100 65 25 100 65 25 100 65 25 100 65 25 100 65 25 100 65 25 100 65 25 100 65 25 100 65 25 100 65 25 100 65 25 100 65 25 100 65 25 100 65 25 100 65 25 100 65 25 100 65 25 100 65 25 100 65 25 100 65 25 100 65 25 100 65 25 100 65 25 100 65 25 100 65 25 100 65 25 100 65 25 100 65 25 100 65 25 100 65 25 100 65 25 100 65 25 100 65 25 100 65 25 100 65 25 100 65 25 100 65 25 100 65 25 100 65 25 100 65 25 100 65 25 100 65 25 100 65 25 100 65 25 100 65 25 100 65 25 100 65 25 100 65 25 100 65 25 100 65 25 100 65 25 100 65 25 100 65 25 100 65 25 100 65 25 100 65 25 100 65 25 100 65 25 100 65 25 100 65 25 100 65 25 100 65 25 100 65 25 100 65 25 100 65 25 100 65 25 100 65 25 100 65 25 100 65 25 100 65 25 100 65 25 100 65 25 100 65 25 100 65 25 100 65 25 100 65 25 100 65 25 100 65 25 100 65 25 100 65 25 100 65 25 100 65 25 100 65 25 100 65 25 100 65 25 100 65 25 100 65 25 100 65 25 100 65 25 100 65 25 100 65 25 100 65 25 100 65 25 100 65 25 100 65 25 100 65 25 100 65 25 100 65 25 100 65 25 100 65 25 100 65 25 100 65 25 100 65 25 100 65 25 100 65 25 100 65 25 100 65 25 100 65 25 100 65 25 100 65 25 100 65 25 100 65 25 100 65 25 100 65 25 100 65 25 100 65 25 100 65 25 100 65 25 100 65 25 100 65 25 100 65 25 100 65 25 100 65 25 100 65 25 100 65 25 100 65 25 100 65 25 100 65 25 100 65 25 100 65 25 100 65 25 100 65 25 100 65 25 100 65 25 100 65 25 100 65 25 100 65 25 100 65 25 100 65 25 100 65 25 100 65 25 100 65 25 100 65 25 100 65 25 100 65 25 100 65 25 100 65 25 100 65 25 100 65 25 100 65 25 100 65 25 100 65 25 100 65 25 100 65 25 100 65 25 100 65 25 100 65 25 100 65 25 100 65 25 100 65 25 100 65 25 100 65 25 100 65 25 100 65 25 100 65 25 100 65 25 100 65 25 100 65 25 100 65 25 100 65 25 100 65 25 100 65 25 100 65 25 100 65 25 100 65 25 100 65 25 100 65 25 100 65 25 100 65 25 100 65 25 100 65 25 100 65 25 100 65 25 100 65 25 100 65 25 100 65 25 100 65 25 100 65 25 100 65 25 100 65 25 100 65 25 100 65 25 100 65 25 100 65 25 100 65 25 100 65 25 100 65 25 100 65 25 100 65
25 100 65 25 100 65 25 100 65 25 100 65 25 100 65 25 100 65 25 100 65 25 100 65 25 100 65 25 100 65 25 100 65 25 100 65 25 100 65 25 100 65 25 100 65 25 100 65 25 100 65 25 100 65 25 100 65 25 100 65 25 100 65 25 100 65 25 100 65 25 100 65 25 100 65 25 100 65 25 100 65 25 100 65 25 100 65 25 100 65 25 100 65 25 100 65 25 100 65 25 100 65 25 100 65 25 100 65 25 100 65 25 100 65 25 100 65 25 100 65 25 100 65 25 100 65 25 100 65 25 100 65 25 100 65 25 100 65 25 100 65 25 100 65 25 100 65 25 100 65 25 100 65 25 100 65 25 100 65 25 100 65 25 100 65 25 100 65 25 100 65 25 100 65 25 100 65 25 100 65 25 100 65 25 100 65 25 100 65 25 100 65 25 100 65 25 100 65 25 100 65 25 100 65 25 100 65 25 100 65 25 100 65 25 100 65 25 100 65 25 100 65 25 100 65 25 100 65 25 100 65 25 100 65 25 100 65 25 100 65 25 100 65 25 100 65 25 100 65 25 100 65 25 100 65 25 100 65 25 100 65 25 100 65 25 100 65 25 100 65 25 100 65 25 100 65 25 100 65 25 100 65 25 100 65 25 100 65 25 100 65 25 100 65 25 100 65 25 100 65 25 100 65 25 100 65 25 100 65 25 100 65 25 100 65 25 100 65 25 100 65 25 100 65 25 100 65 25 100 65 25 100 65 25 100 65 25 100 65 25 100 65 25 100 65 25 100 65 25 100 65 25 100 65 25 100 65 25 100 65 25 100 65 25 100 65 25 100 65 25 100 65 25 100 65 25 100 65 25 100 65 25 100 65 25 100 65 25 100 65 25 100 65 25 100 65 25 100 65 25 100 65 25 100 65 25 100 65 25 100 65 25 100 65 25 100 65 25 100 65 25 100 65 25 100 65 25 100 65 25 100 65 25 100 65 25 100 65 25 100 65 25 100 65 25 100 65 25 100 65 25 100 65 25 100 65 25 100 65 25 100 65 25 100 65 25 100 65 25 100 65 25 100 65 25 100 65 25 100 65 25 100 65 25 100 65 25 100 65 25 100 65 25 100 65 25 100 65 25 100 65 25 100 65 25 100 65 25 100 65 25 100 65 25 100 65 25 100 65 25 100 65 25 100 65 25 100 65 25 100 65 25 100 65 25 100 65 25 100 65 25 100 65 25 100 65 25 100 65 25 100 65 25 100 65 25 100 65 25 100 65 25 100 65 25 100 65 25 100 65 25 100 65 25 100 65 25 100 65 25 100 65 25 100 65 25 100 65 25 100 65 25 100 65 25 100 65 25 100 65 25 100 65 25 100 65 25 100 65 25 100 65 25 100 65 25 100 65 25 100 65 25 100 65 25 100 65 25 100 65 25 100 65 25 100 65 25 100 65 25 100 65 25 100 65 25 100 65 25 100 65 25 100 65 25 100 65 25 100 65 25 100 65 25 100 65 25 100 65 25 100 65 25 100 65 25 100 65 25 100 65 25 100 65 25 100 65 25 100 65 25 100 65 25 100 65 25 100 65 25 100 65 25 100 65 25 100 65 25 100 65 25 100 65 25 100 65 25 100 65 25 100 65 25 100 65 25 100 65 25 100 65 25 100 65 25 100 65 25 100 65 25 100 65 25 100 65 25 100 65 25 100 65 25 100 65 25 100 65 25 100 65 25 100 65 25 100 65 25 100 65 25 100 65 25 100 65 25 100 65 25 100 65 25 100 65 25 100 65 25 100 65 25 100 65 25 100 65 25 100 65 25 100 65 25 100 65 25 100 65 25 100 65 25 100 65 25 100 65 25 100 65 25 100 65 25 100 65 25 100 65 25 100 65 25 100 65 25 100 65 25 100 65 25 100 65 25 100 65 25 100 65 25 100 65 25 100 65 25 100 65 25 100 65 25 100 65 25 100 65 25 100 65 25 100 65 25 100 65 25 100 65 25 100 65 25 100 65 25 100 65 25 100 65 25 100 65 25 100 65 25 100 65 25 100 65 25 100 65 25 100 65 25 100 65 25 100 65 25 100 65 25 100 65 25 100 65 25 100 65 25 100 65 25 100 65 25 100 65 25 100 65 25 100 65 25 100 65 25 100 65 25 100 65 25 100 65 25 100 65
25 100 65 25 100 65 25 100 65 25 100 65 25 100 65 25 100 65 25 100 65 25 100 65 25 100 65 25 100 65 25 100 65 25 100 65 25 100 65 25 100 65 25 100 65 25 100 65 25 100 65 25 100 65 25 100 65 25 100 65 25 100 65 25 100 65 25 100 65 25 100 65 25 100 65 25 100 65 25 100 65 25 100 65 25 100 65 25 100 65 25 100 65 25 100 65 25 100 65 25 100 65 25 100 65 25 100 65 25 100 65 25 100 65 25 100 65 25 100 65 25 100 65 25 100 65 25 100 65 25 100 65 25 100 65 25 100 65 25 100 65 25 100 65 25 100 65 25 100 65 25 100 65 25 100 65 25 100 65 25 100 65 25 100 65 25 100 65 25 100 65 25 100 65 25 100 65 25 100 65 25 100 65 25 100 65 25 100 65 25 100 65 25 100 65 25 100 65 25 100 65 25 100 65 25 100 65 25 100 65 25 100 65 25 100 65 25 100 65 25 100 65 25 100 65 25 100 65 25 100 65 25 100 65 25 100 65 25 100 65 25 100 65 25 100 65 25 100 65 25 100 65 25 100 65 25 100 65 25 100 65 25 100 65 25 100 65 25 100 65 25 100 65 25 100 65 25 100 65 25 100 65 25 100 65 25 100 65 25 100 65 25 100 65 25 100 65 25 100 65 25 100 65 25 100 65 25 100 65 25 100 65 25 100 65 25 100 65 25 100 65 25 100 65 25 100 65 25 100 65 25 100 65 25 100 65 25 100 65 25 100 65 25 100 65 25 100 65 25 100 65 25 100 65 25 100 65 25 100 65 25 100 65 25 100 65 25 100 65 25 100 65 25 100 65 25 100 65 25 100 65 25 100 65 25 100 65 25 100 65 25 100 65 25 100 65 25 100 65 25 100 65 25 100 65 25 100 65 25 100 65 25 100 65 25 100 65 25 100 65 25 100 65 25 100 65 25 100 65 25 100 65 25 100 65 25 100 65 25 100 65 25 100 65 25 100 65 25 100 65 25 100 65 25 100 65 25 100 65 25 100 65 25 100 65 25 100 65 25 100 65 25 100 65 25 100 65 25 100 65 25 100 65 25 100 65 25 100 65 25 100 65 25 100 65 25 100 65 25 100 65 25 100 65 25 100 65 25 100 65 25 100 65 25 100 65 25 100 65 25 100 65 25 100 65 25 100 65 25 100 65 25 100 65 25 100 65 25 100 65 25 100 65 25 100 65 25 100 65 25 100 65 25 100 65 25 100 65 25 100 65 25 100 65 25 100 65 25 100 65 25 100 65 25 100 65 25 100 65 25 100 65 25 100 65 25 100 65 25 100 65 25 100 65 25 100 65 25 100 65 25 100 65 25 100 65 25 100 65 25 100 65 25 100 65 25 100 65 25 100 65 25 100 65 25 100 65 25 100 65 25 100 65 25 100 65 25 100 65 25 100 65 25 100 65 25 100 65 25 100 65 25 100 65 25 100 65 25 100 65 25 100 65 25 100 65 25 100 65 25 100 65 25 100 65 25 100 65 25 100 65 25 100 65 25 100 65 25 100 65 25 100 65 25 100 65 25 100 65 25 100 65 25 100 65 25 100 65 25 100 65 25 100 65 25 100 65 25 100 65 25 100 65 25 100 65 25 100 65 25 100 65 25 100 65 25 100 65 25 100 65 25 100 65 25 100 65 25 100 65 25 100 65 25 100 65 25 100 65 25 100 65 25 100 65 25 100 65 25 100 65 25 100 65 25 100 65 25 100 65 25 100 65 25 100 65 25 100 65 25 100 65 25 100 65 25 100 65 25 100 65 25 100 65 25 100 65 25 100 65 25 100 65 25 100 65 25 100 65 25 100 65 25 100 65 25 100 65 25 100 65 25 100 65 25 100 65 25 100 65 25 100 65 25 100 65 25 100 65 25 100 65 25 100 65 25 100 65 25 100 65 25 100 65 25 100 65 25 100 65 25 100 65 25 100 65 25 100 65 25 100 65 25 100 65 25 100 65 25 100 65 25 100 65 25 100 65 25 100 65 25 100 65 25 100 65 25 100 65 25 100 65 25 100 65 25 100 65 25 100 65 25 100 65 25 100 65 25 100 65 25 100 65 25 100 65 25 100 65 25 100 65 25 100 65 25 100 65 25 100 65 25 100 65 25 100 65 25 100 65
25 100 65 25 100 65 25 100 65 25 100 65 25 100 65 25 100 65 25 100 65 25 100 65 25 100 65 25 100 65 25 100 65 25 100 65 25 100 65 25 100 65 25 100 65 25 100 65 25 100 65 25 100 65 25 100 65 25 100 65 25 100 65 25 100 65 25 100 65 25 100 65 25 100 65 25 100 65 25 100 65 25 100 65 25 100 65 25 100 65 25 100 65 25 100 65 25 100 65 25 100 65 25 100 65 25 100 65 25 100 65 25 100 65 25 100 65 25 100 65 25 100 65 25 100 65 25 100 65 25 100 65 25 100 65 25 100 65 25 100 65 25 100 65 25 100 65 25 100 65 25 100 65 25 100 65 25 100 65 25 100 65 25 100 65 25 100 65 25 100 65 25 100 65 25 100 65 25 100 65 25 100 65 25 100 65 25 100 65 25 100 65 25 100 65 25 100 65 25 100 65 25 100 65 25 100 65 25 100 65 25 100 65 25 100 65 25 100 65 25 100 65 25 100 65 25 100 65 25 100 65 25 100 65 25 100 65 25 100 65 25 100 65 25 100 65 25 100 65 25 100 65 25 100 65 25 100 65 25 100 65 25 100 65 25 100 65 25 100 65 25 100 65 25 100 65 25 100 65 25 100 65 25 100 65 25 100 65 25 100 65 25 100 65 25 100 65 25 100 65 25 100 65 25 100 65 25 100 65 25 100 65 25 100 65 25 100 65 25 100 65 25 100 65 25 100 65 25 100 65 25 100 65 25 100 65 25 100 65 25 100 65 25 100 65 25 100 65 25 100 65 25 100 65 25 100 65 25 100 65 25 100 65 25 100 65 25 100 65 25 100 65 25 100 65 25 100 65 25 100 65 25 100 65 25 100 65 25 100 65 25 100 65 25 100 65 25 100 65 25 100 65 25 100 65 25 100 65 25 100 65 25 100 65 25 100 65 25 100 65 25 100 65 25 100 65 25 100 65 25 100 65 25 100 65 25 100 65 25 100 65 25 100 65 25 100 65 25 100 65 25 100 65 25 100 65 25 100 65 25 100 65 25 100 65 25 100 65 25 100 65 25 100 65 25 100 65 25 100 65 25 100 65 25 100 65 25 100 65 25 100 65 25 100 65 25 100 65 25 100 65 25 100 65 25 100 65 25 100 65 25 100 65 25 100 65 25 100 65 25 100 65 25 100 65 25 100 65 25 100 65 25 100 65 25 100 65 25 100 65 25 100 65 25 100 65 25 100 65 25 100 65 25 100 65 25 100 65 25 100 65 25 100 65 25 100 65 25 100 65 25 100 65 25 100 65 25 100 65 25 100 65 25 100 65 25 100 65 25 100 65 25 100 65 25 100 65 25 100 65 25 100 65 25 100 65 25 100 65 25 100 65 25 100 65 25 100 65 25 100 65 25 100 65 25 100 65 25 100 65 25 100 65 25 100 65 25 100 65 25 100 65 25 100 65 25 100 65 25 100 65 25 100 65 25 100 65 25 100 65 25 100 65 25 100 65 25 100 65 25 100 65 25 100 65 25 100 65 25 100 65 25 100 65 25 100 65 25 100 65 25 100 65 25 100 65 25 100 65 25 100 65 25 100 65 25 100 65 25 100 65 25 100 65 25 100 65 25 100 65 25 100 65 25 100 65 25 100 65 25 100 65 25 100 65 25 100 65 25 100 65 25 100 65 25 100 65 25 100 65 25 100 65 25 100 65 25 100 65 25 100 65 25 100 65 25 100 65 25 100 65 25 100 65 25 100 65 25 100 65 25 100 65 25 100 65 25 100 65 25 100 65 25 100 65 25 100 65 25 100 65 25 100 65 25 100 65 25 100 65 25 100 65 25 100 65 25 100 65 25 100 65 25 100 65 25 100 65 25 100 65 25 100 65 25 100 65 25 100 65 25 100 65 25 100 65 25 100 65 25 100 65 25 100 65 25 100 65 25 100 65 25 100 65 25 100 65 25 100 65 25 100 65 25 100 65 25 100 65 25 100 65 25 100 65 25 100 65 25 100 65 25 100 65 25 100 65 25 100 65 25 100 65 25 100 65 25 100 65 25 100 65 25 100 65 25 100 65 25 100 65 25 100 65 25 100 65 25 100 65 25 100 65 25 100 65 25 100 65 25 100 65 25 100 65 25 100 65 25 100 65 25 100 65 25 100 65 25 100 65
25 100 65 25 100 65 25 100 65 25 100 65 25 100 65 25 100 65 25 100 65 25 100 65 25 100 65 25 100 65 25 100 65 25 100 65 25 100 65 25 100 65 25 100 65 25 100 65 25 100 65 25 100 65 25 100 65 25 100 65 25 100 65 25 100 65 25 100 65 25 100 65 25 100 65 25 100 65 25 100 65 25 100 65 25 100 65 25 100 65 25 100 65 25 100 65 25 100 65 25 100 65 25 100 65 25 100 65 25 100 65 25 100 65 25 100 65 25 100 65 25 100 65 25 100 65 25 100 65 25 100 65 25 100 65 25 100 65 25 100 65 25 100 65 25 100 65 25 100 65 25 100 65 25 100 65 25 100 65 25 100 65 25 100 65 25 100 65 25 100 65 25 100 65 25 100 65 25 100 65 25 100 65 25 100 65 25 100 65 25 100 65 25 100 65 25 100 65 25 100 65 25 100 65 25 100 65 25 100 65 25 100 65 25 100 65 25 100 65 25 100 65 25 100 65 25 100 65 25 100 65 25 100 65 25 100 65 25 100 65 25 100 65 25 100 65 25 100 65 25 100 65 25 100 65 25 100 65 25 100 65 25 100 65 25 100 65 25 100 65 25 100 65 25 100 65 25 100 65 25 100 65 25 100 65 25 100 65 25 100 65 25 100 65 25 100 65 25 100 65 25 100 65 25 100 65 25 100 65 25 100 65 25 100 65 25 100 65 25 100 65 25 100 65 25 100 65 25 100 65 25 100 65 25 100 65 25 100 65 25 100 65 25 100 65 25 100 65 25 100 65 25 100 65 25 100 65 25 100 65 25 100 65 25 100 65 25 100 65 25 100 65 25 100 65 25 100 65 25 100 65 25 100 65 25 100 65 25 100 65 25 100 65 25 100 65 25 100 65 25 100 65 25 100 65 25 100 65 25 100 65 25 100 65 25 100 65 25 100 65 25 100 65 25 100 65 25 100 65 25 100 65 25 100 65 25 100 65 25 100 65 25 100 65 25 100 65 25 100 65 25 100 65 25 100 65 25 100 65 25 100 65 25 100 65 25 100 65 25 100 65 25 100 65 25 100 65 25 100 65 25 100 65 25 100 65 25 100 65 25 100 65 25 100 65 25 100 65 25 100 65 25 100 65 25 100 65 25 100 65 25 100 65 25 100 65 25 100 65 25 100 65 25 100 65 25 100 65 25 100 65 25 100 65 25 100 65 25 100 65 25 100 65 25 100 65 25 100 65 25 100 65 25 100 65 25 100 65 25 100 65 25 100 65 25 100 65 25 100 65 25 100 65 230 180 20 230 180 20 25 100 65 25 100 65 25 100 65 25 100 65 25 100 65 25 100 65 25 100 65 25 100 65 25 100 65 25 100 65 25 100 65 25 100 65 25 100 65 25 100 65 25 100 65 25 100 65 25 100 65 25 100 65 25 100 65 25 100 65 25 100 65 25 100 65 25 100 65 25 100 65 25 100 65 25 100 65 25 100 65 25 100 65 25 100 65 25 100 65 25 100 65 25 100 65 25 100 65 25 100 65 25 100 65 25 100 65 25 100 65 25 100 65 25 100 65 25 100 65 25 100 65 25 100 65 25 100 65 25 100 65 25 100 65 25 100 65 25 100 65 25 100 65 25 100 65 25 100 65 25 100 65 25 100 65 25 100 65 25 100 65 25 100 65 25 100 65 25 100 65 25 100 65 25 100 65 25 100 65 25 100 65 25 100 65 25 100 65 25 100 65 25 100 65 25 100 65 25 100 65 25 100 65 25 100 65 25 100 65 25 100 65 25 100 65 25 100 65 25 100 65 25 100 65 25 100 65 25 100 65 25 100 65 25 100 65 25 100 65 25 100 65 25 100 65 25 100 65 25 100 65 25 100 65 25 100 65 25 100 65 25 100 65 25 100 65 25 100 65 25 100 65 25 100 65 25 100 65 25 100 65 25 100 65 25 100 65 25 100 65 25 100 65 25 100 65 25 100 65 25 100 65 25 100 65 25 100 65 25 100 65 25 100 65 25 100 65 25 100 65 25 100 65 25 100 65 25 100 65 25 100 65 25 100 65 25 100 65 25 100 65 25 100 65 25 100 65 25 100 65 25 100 65 25 100 65 25 100 65 25 100 65 25 100 65 25 100 65 25 100 65 25 100 65 25 100 65 25 100 65
25 100 65 25 100 65 25 100 65 25 100 65 25 100 65 25 100 65 25 100 65 25 100 65 25 100 65 25 100 65 25 100 65 25 100 65 25 100 65 25 100 65 25 100 65 25 100 65 25 100 65 25 100 65 25 100 65 25 100 65 25 100 65 25 100 65 25 100 65 25 100 65 25 100 65 25 100 65 25 100 65 25 100 65 25 100 65 25 100 65 25 100 65 25 100 65 25 100 65 25 100 65 25 100 65 25 100 65 25 100 65 25 100 65 25 100 65 25 100 65 25 100 65 25 100 65 25 100 65 25 100 65 25 100 65 25 100 65 25 100 65 25 100 65 25 100 65 25 100 65 25 100 65 25 100 65 25 100 65 25 100 65 25 100 65 25 100 65 25 100 65 25 100 65 25 100 65 25 100 65 25 100 65 25 100 65 25 100 65 25 100 65 25 100 65 25 100 65 25 100 65 25 100 65 25 100 65 25 100 65 25 100 65 25 100 65 25 100 65 25 100 65 25 100 65 25 100 65 25 100 65 25 100 65 25 100 65 25 100 65 25 100 65 25 100 65 25 100 65 25 100 65 25 100 65 25 100 65 25 100 65 25 100 65 25 100 65 25 100 65 25 100 65 25 100 65 25 100 65 25 100 65 25 100 65 25 100 65 25 100 65 25 100 65 25 100 65 25 100 65 25 100 65 25 100 65 25 100 65 25 100 65 25 100 65 25 100 65 25 100 65 25 100 65 25 100 65 25 100 65 25 100 65 25 100 65 25 100 65 25 100 65 25 100 65 25 100 65 25 100 65 25 100 65 25 100 65 25 100 65 25 100 65 25 100 65 25 100 65 25 100 65 25 100 65 25 100 65 25 100 65 25 100 65 25 100 65 25 100 65 25 100 65 25 100 65 25 100 65 25 100 65 25 100 65 25 100 65 25 100 65 25 100 65 25 100 65 25 100 65 25 100 65 25 100 65 25 100 65 25 100 65 25 100 65 25 100 65 25 100 65 25 100 65 25 100 65 25 100 65 25 100 65 25 100 65 25 100 65 25 100 65 25 100 65 25 100 65 25 100 65 25 100 65 25 100 65 25 100 65 25 100 65 25 100 65 25 100 65 25 100 65 25 100 65 25 100 65 25 100 65 25 100 65 25 100 65 25 100 65 25 100 65 25 100 65 25 100 65 25 100 65 25 100 65 25 100 65 25 100 65 25 100 65 25 100 65 25 100 65 25 100 65 25 100 65 25 100 65 25 100 65 25 100 65 25 100 65 25 100 65 25 100 65 25 100 65 230 180 20 230 180 20 230 180 20 230 180 20 230 180 20 230 180 20 25 100 65 25 100 65 25 100 65 25 100 65 25 100 65 25 100 65 25 100 65 25 100 65 25 100 65 25 100 65 25 100 65 25 100 65 25 100 65 25 100 65 25 100 65 25 100 65 25 100 65 25 100 65 25 100 65 25 100 65 25 100 65 25 100 65 25 100 65 25 100 65 25 100 65 25 100 65 25 100 65 25 100 65 25 100 65 25 100 65 25 100 65 25 100 65 25 100 65 25 100 65 25 100 65 25 100 65 25 100 65 25 100 65 25 100 65 25 100 65 25 100 65 25 100 65 25 100 65 25 100 65 25 100 65 25 100 65 25 100 65 25 100 65 25 100 65 25 100 65 25 100 65 25 100 65 25 100 65 25 100 65 25 100 65 25 100 65 25 100 65 25 100 65 25 100 65 25 100 65 25 100 65 25 100 65 25 100 65 25 100 65 25 100 65 25 100 65 25 100 65 25 100 65 25 100 65 25 100 65 25 100 65 25 100 65 25 100 65 25 100 65 25 100 65 25 100 65 25 100 65 25 100 65 25 100 65 25 100 65 25 100 65 25 100 65 25 100 65 25 100 65 25 100 65 25 100 65 25 100 65 25 100 65 25 100 65 25 100 65 25 100 65 25 100 65 25 100 65 25 100 65 25 100 65 25 100 65 25 100 65 25 100 65 25 100 65 25 100 65 25 100 65 25 100 65 25 100 65 25 100 65 25 100 65 25 100 65 25 100 65 25 100 65 25 100 65 25 100 65 25 100 65 25 100 65 25 100 65 25 100 65 25 100 65 25 100 65 25 100 65 25 100 65 25 100 65 25 100 65 25 100 65 25 100 65 25 100 65 25 100 65 25 100 65
25 100 65 25 100 65 25 100 65 25 100 65 25 100 65 25 100 65 25 100 65 25 100 65 25 100 65 25 100 65 25 100 65 25 100 65 25 100 65 25 100 65 25 100 65 25 100 65 25 100 65 25 100 65 25 100 65 25 100 65 25 100 65 25 100 65 25 100 65 25 100 65 25 100 65 25 100 65 25 100 65 25 100 65 25 100 65 25 100 65 25 100 65 25 100 65 25 100 65 25 100 65 25 100 65 25 100 65 25 100 65 25 100 65 25 100 65 25 100 65 25 100 65 25 100 65 25 100 65 25 100 65 25 100 65 25 100 65 25 100 65 25 100 65 25 100 65 25 100 65 25 100 65 25 100 65 25 100 65 25 100 65 25 100 65 25 100 65 25 100 65 25 100 65 25 100 65 25 100 65 25 100 65 25 100 65 25 100 65 25 100 65 25 100 65 25 100 65 25 100 65 25 100 65 25 100 65 25 100 65 25 100 65 25 100 65 25 100 65 25 100 65 25 100 65 25 100 65 25 100 65 25 100 65 25 100 65 25 100 65 25 100 65 25 100 65 25 100 65 25 100 65 25 100 65 25 100 65 25 100 65 25 100 65 25 100 65 25 100 65 25 100 65 25 100 65 25 100 65 25 100 65 25 100 65 25 100 65 25 100 65 25 100 65 25 100 65 25 100 65 25 100 65 25 100 65 25 100 65 25 100 65 25 100 65 25 100 65 25 100 65 25 100 65 25 100 65 25 100 65 25 100 65 25 100 65 25 100 65 25 100 65 25 100 65 25 100 65 25 100 65 25 100 65 25 100 65 25 100 65 25 100 65 25 100 65 25 100 65 25 100 65 25 100 65 25 100 65 25 100 65 25 100 65 25 100 65 25 100 65 25 100 65 25 100 65 25 100 65 25 100 65 25 100 65 25 100 65 25 100 65 25 100 65 25 100 65 25 100 65 25 100 65 25 100 65 25 100 65 25 100 65 25 100 65 25 100 65 25 100 65 25 100 65 25 100 65 25 100 65 25 100 65 25 100 65 25 100 65 25 100 65 25 100 65 25 100 65 25 100 65 25 100 65 25 100 65 25 100 65 25 100 65 25 100 65 25 100 65 25 100 65 25 100 65 25 100 65 25 100 65 25 100 65 25 100 65 25 100 65 25 100 65 25 100 65 25 100 65 25 100 65 25 100 65 25 100 65 25 100 65 25 100 65 25 100 65 25 100 65 25 100 65 25 100 65 25 100 65 25 100 65 25 100 65 25 100 65 25 100 65 25 100 65 230 180 20 230 180 20 230 180 20 230 180 20 230 180 20 230 180 20 230 180 20 230 180 20 25 100 65 25 100 65 25 100 65 25 100 65 25 100 65 25 100 65 25 100 65 25 100 65 25 100 65 25 100 65 25 100 65 25 100 65 25 100 65 25 100 65 25 100 65 25 100 65 25 100 65 25 100 65 25 100 65 25 100 65 25 100 65 25 100 65 25 100 65 25 100 65 25 100 65 25 100 65 25 100 65 25 100 65 25 100 65 25 100 65 25 100 65 25 100 65 25 100 65 25 100 65 25 100 65 25 100 65 25 100 65 25 100 65 25 100 65 25 100 65 25 100 65 25 100 65 25 100 65 25 100 65 25 100 65 25 100 65 25 100 65 25 100 65 25 100 65 25 100 65 25 100 65 25 100 65 25 100 65 25 100 65 25 100 65 25 100 65 25 100 65 25 100 65 25 100 65 25 100 65 25 100 65 25 100 65 25 100 65 25 100 65 25 100 65 25 100 65 25 100 65 25 100 65 25 100 65 25 100 65 25 100 65 25 100 65 25 100 65 25 100 65 25 100 65 25 100 65 25 100 65 25 100 65 25 100 65 25 100 65 25 100 65 25 100 65 25 100 65 25 100 65 25 100 65 25 100 65 25 100 65 25 100 65 25 100 65 25 100 65 25 100 65 25 100 65 25 100 65 25 100 65 25 100 65 25 100 65 25 100 65 25 100 65 25 100 65 25 100 65 25 100 65 25 100 65 25 100 65 25 100 65 25 100 65 25 100 65 25 100 65 25 100 65 25 100 65 25 100 65 25 100 65 25 100 65 25 100 65 25 100 65 25 100 65 25 100 65 25 100 65 25 100 65 25 100 65 25 100 65 25 100 65 25 100 65 25 100 65 25 100 65
25 100 65 25 100 65 25 100 65 25 100 65 25 100 65 25 100 65 25 100 65 25 100 65 25 100 65 25 100 65 25 100 65 25 100 65 25 100 65 25 100 65 25 100 65 25 100 65 25 100 65 25 100 65 25 100 65 25 100 65 25 100 65 25 100 65 25 100 65 25 100 65 25 100 65 25 100 65 25 100 65 25 100 65 25 100 65 25 100 65 25 100 65 25 100 65 25 100 65 25 100 65 25 100 65 25 100 65 25 100 65 25 100 65 25 100 65 25 100 65 25 100 65 25 100 65 25 100 65 25 100 65 25 100 65 25 100 65 25 100 65 25 100 65 25 100 65 25 100 65 25 100 65 25 100 65 25 100 65 25 100 65 25 100 65 25 100 65 25 100 65 25 100 65 25 100 65 25 100 65 25 100 65 25 100 65 25 100 65 25 100 65 25 100 65 25 100 65 25 100 65 25 100 65 25 100 65 25 100 65 25 100 65 25 100 65 25 100 65 25 100 65 25 100 65 25 100 65 25 100 65 25 100 65 25 100 65 25 100 65 25 100 65 25 100 65 25 100 65 25 100 65 25 100 65 25 100 65 25 100 65 25 100 65 25 100 65 25 100 65 25 100 65 25 100 65 25 100 65 25 100 65 25 100 65 25 100 65 25 100 65 25 100 65 25 100 65 25 100 65 25 100 65 25 100 65 25 100 65 25 100 65 25 100 65 25 100 65 25 100 65 25 100 65 25 100 65 25 100 65 25 100 65 25 100 65 25 100 65 25 100 65 25 100 65 25 100 65 25 100 65 25 100 65 25 100 65 25 100 65 25 100 65 25 100 65 25 100 65 25 100 65 25 100 65 25 100 65 25 100 65 25 100 65 25 100 65 25 100 65 25 100 65 25 100 65 25 100 65 25 100 65 25 100 65 25 100 65 25 100 65 25 100 65 25 100 65 25 100 65 25 100 65 25 100 65 25 100 65 25 100 65 25 100 65 25 100 65 25 100 65 25 100 65 25 100 65 25 100 65 25 100 65 25 100 65 25 100 65 25 100 65 25 100 65 25 100 65 25 100 65 25 100 65 25 100 65 25 100 65 25 100 65 25 100 65 25 100 65 25 100 65 25 100 65 25 100 65 25 100 65 25 100 65 25 100 65 25 100 65 25 100 65 25 100 65 25 100 65 25 100 65 25 100 65 25 100 65 25 100 65 25 100 65 25 100 65 25 100 65 25 100 65 25 100 65 25 100 65 25 100 65 25 100 65 25 100 65 25 100 65 25 100 65 230 180 20 230 180 20 230 180 20 230 180 20 230 180 20 230 180 20 230 180 20 230 180 20 25 100 65 25 100 65 25 100 65 25 100 65 25 100 65 25 100 65 25 100 65 25 100 65 25 100 65 25 100 65 25 100 65 25 100 65 25 100 65 25 100 65 25 100 65 25 100 65 25 100 65 25 100 65 25 100 65 25 100 65 25 100 65 25 100 65 25 100 65 25 100 65 25 100 65 25 100 65 25 100 65 25 100 65 25 100 65 25 100 65 25 100 65 25 100 65 25 100 65 25 100 65 25 100 65 25 100 65 25 100 65 25 100 65 25 100 65 25 100 65 25 100 65 25 100 65 25 100 65 25 100 65 25 100 65 25 100 65 25 100 65 25 100 65 25 100 65 25 100 65 25 100 65 25 100 65 25 100 65 25 100 65 25 100 65 25 100 65 25 100 65 25 100 65 25 100 65 25 100 65 25 100 65 25 100 65 25 100 65 25 100 65 25 100 65 25 100 65 25 100 65 25 100 65 25 100 65 25 100 65 25 100 65 25 100 65 25 100 65 25 100 65 25 100 65 25 100 65 25 100 65 25 100 65 25 100 65 25 100 65 25 100 65 25 100 65 25 100 65 25 100 65 25 100 65 25 100 65 25 100 65 25 100 65 25 100 65 25 100 65 25 100 65 25 100 65 25 100 65 25 100 65 25 100 65 25 100 65 25 100 65 25 100 65 25 100 65 25 100 65 25 100 65 25 100 65 25 100 65 25 100 65 25 100 65 25 100 65 25 100 65 25 100 65 25 100 65 25 100 65 25 100 65 25 100 65 25 100 65 25 100 65 25 100 65 25 100 65 25 100 65 25 100 65 25 100 65 25 100 65 25 100 65 25 100 65 25 100 65 25 100 65
25 100 65 25 100 65 25 100 65 25 100 65 25 100 65 25 100 65 25 100 65 25 100 65 25 100 65 25 100 65 25 100 65 25 100 65 25 100 65 25 100 65 25 100 65 25 100 65 25 100 65 25 100 65 25 100 65 25 100 65 25 100 65 25 100 65 25 100 65 25 100 65 25 100 65 25 100 65 25 100 65 25 100 65 25 100 65 25 100 65 25 100 65 25 100 65 25 100 65 25 100 65 25 100 65 25 100 65 25 100 65 25 100 65 25 100 65 25 100 65 25 100 65 25 100 65 25 100 65 25 100 65 25 100 65 25 100 65 25 100 65 25 100 65 25 100 65 25 100 65 25 100 65 25 100 65 25 100 65 25 100 65 25 100 65 25 100 65 25 100 65 25 100 65 25 100 65 25 100 65 25 100 65 25 100 65 25 100 65 25 100 65 25 100 65 25 100 65 25 100 65 25 100 65 25 100 65 25 100 65 25 100 65 25 100 65 25 100 65 25 100 65 25 100 65 25 100 65 25 100 65 25 100 65 25 100 65 25 100 65 25 100 65 25 100 65 25 100 65 25 100 65 25 100 65 25 100 65 25 100 65 25 100 65 25 100 65 25 100 65 25 100 65 25 100 65 25 100 65 25 100 65 25 100 65 25 100 65 25 100 65 25 100 65 25 100 65 25 100 65 25 100 65 25 100 65 25 100 65 25 100 65 25 100 65 25 100 65 25 100 65 25 100 65 25 100 65 25 100 65 25 100 65 25 100 65 25 100 65 25 100 65 25 100 65 25 100 65 25 100 65 25 100 65 25 100 65 25 100 65 25 100 65 25 100 65 25 100 65 25 100 65 25 100 65 25 100 65 25 100 65 25 100 65 25 100 65 25 100 65 25 100 65 25 100 65 25 100 65 25 100 65 25 100 65 25 100 65 25 100 65 25 100 65 25 100 65 25 100 65 25 100 65 25 100 65 25 100 65 25 100 65 25 100 65 25 100 65 25 100 65 25 100 65 25 100 65 25 100 65 25 100 65 25 100 65 25 100 65 25 100 65 25 100 65 25 100 65 25 100 65 25 100 65 25 100 65 25 100 65 25 100 65 25 100 65 25 100 65 25 100 65 25 100 65 25 100 65 25 100 65 25 100 65 25 100 65 25 100 65 25 100 65 25 100 65 25 100 65 25 100 65 25 100 65 25 100 65 25 100 65 25 100 65 25 100 65 25 100 65 25 100 65 25 100 65 25 100 65 25 100 65 25 100 65 25 100 65 25 100 65 230 180 20 230 180 20 230 180 20 230 180 20 230 180 20 230 180 20 230 180 20 230 180 20 230 180 20 230 180 20 25 100 65 25 100 65 25 100 65 25 100 65 25 100 65 25 100 65 25 100 65 25 100 65 25 100 65 25 100 65 25 100 65 25 100 65 25 100 65 25 100 65 25 100 65 25 100 65 25 100 65 25 100 65 25 100 65 25 100 65 25 100 65 25 100 65 25 100 65 25 100 65 25 100 65 25 100 65 25 100 65 25 100 65 25 100 65 25 100 65 25 100 65 25 100 65 25 100 65 25 100 65 25 100 65 25 100 65 25 100 65 25 100 65 25 100 65 25 100 65 25 100 65 25 100 65 25 100 65 25 100 65 25 100 65 25 100 65 25 100 65 25 100 65 25 100 65 25 100 65 25 100 65 25 100 65 25 100 65 25 100 65 25 100 65 25 100 65 25 100 65 25 100 65 25 100 65 25 100 65 25 100 65 25 100 65 25 100 65 25 100 65 25 100 65 25 100 65 25 100 65 25 100 65 25 100 65 25 100 65 25 100 65 25 100 65 25 100 65 25 100 65 25 100 65 25 100 65 25 100 65 25 100 65 25 100 65 25 100 65 25 100 65 25 100 65 25 100 65 25 100 65 25 100 65 25 100 65 25 100 65 25 100 65 25 100 65 25 100 65 25 100 65 25 100 65 25 100 65 25 100 65 25 100 65 25 100 65 25 100 65 25 100 65 25 100 65 25 100 65 25 100 65 25 100 65 25 100 65 25 100 65 25 100 65 25 100 65 25 100 65 25 100 65 25 100 65 25 100 65 25 100 65 25 100 65 25 100 65 25 100 65 25 100 65 25 100 65 25 100 65 25 100 65 25 100 65 25 100 65 25 100 65 25 100 65 25 100 65
25 100 65 25 100 65 25 100 65 25 100 65 25 100 65 25 100 65 25 100 65 25 100 65 25 100 65 25 100 65 25 100 65 25 100 65 25 100 65 25 100 65 25 100 65 25 100 65 25 100 65 25 100 65 25 100 65 25 100 65 25 100 65 25 100 65 25 100 65 25 100 65 25 100 65 25 100 65 25 100 65 25 100 65 25 100 65 25 100 65 25 100 65 25 100 65 25 100 65 25 100 65 25 100 65 25 100 65 25 100 65 25 100 65 25 100 65 25 100 65 25 100 65 25 100 65 25 100 65 25 100 65 25 100 65 25 100 65 25 100 65 25 100 65 25 100 65 25 100 65 25 100 65 25 100 65 25 100 65 25 100 65 25 100 65 25 100 65 25 100 65 25 100 65 25 100 65 25 100 65 25 100 65 25 100 65 25 100 65 25 100 65 25 100 65 25 100 65 25 100 65 25 100 65 25 100 65 25 100 65 25 100 65 25 100 65 25 100 65 25 100 65 25 100 65 25 100 65 25 100 65 25 100 65 25 100 65 25 100 65 25 100 65 25 100 65 25 100 65 25 100 65 25 100 65 25 100 65 25 100 65 25 100 65 25 100 65 25 100 65 25 100 65 25 100 65 25 100 65 25 100 65 25 100 65 25 100 65 25 100 65 25 100 65 25 100 65 25 100 65 25 100 65 25 100 65 25 100 65 25 100 65 25 100 65 25 100 65 25 100 65 25 100 65 25 100 65 25 100 65 25 100 65 25 100 65 25 100 65 25 100 65 25 100 65 25 100 65 25 100 65 25 100 65 25 100 65 25 100 65 25 100 65 25 100 65 25 100 65 25 100 65 25 100 65 25 100 65 25 100 65 25 100 65 25 100 65 25 100 65 25 100 65 25 100 65 25 100 65 25 100 65 25 100 65 25 100 65 25 100 65 25 100 65 25 100 65 25 100 65 25 100 65 25 100 65 25 100 65 25 100 65 25 100 65 25 100 65 25 100 65 25 100 65 25 100 65 25 100 65 25 100 65 25 100 65 25 100 65 25 100 65 25 100 65 25 100 65 25 100 65 25 100 65 25 100 65 25 100 65 25 100 65 25 100 65 25 100 65 25 100 65 25 100 65 25 100 65 25 100 65 25 100 65 25 100 65 25 100 65 25 100 65 25 100 65 25 100 65 25 100 65 25 100 65 25 100 65 25 100 65 25 100 65 25 100 65 25 100 65 25 100 65 25 100 65 25 100 65 25 100 65 25 100 65 25 100 65 25 100 65 230 180 20 230 180 20 230 180 20 230 180 20 230 180 20 230 180 20 230 180 20 230 180 20 230 180 20 230 180 20 25 100 65 25 100 65 25 100 65 25 100 65 25 100 65 25 100 65 25 100 65 25 100 65 25 100 65 25 100 65 25 100 65 25 100 65 25 100 65 25 100 65 25 100 65 25 100 65 25 100 65 25 100 65 25 100 65 25 100 65 25 100 65 25 100 65 25 100 65 25 100 65 25 100 65 25 100 65 25 100 65 25 100 65 25 100 65 25 100 65 25 100 65 25 100 65 25 100 65 25 100 65 25 100 65 25 100 65 25 100 65 25 100 65 25 100 65 25 100 65 25 100 65 25 100 65 25 100 65 25 100 65 25 100 65 25 100 65 25 100 65 25 100 65 25 100 65 25 100 65 25 100 65 25 100 65 25 100 65 25 100 65 25 100 65 25 100 65 25 100 65 25 100 65 25 100 65 25 100 65 25 100 65 25 100 65 25 100 65 25 100 65 25 100 65 25 100 65 25 100 65 25 100 65 25 100 65 25 100 65 25 100 65 25 100 65 25 100 65 25 100 65 25 100 65 25 100 65 25 100 65 25 100 65 25 100 65 25 100 65 25 100 65 25 100 65 25 100 65 25 100 65 25 100 65 25 100 65 25 100 65 25 100 65 25 100 65 25 100 65 25 100 65 25 100 65 25 100 65 25 100 65 25 100 65 25 100 65 25 100 65 25 100 65 25 100 65 25 100 65 25 100 65 25 100 65 25 100 65 25 100 65 25 100 65 25 100 65 25 100 65 25 100 65 25 100 65 25 100 65 25 100 65 25 100 65 25 100 65 25 100 65 25 100 65 25 100 65 25 100 65 25 100 65 25 100 65 25 100 65 25 100 65 25 100 65 25 100 65
25 100 65 25 100 65 25 100 65 25 100 65 25 100 65 25 100 65 25 100 65 25 100 65 25 100 65 25 100 65 25 100 65 25 100 65 25 100 65 25 100 65 25 100 65 25 100 65 25 100 65 25 100 65 25 100 65 25 100 65 25 100 65 25 100 65 25 100 65 25 100 65 25 100 65 25 100 65 25 100 65 25 100 65 25 100 65 25 100 65 25 100 65 25 100 65 25 100 65 25 100 65 25 100 65 25 100 65 25 100 65 25 100 65 25 100 65 25 100 65 25 100 65 25 100 65 25 100 65 25 100 65 25 100 65 25 100 65 25 100 65 25 100 65 25 100 65 25 100 65 25 100 65 25 100 65 25 100 65 25 100 65 25 100 65 25 100 65 25 100 65 25 100 65 25 100 65 25 100 65 25 100 65 25 100 65 25 100 65 25 100 65 25 100 65 25 100 65 25 100 65 25 100 65 25 100 65 25 100 65 25 100 65 25 100 65 25 100 65 25 100 65 25 100 65 25 100 65 25 100 65 25 100 65 25 100 65 25 100 65 25 100 65 25 100 65 25 100 65 25 100 65 25 100 65 25 100 65 25 100 65 25 100 65 25 100 65 25 100 65 25 100 65 25 100 65 25 100 65 25 100 65 25 100 65 25 100 65 25 100 65 25 100 65 25 100 65 25 100 65 25 100 65 25 100 65 25 100 65 25 100 65 25 100 65 25 100 65 25 100 65 25 100 65 25 100 65 25 100 65 25 100 65 25 100 65 25 100 65 25 100 65 25 100 65 25 100 65 25 100 65 25 100 65 25 100 65 25 100 65 25 100 65 25 100 65 25 100 65 25 100 65 25 100 65 25 100 65 25 100 65 25 100 65 25 100 65 25 100 65 25 100 65 25 100 65 25 100 65 25 100 65 25 100 65 25 100 65 25 100 65 25 100 65 25 100 65 25 100 65 25 100 65 25 100 65 25 100 65 25 100 65 25 100 65 25 100 65 25 100 65 25 100 65 25 100 65 25 100 65 25 100 65 25 100 65 25 100 65 25 100 65 25 100 65 25 100 65 25 100 65 25 100 65 25 100 65 25 100 65 25 100 65 25 100 65 25 100 65 25 100 65 25 100 65 25 100 65 25 100 65 25 100 65 25 100 65 25 100 65 25 100 65 25 100 65 25 100 65 25 100 65 25 100 65 25 100 65 25 100 65 25 100 65 25 100 65 25 100 65 25 100 65 25 100 65 25 100 65 25 100 65 25 100 65 25 100 65 25 100 65 25 100 65 230 180 20 230 180 20 230 180 20 230 180 20 230 180 20 230 180 20 230 180 20 230 180 20 25 100 65 25 100 65 25 100 65 25 100 65 25 100 65 25 100 65 25 100 65 25 100 65 25 100 65 25 100 65 25 100 65 25 100 65 25 100 65 25 100 65 25 100 65 25 100 65 25 100 65 25 100 65 25 100 65 25 100 65 25 100 65 25 100 65 25 100 65 25 100 65 25 100 65 25 100 65 25 100 65 25 100 65 25 100 65 25 100 65 25 100 65 25 100 65 25 100 65 25 100 65 25 100 65 25 100 65 25 100 65 25 100 65 25 100 65 25 100 65 25 100 65 25 100 65 25 100 65 25 100 65 25 100 65 25 100 65 25 100 65 25 100 65 25 100 65 25 100 65 25 100 65 25 100 65 25 100 65 25 100 65 25 100 65 25 100 65 25 100 65 25 100 65 25 100 65 25 100 65 25 100 65 25 100 65 25 100 65 25 100 65 25 100 65 25 100 65 25 100 65 25 100 65 25 100 65 25 100 65 25 100 65 25 100 65 25 100 65 25 100 65 25 100 65 25 100 65 25 100 65 25 100 65 25 100 65 25 100 65 25 100 65 25 100 65 25 100 65 25 100 65 25 100 65 25 100 65 25 100 65 25 100 65 25 100 65 25 100 65 25 100 65 25 100 65 25 100 65 25 100 65 25 100 65 25 100 65 25 100 65 25 100 65 25 100 65 25 100 65 25 100 65 25 100 65 25 100 65 25 100 65 25 100 65 25 100 65 25 100 65 25 100 65 25 100 65 25 100 65 25 100 65 25 100 65 25 100 65 25 100 65 25 100 65 25 100 65 25 100 65 25 100 65 25 100 65 25 100 65 25 100 65 25 100 65 25 100 65 25 100 65
25 100 65 25 100 65 25 100 65 25 100 65 25 100 65 25 100 65 25 100 65 25 100 65 25 100 65 25 100 65 25 100 65 25 100 65 25 100 65 25 100 65 25 100 65 25 100 65 25 100 65 25 100 65 25 100 65 25 100 65 25 100 65 25 100 65 25 100 65 25 100 65 25 100 65 25 100 65 25 100 65 25 100 65 25 100 65 25 100 65 25 100 65 25 100 65 25 100 65 25 100 65 25 100 65 25 100 65 25 100 65 25 100 65 25 100 65 25 100 65 25 100 65 25 100 65 25 100 65 25 100 65 25 100 65 25 100 65 25 100 65 25 100 65 25 100 65 25 100 65 25 100 65 25 100 65 25 100 65 25 100 65 25 100 65 25 100 65 25 100 65 25 100 65 25 100 65 25 100 65 25 100 65 25 100 65 25 100 65 25 100 65 25 100 65 25 100 65 25 100 65 25 100 65 25 100 65 25 100 65 25 100 65 25 100 65 25 100 65 25 100 65 25 100 65 25 100 65 25 100 65 25 100 65 25 100 65 25 100 65 25 100 65 25 100 65 25 100 65 25 100 65 25 100 65 25 100 65 25 100 65 25 100 65 25 100 65 25 100 65 25 100 65 25 100 65 25 100 65 25 100 65 25 100 65 25 100 65 25 100 65 25 100 65 25 100 65 25 100 65 25 100 65 25 100 65 25 100 65 25 100 65 25 100 65 25 100 65 25 100 65 25 100 65 25 100 65 25 100 65 25 100 65 25 100 65 25 100 65 25 100 65 25 100 65 25 100 65 25 100 65 25 100 65 25 100 65 25 100 65 25 100 65 25 100 65 25 100 65 25 100 65 25 100 65 25 100 65 25 100 65 25 100 65 25 100 65 25 100 65 25 100 65 25 100 65 25 100 65 25 100 65 25 100 65 25 100 65 25 100 65 25 100 65 25 100 65 25 100 65 25 100 65 25 100 65 25 100 65 25 100 65 25 100 65 25 100 65 25 100 65 25 100 65 25 100 65 25 100 65 25 100 65 25 100 65 25 100 65 25 100 65 25 100 65 25 100 65 25 100 65 25 100 65 25 100 65 25 100 65 25 100 65 25 100 65 25 100 65 25 100 65 25 100 65 25 100 65 25 100 65 25 100 65 25 100 65 25 100 65 25 100 65 25 100 65 25 100 65 25 100 65 25 100 65 25 100 65 25 100 65 25 100 65 25 100 65 25 100 65 25 100 65 25 100 65 25 100 65 25 100 65 25 100 65 25 100 65 25 100 65 25 100 65 230 180 20 230 180 20 230 180 20 230 180 20 230 180 20 230 180 20 230 180 20 230 180 20 25 100 65 25 100 65 25 100 65 25 100 65 25 100 65 25 100 65 25 100 65 25 100 65 25 100 65 25 100 65 25 100 65 25 100 65 25 100 65 25 100 65 25 100 65 25 100 65 25 100 65 25 100 65 25 100 65 25 100 65 25 100 65 25 100 65 25 100 65 25 100 65 25 100 65 25 100 65 25 100 65 25 100 65 25 100 65 25 100 65 25 100 65 25 100 65 25 100 65 25 100 65 25 100 65 25 100 65 25 100 65 25 100 65 25 100 65 25 100 65 25 100 65 25 100 65 25 100 65 25 100 65 25 100 65 25 100 65 25 100 65 25 100 65 25 100 65 25 100 65 25 100 65 25 100 65 25 100 65 25 100 65 25 100 65 25 100 65 25 100 65 25 100 65 25 100 65 25 100 65 25 100 65 25 100 65 25 100 65 25 100 65 25 100 65 25 100 65 25 100 65 25 100 65 25 100 65 25 100 65 25 100 65 25 100 65 25 100 65 25 100 65 25 100 65 25 100 65 25 100 65 25 100 65 25 100 65 25 100 65 25 100 65 25 100 65 25 100 65 25 100 65 25 100 65 25 100 65 25 100 65 25 100 65 25 100 65 25 100 65 25 100 65 25 100 65 25 100 65 25 100 65 25 100 65 25 100 65 25 100 65 25 100 65 25 100 65 25 100 65 25 100 65 25 100 65 25 100 65 25 100 65 25 100 65 25 100 65 25 100 65 25 100 65 25 100 65 25 100 65 25 100 65 25 100 65 25 100 65 25 100 65 25 100 65 25 100 65 25 100 65 25 100 65 25 100 65 25 100 65 25 100 65 25 100 65 25 100 65 25 100 65
25 100 65 25 100 65 25 100 65 25 100 65 25 100 65 25 100 65 25 100 65 25 100 65 25 100 65 25 100 65 25 100 65 25 100 65 25 100 65 25 100 65 25 100 65 25 100 65 25 100 65 25 100 65 25 100 65 25 100 65 25 100 65 25 100 65 25 100 65 25 100 65 25 100 65 25 100 65 25 100 65 25 100 65 25 100 65 25 100 65 25 100 65 25 100 65 25 100 65 25 100 65 25 100 65 25 100 65 25 100 65 25 100 65 25 100 65 25 100 65 25 100 65 25 100 65 25 100 65 25 100 65 25 100 65 25 100 65 25 100 65 25 100 65 25 100 65 25 100 65 25 100 65 25 100 65 25 100 65 25 100 65 25 100 65 25 100 65 25 100 65 25 100 65 25 100 65 25 100 65 25 100 65 25 100 65 25 100 65 25 100 65 25 100 65 25 100 65 25 100 65 25 100 65 25 100 65 25 100 65 25 100 65 25 100 65 25 100 65 25 100 65 25 100 65 25 100 65 25 100 65 25 100 65 25 100 65 25 100 65 25 100 65 25 100 65 25 100 65 25 100 65 25 100 65 25 100 65 25 100 65 25 100 65 25 100 65 25 100 65 25 100 65 25 100 65 25 100 65 25 100 65 25 100 65 25 100 65 25 100 65 25 100 65 25 100 65 25 100 65 25 100 65 25 100 65 25 100 65 25 100 65 25 100 65 25 100 65 25 100 65 25 100 65 25 100 65 25 100 65 25 100 65 25 100 65 25 100 65 25 100 65 25 100 65 25 100 65 25 100 65 25 100 65 25 100 65 25 100 65 25 100 65 25 100 65 25 100 65 25 100 65 25 100 65 25 100 65 25 100 65 25 100 65 25 100 65 25 100 65 25 100 65 25 100 65 25 100 65 25 100 65 25 100 65 25 100 65 25 100 65 25 100 65 25 100 65 25 100 65 25 100 65 25 100 65 25 100 65 25 100 65 25 100 65 25 100 65 25 100 65 25 100 65 25 100 65 25 100 65 25 100 65 25 100 65 25 100 65 25 100 65 25 100 65 25 100 65 25 100 65 25 100 65 25 100 65 25 100 65 25 100 65 25 100 65 25 100 65 25 100 65 25 100 65 25 100 65 25 100 65 25 100 65 25 100 65 25 100 65 25 100 65 25 100 65 25 100 65 25 100 65 25 100 65 25 100 65 25 100 65 25 100 65 25 100 65 25 100 65 25 100 65 25 100 65 25 100 65 25 100 65 25 100 65 25 100 65 25 100 65 25 100 65 25 100 65 230 180 20 230 180 20 230 180 20 230 180 20 230 180 20 230 180 20 25 100 65 25 100 65 25 100 65 25 100 65 25 100 65 25 100 65 25 100 65 25 100 65 25 100 65 25 100 65 25 100 65 25 100 65 25 100 65 25 100 65 25 100 65 25 100 65 25 100 65 25 100 65 25 100 65 25 100 65 25 100 65 25 100 65 25 100 65 25 100 65 25 100 65 25 100 65 25 100 65 25 100 65 25 100 65 25 100 65 25 100 65 25 100 65 25 100 65 25 100 65 25 100 65 25 100 65 25 100 65 25 100 65 25 100 65 25 100 65 25 100 65 25 100 65 25 100 65 25 100 65 25 100 65 25 100 65 25 100 65 25 100 65 25 100 65 25 100 65 25 100 65 25 100 65 25 100 65 25 100 65 25 100 65 25 100 65 25 100 65 25 100 65 25 100 65 25 100 65 25 100 65 25 100 65 25 100 65 25 100 65 25 100 65 25 100 65 25 100 65 25 100 65 25 100 65 25 100 65 25 100 65 25 100 65 25 100 65 25 100 65 25 100 65 25 100 65 25 100 65 25 100 65 25 100 65 25 100 65 25 100 65 25 100 65 25 100 65 25 100 65 25 100 65 25 100 65 25 100 65 25 100 65 25 100 65 25 100 65 25 100 65 25 100 65 25 100 65 25 100 65 25 100 65 25 100 65 25 100 65 25 100 65 25 100 65 25 100 65 25 100 65 25 100 65 25 100 65 25 100 65 25 100 65 25 100 65 25 100 65 25 100 65 25 100 65 25 100 65 25 100 65 25 100 65 25 100 65 25 100 65 25 100 65 25 100 65 25 100 65 25 100 65 25 100 65 25 100 65 25 100 65 25 100 65 25 100 65 25 100 65 25 100 65
25 100 65 25 100 65 25 100 65 25 100 65 25 100 65 25 100 65 25 100 65 25 100 65 25 100 65 25 100 65 25 100 65 25 100 65 25 100 65 25 100 65 25 100 65 25 100 65 25 100 65 25 100 65 25 100 65 25 100 65 25 100 65 25 100 65 25 100 65 25 100 65 25 100 65 25 100 65 25 100 65 25 100 65 25 100 65 25 100 65 25 100 65 25 100 65 25 100 65 25 100 65 25 100 65 25 100 65 25 100 65 25 100 65 25 100 65 25 100 65 25 100 65 25 100 65 25 100 65 25 100 65 25 100 65 25 100 65 25 100 65 25 100 65 25 100 65 25 100 65 25 100 65 25 100 65 25 100 65 25 100 65 25 100 65 25 100 65 25 100 65 25 100 65 25 100 65 25 100 65 25 100 65 25 100 65 25 100 65 25 100 65 25 100 65 25 100 65 25 100 65 25 100 65 25 100 65 25 100 65 25 100 65 25 100 65 25 100 65 25 100 65 25 100 65 25 100 65 25 100 65 25 100 65 25 100 65 25 100 65 25 100 65 25 100 65 25 100 65 25 100 65 25 100 65 25 100 65 25 100 65 25 100 65 25 100 65 25 100 65 25 100 65 25 100 65 25 100 65 25 100 65 25 100 65 25 100 65 25 100 65 25 100 65 25 100 65 25 100 65 25 100 65 25 100 65 25 100 65 25 100 65 25 100 65 25 100 65 25 100 65 25 100 65 25 100 65 25 100 65 25 100 65 25 100 65 25 100 65 25 100 65 25 100 65 25 100 65 25 100 65 25 100 65 25 100 65 25 100 65 25 100 65 25 100 65 25 100 65 25 100 65 25 100 65 25 100 65 25 100 65 25 100 65 25 100 65 25 100 65 25 100 65 25 100 65 25 100 65 25 100 65 25 100 65 25 100 65 25 100 65 25 100 65 25 100 65 25 100 65 25 100 65 25 100 65 25 100 65 25 100 65 25 100 65 25 100 65 25 100 65 25 100 65 25 100 65 25 100 65 25 100 65 25 100 65 25 100 65 25 100 65 25 100 65 25 100 65 25 100 65 25 100 65 25 100 65 25 100 65 25 100 65 25 100 65 25 100 65 25 100 65 25 100 65 25 100 65 25 100 65 25 100 65 25 100 65 25 100 65 25 100 65 25 100 65 25 100 65 25 100 65 25 100 65 25 100 65 25 100 65 25 100 65 25 100 65 25 100 65 25 100 65 25 100 65 25 100 65 25 100 65 25 100 65 25 100 65 25 100 65 25 100 65 25 100 65 25 100 65 25 100 65 230 180 20 230 180 20 25 100 65 25 100 65 25 100 65 25 100 65 25 100 65 25 100 65 25 100 65 25 100 65 25 100 65 25 100 65 25 100 65 25 100 65 25 100 65 25 100 65 25 100 65 25 100 65 25 100 65 25 100 65 25 100 65 25 100 65 25 100 65 25 100 65 25 100 65 25 100 65 25 100 65 25 100 65 25 100 65 25 100 65 25 100 65 25 100 65 25 100 65 25 100 65 25 100 65 25 100 65 25 100 65 25 100 65 25 100 65 25 100 65 25 100 65 25 100 65 25 100 65 25 100 65 25 100 65 25 100 65 25 100 65 25 100 65 25 100 65 25 100 65 25 100 65 25 100 65 25 100 65 25 100 65 25 100 65 25 100 65 25 100 65 25 100 65 25 100 65 25 100 65 25 100 65 25 100 65 25 100 65 25 100 65 25 100 65 25 100 65 25 100 65 25 100 65 25 100 65 25 100 65 25 100 65 25 100 65 25 100 65 25 100 65 25 100 65 25 100 65 25 100 65 25 100 65 25 100 65 25 100 65 25 100 65 25 100 65 25 100 65 25 100 65 25 100 65 25 100 65 25 100 65 25 100 65 25 100 65 25 100 65 25 100 65 25 100 65 25 100 65 25 100 65 25 100 65 25 100 65 25 100 65 25 100 65 25 100 65 25 100 65 25 100 65 25 100 65 25 100 65 25 100 65 25 100 65 25 100 65 25 100 65 25 100 65 25 100 65 25 100 65 25 100 65 25 100 65 25 100 65 25 100 65 25 100 65 25 100 65 25 100 65 25 100 65 25 100 65 25 100 65 25 100 65 25 100 65 25 100 65 25 100 65 25 100 65 25 100 65 25 100 65 25 100 65 25 100 65
25 100 65 25 100 65 25 100 65 25 100 65 25 100 65 25 100 65 25 100 65 25 100 65 25 100 65 25 100 65 25 100 65 25 100 65 25 100 65 25 100 65 25 100 65 25 100 65 25 100 65 25 100 65 25 100 65 25 100 65 25 100 65 25 100 65 25 100 65 25 100 65 25 100 65 25 100 65 25 100 65 25 100 65 25 100 65 25 100 65 25 100 65 25 100 65 25 100 65 25 100 65 25 100 65 25 100 65 25 100 65 25 100 65 25 100 65 25 100 65 25 100 65 25 100 65 25 100 65 25 100 65 25 100 65 25 100 65 25 100 65 25 100 65 25 100 65 25 100 65 25 100 65 25 100 65 25 100 65 25 100 65 25 100 65 25 100 65 25 100 65 25 100 65 25 100 65 25 100 65 25 100 65 25 100 65 25 100 65 25 100 65 25 100 65 25 100 65 25 100 65 25 100 65 25 100 65 25 100 65 25 100 65 25 100 65 25 100 65 25 100 65 25 100 65 25 100 65 25 100 65 25 100 65 25 100 65 25 100 65 25 100 65 25 100 65 25 100 65 25 100 65 25 100 65 25 100 65 25 100 65 25 100 65 25 100 65 25 100 65 25 100 65 25 100 65 25 100 65 25 100 65 25 100 65 25 100 65 25 100 65 25 100 65 25 100 65 25 100 65 25 100 65 25 100 65 25 100 65 25 100 65 25 100 65 25 100 65 25 100 65 25 100 65 25 100 65 25 100 65 25 100 65 25 100 65 25 100 65 25 100 65 25 100 65 25 100 65 25 100 65 25 100 65 25 100 65 25 100 65 25 100 65 25 100 65 25 100 65 25 100 65 25 100 65 25 100 65 25 100 65 25 100 65 25 100 65 25 100 65 25 100 65 25 100 65 25 100 65 25 100 65 25 100 65 25 100 65 25 100 65 25 100 65 25 100 65 25 100 65 25 100 65 25 100 65 25 100 65 25 100 65 25 100 65 25 100 65 25 100 65 25 100 65 25 100 65 25 100 65 25 100 65 25 100 65 25 100 65 25 100 65 25 100 65 25 100 65 25 100 65 25 100 65 25 100 65 25 100 65 25 100 65 25 100 65 25 100 65 25 100 65 25 100 65 25 100 65 25 100 65 25 100 65 25 100 65 25 100 65 25 100 65 25 100 65 25 100 65 25 100 65 25 100 65 25 100 65 25 100 65 25 100 65 25 100 65 25 100 65 25 100 65 25 100 65 25 100 65 25 100 65 25 100 65 25 100 65 25 100 65 25 100 65 25 100 65 25 100 65 25 100 65 25 100 65 25 100 65 25 100 65 25 100 65 25 100 65 25 100 65 25 100 65 25 100 65 25 100 65 25 100 65 25 100 65 25 100 65 25 100 65 25 100 65 25 100 65 25 100 65 25 100 65 25 100 65 25 100 65 25 100 65 25 100 65 25 100 65 25 100 65 25 100 65 25 100 65 25 100 65 25 100 65 25 100 65 25 100 65 25 100 65 25 100 65 25 100 65 25 100 65 25 100 65 25 100 65 25 100 65 25 100 65 25 100 65 25 100 65 25 100 65 25 100 65 25 100 65 25 100 65 25 100 65 25 100 65 25 100 65 25 100 65 25 100 65 25 100 65 25 100 65 25 100 65 25 100 65 25 100 65 25 100 65 25 100 65 25 100 65 25 100 65 25 100 65 25 100 65 25 100 65 25 100 65 25 100 65 25 100 65 25 100 65 25 100 65 25 100 65 25 100 65 25 100 65 25 100 65 25 100 65 25 100 65 25 100 65 25 100 65 25 100 65 25 100 65 25 100 65 25 100 65 25 100 65 25 100 65 25 100 65 25 100 65 25 100 65 25 100 65 25 100 65 25 100 65 25 100 65 25 100 65 25 100 65 25 100 65 25 100 65 25 100 65 25 100 65 25 100 65 25 100 65 25 100 65 25 100 65 25 100 65 25 100 65 25 100 65 25 100 65 25 100 65 25 100 65 25 100 65 25 100 65 25 100 65 25 100 65 25 100 65 25 100 65 25 100 65 25 100 65 25 100 65 25 100 65 25 100 65 25 100 65 25 100 65 25 100 65 25 100 65 25 100 65 25 100 65 25 100 65 25 100 65 25 100 65 25 100 65 25 100 65 25 100 65 25 100 65 25 100 65 25 100 65 25 100 65
25 100 65 25 100 65 25 100 65 25 100 65 25 100 65 25 100 65 25 100 65 25 100 65 25 100 65 25 100 65 25 100 65 25 100 65 25 100 65 25 100 65 25 100 65 25 100 65 25 100 65 25 100 65 25 100 65 25 100 65 25 100 65 25 100 65 25 100 65 25 100 65 25 100 65 25 100 65 25 100 65 25 100 65 25 100 65 25 100 65 25 100 65 25 100 65 25 100 65 25 100 65 25 100 65 25 100 65 25 100 65 25 100 65 25 100 65 25 100 65 25 100 65 25 100 65 25 100 65 25 100 65 25 100 65 25 100 65 25 100 65 25 100 65 25 100 65 25 100 65 25 100 65 25 100 65 25 100 65 25 100 65 25 100 65 25 100 65 25 100 65 25 100 65 25 100 65 25 100 65 25 100 65 25 100 65 25 100 65 25 100 65 25 100 65 25 100 65 25 100 65 25 100 65 25 100 65 25 100 65 25 100 65 25 100 65 25 100 65 25 100 65 25 100 65 25 100 65 25 100 65 25 100 65 25 100 65 25 100 65 25 100 65 25 100 65 25 100 65 25 100 65 25 100 65 25 100 65 25 100 65 25 100 65 25 100 65 25 100 65 25 100 65 25 100 65 25 100 65 25 100 65 25 100 65 25 100 65 25 100 65 25 100 65 25 100 65 25 100 65 25 100 65 25 100 65 25 100 65 25 100 65 25 100 65 25 100 65 25 100 65 25 100 65 25 100 65 25 100 65 25 100 65 25 100 65 25 100 65 25 100 65 25 100 65 25 100 65 25 100 65 25 100 65 25 100 65 25 100 65 25 100 65 25 100 65 25 100 65 25 100 65 25 100 65 25 100 65 25 100 65 25 100 65 25 100 65 25 100 65 25 100 65 25 100 65 25 100 65 25 100 65 25 100 65 25 100 65 25 100 65 25 100 65 25 100 65 25 100 65 25 100 65 25 100 65 25 100 65 25 100 65 25 100 65 25 100 65 25 100 65 25 100 65 25 100 65 25 100 65 25 100 65 25 100 65 25 100 65 25 100 65 25 100 65 25 100 65 25 100 65 25 100 65 25 100 65 25 100 65 25 100 65 25 100 65 25 100 65 25 100 65 25 100 65 25 100 65 25 100 65 25 100 65 25 100 65 25 100 65 25 100 65 25 100 65 25 100 65 25 100 65 25 100 65 25 100 65 25 100 65 25 100 65 25 100 65 25 100 65 25 100 65 25 100 65 25 100 65 25 100 65 25 100 65 25 100 65 25 100 65 25 100 65 25 100 65 25 100 65 25 100 65 25 100 65 25 100 65 25 100 65 25 100 65 25 100 65 25 100 65 25 100 65 25 100 65 25 100 65 25 100 65 25 100 65 25 100 65 25 100 65 25 100 65 25 100 65 25 100 65 25 100 65 25 100 65 25 100 65 25 100 65 25 100 65 25 100 65 25 100 65 25 100 65 25 100 65 25 100 65 25 100 65 25 100 65 25 100 65 25 100 65 25 100 65 25 100 65 25 100 65 25 100 65 25 100 65 25 100 65 25 100 65 25 100 65 25 100 65 25 100 65 25 100 65 25 100 65 25 100 65 25 100 65 25 100 65 25 100 65 25 100 65 25 100 65 25 100 65 25 100 65 25 100 65 25 100 65 25 100 65 25 100 65 25 100 65 25 100 65 25 100 65 25 100 65 25 100 65 25 100 65 25 100 65 25 100 65 25 100 65 25 100 65 25 100 65 25 100 65 25 100 65 25 100 65 25 100 65 25 100 65 25 100 65 25 100 65 25 100 65 25 100 65 25 100 65 25 100 65 25 100 65 25 100 65 25 100 65 25 100 65 25 100 65 25 100 65 25 100 65 25 100 65 25 100 65 25 100 65 25 100 65 25 100 65 25 100 65 25 100 65 25 100 65 25 100 65 25 100 65 25 100 65 25 100 65 25 100 65 25 100 65 25 100 65 25 100 65 25 100 65 25 100 65 25 100 65 25 100 65 25 100 65 25 100 65 25 100 65 25 100 65 25 100 65 25 100 65 25 100 65 25 100 65 25 100 65 25 100 65 25 100 65 25 100 65 25 100 65 25 100 65 25 100 65 25 100 65 25 100 65 25 100 65 25 100 65 25 100 65 25 100 65 25 100 65 25 100 65 25 100 65 25 100 65 25 100 65
25 100 65 25 100 65 25 100 65 25 100 65 25 100 65 25 100 65 25 100 65 25 100 65 25 100 65 25 100 65 25 100 65 25 100 65 25 100 65 25 100 65 25 100 65 25 100 65 25 100 65 25 100 65 25 100 65 25 100 65 25 100 65 25 100 65 25 100 65 25 100 65 25 100 65 25 100 65 25 100 65 25 100 65 25 100 65 25 100 65 25 100 65 25 100 65 25 100 65 25 100 65 25 100 65 25 100 65 25 100 65 25 100 65 25 100 65 25 100 65 25 100 65 25 100 65 25 100 65 25 100 65 25 100 65 25 100 65 25 100 65 25 100 65 25 100 65 25 100 65 25 100 65 25 100 65 25 100 65 25 100 65 25 100 65 25 100 65 25 100 65 25 100 65 25 100 65 25 100 65 25 100 65 25 100 65 25 100 65 25 100 65 25 100 65 25 100 65 25 100 65 25 100 65 25 100 65 25 100 65 25 100 65 25 100 65 25 100 65 25 100 65 25 100 65 25 100 65 25 100 65 25 100 65 25 100 65 25 100 65 25 100 65 25 100 65 25 100 65 25 100 65 25 100 65 25 100 65 25 100 65 25 100 65 25 100 65 25 100 65 25 100 65 25 100 65 25 100 65 25 100 65 25 100 65 25 100 65 25 100 65 25 100 65 25 100 65 25 100 65 25 100 65 25 100 65 25 100 65 25 100 65 25 100 65 25 100 65 25 100 65 25 100 65 25 100 65 25 100 65 25 100 65 25 100 65 25 100 65 25 100 65 25 100 65 25 100 65 25 100 65 25 100 65 25 100 65 25 100 65 25 100 65 25 100 65 25 100 65 25 100 65 25 100 65 25 100 65 25 100 65 25 100 65 25 100 65 25 100 65 25 100 65 25 100 65 25 100 65 25 100 65 25 100 65 25 100 65 25 100 65 25 100 65 25 100 65 25 100 65 25 100 65 25 100 65 25 100 65 25 100 65 25 100 65 25 100 65 25 100 65 25 100 65 25 100 65 25 100 65 25 100 65 25 100 65 25 100 65 25 100 65 25 100 65 25 100 65 25 100 65 25 100 65 25 100 65 25 100 65 25 100 65 25 100 65 25 100 65 25 100 65 25 100 65 25 100 65 25 100 65 25 100 65 25 100 65 25 100 65 25 100 65 25 100 65 25 100 65 25 100 65 25 100 65 25 100 65 25 100 65 25 100 65 25 100 65 25 100 65 25 100 65 25 100 65 25 100 65 25 100 65 25 100 65 25 100 65 25 100 65 25 100 65 25 100 65 25 100 65 25 100 65 25 100 65 25 100 65 25 100 65 25 100 65 25 100 65 25 100 65 25 100 65 25 100 65 25 100 65 25 100 65 25 100 65 25 100 65 25 100 65 25 100 65 25 100 65 25 100 65 25 100 65 25 100 65 25 100 65 25 100 65 25 100 65 25 100 65 25 100 65 25 100 65 25 100 65 25 100 65 25 100 65 25 100 65 25 100 65 25 100 65 25 100 65 25 100 65 25 100 65 25 100 65 25 100 65 25 100 65 25 100 65 25 100 65 25 100 65 25 100 65 25 100 65 25 100 65 25 100 65 25 100 65 25 100 65 25 100 65 25 100 65 25 100 65 25 100 65 25 100 65 25 100 65 25 100 65 25 100 65 25 100 65 25 100 65 25 100 65 25 100 65 25 100 65 25 100 65 25 100 65 25 100 65 25 100 65 25 100 65 25 100 65 25 100 65 25 100 65 25 100 65 25 100 65 25 100 65 25 100 65 25 100 65 25 100 65 25 100 65 25 100 65 25 100 65 25 100 65 25 100 65 25 100 65 25 100 65 25 100 65 25 100 65 25 100 65 25 100 65 25 100 65 25 100 65 25 100 65 25 100 65 25 100 65 25 100 65 25 100 65 25 100 65 25 100 65 25 100 65 25 100 65 25 100 65 25 100 65 25 100 65 25 100 65 25 100 65 25 100 65 25 100 65 25 100 65 25 100 65 25 100 65 25 100 65 25 100 65 25 100 65 25 100 65 25 100 65 25 100 65 25 100 65 25 100 65 25 100 65 25 100 65 25 100 65 25 100 65 25 100 65 25 100 65 25 100 65 25 100 65 25 100 65 25 100 65 25 100 65 25 100 65 25 100 65 25 100 65 25 100 65 25 100 65 25 100 65
25 100 65 25 100 65 25 100 65 25 100 65 25 100 65 25 100 65 25 100 65 25 100 65 25 100 65 25 100 65 25 100 65 25 100 65 25 100 65 25 100 65 25 100 65 25 100 65 25 100 65 25 100 65 25 100 65 25 100 65 25 100 65 25 100 65 25 100 65 25 100 65 25 100 65 25 100 65 25 100 65 25 100 65 25 100 65 25 100 65 25 100 65 25 100 65 25 100 65 25 100 65 25 100 65 25 100 65 25 100 65 25 100 65 25 100 65 25 100 65 25 100 65 25 100 65 25 100 65 25 100 65 25 100 65 25 100 65 25 100 65 25 100 65 25 100 65 25 100 65 25 100 65 25 100 65 25 100 65 25 100 65 25 100 65 25 100 65 25 100 65 25 100 65 25 100 65 25 100 65 25 100 65 25 100 65 25 100 65 25 100 65 25 100 65 25 100 65 25 100 65 25 100 65 25 100 65 25 100 65 25 100 65 25 100 65 25 100 65 25 100 65 25 100 65 25 100 65 25 100 65 25 100 65 25 100 65 25 100 65 25 100 65 25 100 65 25 100 65 25 100 65 25 100 65 25 100 65 25 100 65 25 100 65 25 100 65 25 100 65 25 100 65 25 100 65 25 100 65 25 100 65 25 100 65 25 100 65 25 100 65 25 100 65 25 100 65 25 100 65 25 100 65 25 100 65 25 100 65 25 100 65 25 100 65 25 100 65 25 100 65 25 100 65 25 100 65 25 100 65 25 100 65 25 100 65 25 100 65 25 100 65 25 100 65 25 100 65 25 100 65 25 100 65 25 100 65 25 100 65 25 100 65 25 100 65 25 100 65 25 100 65 25 100 65 25 100 65 25 100 65 25 100 65 25 100 65 25 100 65 25 100 65 25 100 65 25 100 65 25 100 65 25 100 65 25 100 65 25 100 65 25 100 65 25 100 65 25 100 65 25 100 65 25 100 65 25 100 65 25 100 65 25 100 65 25 100 65 25 100 65 25 100 65 25 100 65 25 100 65 25 100 65 25 100 65 25 100 65 25 100 65 25 100 65 25 100 65 25 100 65 25 100 65 25 100 65 25 100 65 25 100 65 25 100 65 25 100 65 25 100 65 25 100 65 25 100 65 25 100 65 25 100 65 25 100 65 25 100 65 25 100 65 25 100 65 25 100 65 25 100 65 25 100 65 25 100 65 25 100 65 25 100 65 25 100 65 25 100 65 25 100 65 25 100 65 25 100 65 25 100 65 25 100 65 25 100 65 25 100 65 25 100 65 25 100 65 25 100 65 25 100 65 25 100 65 25 100 65 25 100 65 25 100 65 25 100 65 25 100 65 25 100 65 25 100 65 25 100 65 25 100 65 25 100 65 25 100 65 25 100 65 25 100 65 25 100 65 25 100 65 25 100 65 25 100 65 25 100 65 25 100 65 25 100 65 25 100 65 25 100 65 25 100 65 25 100 65 25 100 65 25 100 65 25 100 65 25 100 65 25 100 65 25 100 65 25 100 65 25 100 65 25 100 65 25 100 65 25 100 65 25 100 65 25 100 65 25 100 65 25 100 65 25 100 65 25 100 65 25 100 65 25 100 65 25 100 65 25 100 65 25 100 65 25 100 65 25 100 65 25 100 65 25 100 65 25 100 65 25 100 65 25 100 65 25 100 65 25 100 65 25 100 65 25 100 65 25 100 65 25 100 65 25 100 65 25 100 65 25 100 65 25 100 65 25 100 65 25 100 65 25 100 65 25 100 65 25 100 65 25 100 65 25 100 65 25 100 65 25 100 65 25 100 65 25 100 65 25 100 65 25 100 65 25 100 65 25 100 65 25 100 65 25 100 65 25 100 65 25 100 65 25 100 65 25 100 65 25 100 65 25 100 65 25 100 65 25 100 65 25 100 65 25 100 65 25 100 65 25 100 65 25 100 65 25 100 65 25 100 65 25 100 65 25 100 65 25 100 65 25 100 65 25 100 65 25 100 65 25 100 65 25 100 65 25 100 65 25 100 65 25 100 65 25 100 65 25 100 65 25 100 65 25 100 65 25 100 65 25 100 65 25 100 65 25 100 65 25 100 65 25 100 65 25 100 65 25 100 65 25 100 65 25 100 65 25 100 65 25 100 65 25 100 65 25 100 65 25 100 65 25 100 65 25 100 65 25 100 65
25 100 65 25 100 65 25 100 65 25 100 65 25 100 65 25 100 65 25 100 65 25 100 65 25 100 65 25 100 65 25 100 65 25 100 65 25 100 65 25 100 65 25 100 65 25 100 65 25 100 65 25 100 65 25 100 65 25 100 65 25 100 65 25 100 65 25 100 65 25 100 65 25 100 65 25 100 65 25 100 65 25 100 65 25 100 65 25 100 65 25 100 65 25 100 65 25 100 65 25 100 65 25 100 65 25 100 65 25 100 65 25 100 65 25 100 65 25 100 65 25 100 65 25 100 65 25 100 65 25 100 65 25 100 65 25 100 65 25 100 65 25 100 65 25 100 65 25 100 65 25 100 65 25 100 65 25 100 65 25 100 65 25 100 65 25 100 65 25 100 65 25 100 65 25 100 65 25 100 65 25 100 65 25 100 65 25 100 65 25 100 65 25 100 65 25 100 65 25 100 65 25 100 65 25 100 65 25 100 65 25 100 65 25 100 65 25 100 65 25 100 65 25 100 65 25 100 65 25 100 65 25 100 65 25 100 65 25 100 65 25 100 65 25 100 65 25 100 65 25 100 65 25 100 65 25 100 65 25 100 65 25 100 65 25 100 65 25 100 65 25 100 65 25 100 65 25 100 65 25 100 65 25 100 65 25 100 65 25 100 65 25 100 65 25 100 65 25 100 65 25 100 65 25 100 65 25 100 65 25 100 65 25 100 65 25 100 65 25 100 65 25 100 65 25 100 65 25 100 65 25 100 65 25 100 65 25 100 65 25 100 65 25 100 65 25 100 65 25 100 65 25 100 65 25 100 65 25 100 65 25 100 65 25 100 65 25 100 65 25 100 65 25 100 65 25 100 65 25 100 65 25 100 65 25 100 65 25 100 65 25 100 65 25 100 65 25 100 65 25 100 65 25 100 65 25 100 65 25 100 65 25 100 65 25 100 65 25 100 65 25 100 65 25 100 65 25 100 65 25 100 65 25 100 65 25 100 65 25 100 65 25 100 65 25 100 65 25 100 65 25 100 65 25 100 65 25 100 65 25 100 65 25 100 65 25 100 65 25 100 65 25 100 65 25 100 65 25 100 65 25 100 65 25 100 65 25 100 65 25 100 65 25 100 65 25 100 65 25 100 65 25 100 65 25 100 65 25 100 65 25 100 65 25 100 65 25 100 65 25 100 65 25 100 65 25 100 65 25 100 65 25 100 65 25 100 65 25 100 65 25 100 65 25 100 65 25 100 65 25 100 65 25 100 65 25 100 65 25 100 65 25 100 65 25 100 65 25 100 65 25 100 65 25 100 65 25 100 65 25 100 65 25 100 65 25 100 65 25 100 65 25 100 65 25 100 65 25 100 65 25 100 65 25 100 65 25 100 65 25 100 65 25 100 65 25 100 65 25 100 65 25 100 65 25 100 65 25 100 65 25 100 65 25 100 65 25 100 65 25 100 65 25 100 65 25 100 65 25 100 65 25 100 65 25 100 65 25 100 65 25 100 65 25 100 65 25 100 65 25 100 65 25 100 65 25 100 65 25 100 65 25 100 65 25 100 65 25 100 65 25 100 65 25 100 65 25 100 65 25 100 65 25 100 65 25 100 65 25 100 65 25 100 65 25 100 65 25 100 65 25 100 65 25 100 65 25 100 65 25 100 65 25 100 65 25 100 65 25 100 65 25 100 65 25 100 65 25 100 65 25 100 65 25 100 65 25 100 65 25 100 65 25 100 65 25 100 65 25 100 65 25 100 65 25 100 65 25 100 65 25 100 65 25 100 65 25 100 65 25 100 65 25 100 65 25 100 65 25 100 65 25 100 65 25 100 65 25 100 65 25 100 65 25 100 65 25 100 65 25 100 65 25 100 65 25 100 65 25 100 65 25 100 65 25 100 65 25 100 65 25 100 65 25 100 65 25 100 65 25 100 65 25 100 65 25 100 65 25 100 65 25 100 65 25 100 65 25 100 65 25 100 65 25 100 65 25 100 65 25 100 65 25 100 65 25 100 65 25 100 65 25 100 65 25 100 65 25 100 65 25 100 65 25 100 65 25 100 65 25 100 65 25 100 65 25 100 65 25 100 65 25 100 65 25 100 65 25 100 65 25 100 65 25 100 65 25 100 65 25 100 65 25 100 65 25 100 65 25 100 65 25 100 65 25 100 65 25 100 65
25 100 65 25 100 65 25 100 65 25 100 65 25 100 65 25 100 65 25 100 65 25 100 65 25 100 65 25 100 65 25 100 65 25 100 65 25 100 65 25 100 65 25 100 65 25 100 65 25 100 65 25 100 65 25 100 65 25 100 65 25 100 65 25 100 65 25 100 65 25 100 65 25 100 65 25 100 65 25 100 65 25 100 65 25 100 65 25 100 65 25 100 65 25 100 65 25 100 65 25 100 65 25 100 65 25 100 65 25 100 65 25 100 65 25 100 65 25 100 65 25 100 65 25 100 65 25 100 65 25 100 65 25 100 65 25 100 65 25 100 65 25 100 65 25 100 65 25 100 65 25 100 65 25 100 65 25 100 65 25 100 65 25 100 65 25 100 65 25 100 65 25 100 65 25 100 65 25 100 65 25 100 65 25 100 65 25 100 65 25 100 65 25 100 65 25 100 65 25 100 65 25 100 65 25 100 65 25 100 65 25 100 65 25 100 65 25 100 65 25 100 65 25 100 65 25 100 65 25 100 65 25 100 65 25 100 65 25 100 65 25 100 65 25 100 65 25 100 65 25 100 65 25 100 65 25 100 65 25 100 65 25 100 65 25 100 65 25 100 65 25 100 65 25 100 65 25 100 65 25 100 65 25 100 65 25 100 65 25 100 65 25 100 65 25 100 65 25 100 65 25 100 65 25 100 65 25 100 65 25 100 65 25 100 65 25 100 65 25 100 65 25 100 65 25 100 65 25 100 65 25 100 65 25 100 65 25 100 65 25 100 65 25 100 65 25 100 65 25 100 65 25 100 65 25 100 65 25 100 65 25 100 65 25 100 65 25 100 65 25 100 65 25 100 65 25 100 65 25 100 65 25 100 65 25 100 65 25 100 65 25 100 65 25 100 65 25 100 65 25 100 65 25 100 65 25 100 65 25 100 65 25 100 65 25 100 65 25 100 65 25 100 65 25 100 65 25 100 65 25 100 65 25 100 65 25 100 65 25 100 65 25 100 65 25 100 65 25 100 65 25 100 65 25 100 65 25 100 65 25 100 65 25 100 65 25 100 65 25 100 65 25 100 65 25 100 65 25 100 65 25 100 65 25 100 65 25 100 65 25 100 65 25 100 65 25 100 65 25 100 65 25 100 65 25 100 65 25 100 65 25 100 65 25 100 65 25 100 65 25 100 65 25 100 65 25 100 65 25 100 65 25 100 65 25 100 65 25 100 65 25 100 65 25 100 65 25 100 65 25 100 65 25 100 65 25 100 65 25 100 65 25 100 65 25 100 65 25 100 65 25 100 65 25 100 65 25 100 65 25 100 65 25 100 65 25 100 65 25 100 65 25 100 65 25 100 65 25 100 65 25 100 65 25 100 65 25 100 65 25 100 65 25 100 65 25 100 65 25 100 65 25 100 65 25 100 65 25 100 65 25 100 65 25 100 65 25 100 65 25 100 65 25 100 65 25 100 65 25 100 65 25 100 65 25 100 65 25 100 65 25 100 65 25 100 65 25 100 65 25 100 65 25 100 65 25 100 65 25 100 65 25 100 65 25 100 65 25 100 65 25 100 65 25 100 65 25 100 65 25 100 65 25 100 65 25 100 65 25 100 65 25 100 65 25 100 65 25 100 65 25 100 65 25 100 65 25 100 65 25 100 65 25 100 65 25 100 65 25 100 65 25 100 65 25 100 65 25 100 65 25 100 65 25 100 65 25 100 65 25 100 65 25 100 65 25 100 65 25 100 65 25 100 65 25 100 65 25 100 65 25 100 65 25 100 65 25 100 65 25 100 65 25 100 65 25 100 65 25 100 65 25 100 65 25 100 65 25 100 65 25 100 65 25 100 65 25 100 65 25 100 65 25 100 65 25 100 65 25 100 65 25 100 65 25 100 65 25 100 65 25 100 65 25 100 65 25 100 65 25 100 65 25 100 65 25 100 65 25 100 65 25 100 65 25 100 65 25 100 65 25 100 65 25 100 65 25 100 65 25 100 65 25 100 65 25 100 65 25 100 65 25 100 65 25 100 65 25 100 65 25 100 65 25 100 65 25 100 65 25 100 65 25 100 65 25 100 65 25 100 65 25 100 65 25 100 65 25 100 65 25 100 65 25 100 65 25 100 65 25 100 65 25 100 65 25 100 65 25 100 65 25 100 65 25 100 65 25 100 65
25 100 65 25 100 65 25 100 65 25 100 65 25 100 65 25 100 65 25 100 65 25 100 65 25 100 65 25 100 65 25 100 65 25 100 65 25 100 65 25 100 65 25 100 65 25 100 65 25 100 65 25 100 65 25 100 65 25 100 65 25 100 65 25 100 65 25 100 65 25 100 65 25 100 65 25 100 65 25 100 65 25 100 65 25 100 65 25 100 65 25 100 65 25 100 65 25 100 65 25 100 65 25 100 65 25 100 65 25 100 65 25 100 65 25 100 65 25 100 65 25 100 65 25 100 65 25 100 65 25 100 65 25 100 65 25 100 65 25 100 65 25 100 65 25 100 65 25 100 65 25 100 65 25 100 65 25 100 65 25 100 65 25 100 65 25 100 65 25 100 65 25 100 65 25 100 65 25 100 65 25 100 65 25 100 65 25 100 65 25 100 65 25 100 65 25 100 65 25 100 65 25 100 65 25 100 65 25 100 65 25 100 65 25 100 65 25 100 65 25 100 65 25 100 65 25 100 65 25 100 65 25 100 65 25 100 65 25 100 65 25 100 65 25 100 65 25 100 65 25 100 65 25 100 65 25 100 65 25 100 65 25 100 65 25 100 65 25 100 65 25 100 65 25 100 65 25 100 65 25 100 65 25 100 65 25 100 65 25 100 65 25 100 65 25 100 65 25 100 65 25 100 65 25 100 65 25 100 65 25 100 65 25 100 65 25 100 65 25 100 65 25 100 65 25 100 65 25 100 65 25 100 65 25 100 65 25 100 65 25 100 65 25 100 65 25 100 65 25 100 65 25 100 65 25 100 65 25 100 65 25 100 65 25 100 65 25 100 65 25 100 65 25 100 65 25 100 65 25 100 65 25 100 65 25 100 65 25 100 65 25 100 65 25 100 65 25 100 65 25 100 65 25 100 65 25 100 65 25 100 65 25 100 65 25 100 65 25 100 65 25 100 65 25 100 65 25 100 65 25 100 65 25 100 65 25 100 65 25 100 65 25 100 65 25 100 65 25 100 65 25 100 65 25 100 65 25 100 65 25 100 65 25 100 65 25 100 65 25 100 65 25 100 65 25 100 65 25 100 65 25 100 65 25 100 65 25 100 65 25 100 65 25 100 65 25 100 65 25 100 65 25 100 65 25 100 65 25 100 65 25 100 65 25 100 65 25 100 65 25 100 65 25 100 65 25 100 65 25 100 65 25 100 65 25 100 65 25 100 65 25 100 65 25 100 65 25 100 65 25 100 65 25 100 65 25 100 65 25 100 65 25 100 65 25 100 65 25 100 65 25 100 65 25 100 65 25 100 65 25 100 65 25 100 65 25 100 65 25 100 65 25 100 65 25 100 65 25 100 65 25 100 65 25 100 65 25 100 65 25 100 65 25 100 65 25 100 65 25 100 65 25 100 65 25 100 65 25 100 65 25 100 65 25 100 65 25 100 65 25 100 65 25 100 65 25 100 65 25 100 65 25 100 65 25 100 65 25 100 65 25 100 65 25 100 65 25 100 65 25 100 65 25 100 65 25 100 65 25 100 65 25 100 65 25 100 65 25 100 65 25 100 65 25 100 65 25 100 65 25 100 65 25 100 65 25 100 65 25 100 65 25 100 65 25 100 65 25 100 65 25 100 65 25 100 65 25 100 65 25 100 65 25 100 65 25 100 65 25 100 65 25 100 65 25 100 65 25 100 65 25 100 65 25 100 65 25 100 65 25 100 65 25 100 65 25 100 65 25 100 65 25 100 65 25 100 65 25 100 65 25 100 65 25 100 65 25 100 65 25 100 65 25 100 65 25 100 65 25 100 65 25 100 65 25 100 65 25 100 65 25 100 65 25 100 65 25 100 65 25 100 65 25 100 65 25 100 65 25 100 65 25 100 65 25 100 65 25 100 65 25 100 65 25 100 65 25 100 65 25 100 65 25 100 65 25 100 65 25 100 65 25 100 65 25 100 65 25 100 65 25 100 65 25 100 65 25 100 65 25 100 65 25 100 65 25 100 65 25 100 65 25 100 65 25 100 65 25 100 65 25 100 65 25 100 65 25 100 65 25 100 65 25 100 65 25 100 65 25 100 65 25 100 65 25 100 65 25 100 65 25 100 65 25 100 65 25 100 65 25 100 65 25 100 65 25 100 65 25 100 65 25 100 65 25 100 65 25 100 65
25 100 65 25 100 65 25 100 65 25 100 65 25 100 65 25 100 65 25 100 65 25 100 65 25 100 65 25 100 65 25 100 65 25 100 65 25 100 65 25 100 65 25 100 65 25 100 65 25 100 65 25 100 65 25 100 65 25 100 65 25 100 65 25 100 65 25 100 65 25 100 65 25 100 65 25 100 65 25 100 65 25 100 65 25 100 65 25 100 65 25 100 65 25 100 65 25 100 65 25 100 65 25 100 65 25 100 65 25 100 65 25 100 65 25 100 65 25 100 65 25 100 65 25 100 65 25 100 65 25 100 65 25 100 65 25 100 65 25 100 65 25 100 65 25 100 65 25 100 65 25 100 65 25 100 65 25 100 65 25 100 65 25 100 65 25 100 65 25 100 65 25 100 65 25 100 65 25 100 65 25 100 65 25 100 65 25 100 65 25 100 65 25 100 65 25 100 65 25 100 65 25 100 65 25 100 65 25 100 65 25 100 65 25 100 65 25 100 65 25 100 65 25 100 65 25 100 65 25 100 65 25 100 65 25 100 65 25 100 65 25 100 65 25 100 65 25 100 65 25 100 65 25 100 65 25 100 65 25 100 65 25 100 65 25 100 65 25 100 65 25 100 65 25 100 65 25 100 65 25 100 65 25 100 65 25 100 65 25 100 65 25 100 65 25 100 65 25 100 65 25 100 65 25 100 65 25 100 65 25 100 65 25 100 65 25 100 65 25 100 65 25 100 65 25 100 65 25 100 65 25 100 65 25 100 65 25 100 65 25 100 65 25 100 65 25 100 65 25 100 65 25 100 65 25 100 65 25 100 65 25 100 65 25 100 65 25 100 65 25 100 65 25 100 65 25 100 65 25 100 65 25 100 65 25 100 65 25 100 65 25 100 65 25 100 65 25 100 65 25 100 65 25 100 65 25 100 65 25 100 65 25 100 65 25 100 65 25 100 65 25 100 65 25 100 65 25 100 65 25 100 65 25 100 65 25 100 65 25 100 65 25 100 65 25 100 65 25 100 65 25 100 65 25 100 65 25 100 65 25 100 65 25 100 65 25 100 65 25 100 65 25 100 65 25 100 65 25 100 65 25 100 65 25 100 65 25 100 65 25 100 65 25 100 65 25 100 65 25 100 65 25 100 65 25 100 65 25 100 65 25 100 65 25 100 65 25 100 65 25 100 65 25 100 65 25 100 65 25 100 65 25 100 65 25 100 65 25 100 65 25 100 65 25 100 65 25 100 65 25 100 65 25 100 65 25 100 65 25 100 65 25 100 65 25 100 65 25 100 65 25 100 65 25 100 65 25 100 65 25 100 65 25 100 65 25 100 65 25 100 65 25 100 65 25 100 65 25 100 65 25 100 65 25 100 65 25 100 65 25 100 65 25 100 65 25 100 65 25 100 65 25 100 65 25 100 65 25 100 65 25 100 65 25 100 65 25 100 65 25 100 65 25 100 65 25 100 65 25 100 65 25 100 65 25 100 65 25 100 65 25 100 65 25 100 65 25 100 65 25 100 65 25 100 65 25 100 65 25 100 65 25 100 65 25 100 65 25 100 65 25 100 65 25 100 65 25 100 65 25 100 65 25 100 65 25 100 65 25 100 65 25 100 65 25 100 65 25 100 65 25 100 65 25 100 65 25 100 65 25 100 65 25 100 65 25 100 65 25 100 65 25 100 65 25 100 65 25 100 65 25 100 65 25 100 65 25 100 65 25 100 65 25 100 65 25 100 65 25 100 65 25 100 65 25 100 65 25 100 65 25 100 65 25 100 65 25 100 65 25 100 65 25 100 65 25 100 65 25 100 65 25 100 65 25 100 65 25 100 65 25 100 65 25 100 65 25 100 65 25 100 65 25 100 65 25 100 65 25 100 65 25 100 65 25 100 65 25 100 65 25 100 65 25 100 65 25 100 65 25 100 65 25 100 65 25 100 65 25 100 65 25 100 65 25 100 65 25 100 65 25 100 65 25 100 65 25 100 65 25 100 65 25 100 65 25 100 65 25 100 65 25 100 65 25 100 65 25 100 65 25 100 65 25 100 65 25 100 65 25 100 65 25 100 65 25 100 65 25 100 65 25 100 65 25 100 65 25 100 65 25 100 65 25 100 65 25 100 65 25 100 65 25 100 65 25 100 65 25 100 65 25 100 65 25 100 65 25 100 65
25 100 65 25 100 65 25 100 65 25 100 65 25 100 65 25 100 65 25 100 65 25 100 65 25 100 65 25 100 65 25 100 65 25 100 65 25 100 65 25 100 65 25 100 65 25 100 65 25 100 65 25 100 65 25 100 65 25 100 65 25 100 65 25 100 65 25 100 65 25 100 65 25 100 65 25 100 65 25 100 65 25 100 65 25 100 65 25 100 65 25 100 65 25 100 65 25 100 65 25 100 65 25 100 65 25 100 65 25 100 65 25 100 65 25 100 65 25 100 65 25 100 65 25 100 65 25 100 65 25 100 65 25 100 65 25 100 65 25 100 65 25 100 65 25 100 65 25 100 65 25 100 65 25 100 65 25 100 65 25 100 65 25 100 65 25 100 65 25 100 65 25 100 65 25 100 65 25 100 65 25 100 65 25 100 65 25 100 65 25 100 65 25 100 65 25 100 65 25 100 65 25 100 65 25 100 65 25 100 65 25 100 65 25 100 65 25 100 65 25 100 65 25 100 65 25 100 65 25 100 65 25 100 65 25 100 65 25 100 65 25 100 65 25 100 65 25 100 65 25 100 65 25 100 65 25 100 65 25 100 65 25 100 65 25 100 65 25 100 65 25 100 65 25 100 65 25 100 65 25 100 65 25 100 65 25 100 65 25 100 65 25 100 65 25 100 65 25 100 65 25 100 65 25 100 65 25 100 65 25 100 65 25 100 65 25 100 65 25 100 65 25 100 65 25 100 65 25 100 65 25 100 65 25 100 65 25 100 65 25 100 65 25 100 65 25 100 65 25 100 65 25 100 65 25 100 65 25 100 65 25 100 65 25 100 65 25 100 65 25 100 65 25 100 65 25 100 65 25 100 65 25 100 65 25 100 65 25 100 65 25 100 65 25 100 65 25 100 65 25 100 65 25 100 65 25 100 65 25 100 65 25 100 65 25 100 65 25 100 65 25 100 65 25 100 65 25 100 65 25 100 65 25 100 65 25 100 65 25 100 65 25 100 65 25 100 65 25 100 65 25 100 65 25 100 65 25 100 65 25 100 65 25 100 65 25 100 65 25 100 65 25 100 65 25 100 65 25 100 65 25 100 65 25 100 65 25 100 65 25 100 65 25 100 65 25 100 65 25 100 65 25 100 65 25 100 65 25 100 65 25 100 65 25 100 65 25 100 65 25 100 65 25 100 65 25 100 65 25 100 65 25 100 65 25 100 65 25 100 65 25 100 65 25 100 65 25 100 65 25 100 65 25 100 65 25 100 65 25 100 65 25 100 65 25 100 65 25 100 65 25 100 65 25 100 65 25 100 65 25 100 65 25 100 65 25 100 65 25 100 65 25 100 65 25 100 65 25 100 65 25 100 65 25 100 65 25 100 65 25 100 65 25 100 65 25 100 65 25 100 65 25 100 65 25 100 65 25 100 65 25 100 65 25 100 65 25 100 65 25 100 65 25 100 65 25 100 65 25 100 65 25 100 65 25 100 65 25 100 65 25 100 65 25 100 65 25 100 65 25 100 65 25 100 65 25 100 65 25 100 65 25 100 65 25 100 65 25 100 65 25 100 65 25 100 65 25 100 65 25 100 65 25 100 65 25 100 65 25 100 65 25 100 65 25 100 65 25 100 65 25 100 65 25 100 65 25 100 65 25 100 65 25 100 65 25 100 65 25 100 65 25 100 65 25 100 65 25 100 65 25 100 65 25 100 65 25 100 65 25 100 65 25 100 65 25 100 65 25 100 65 25 100 65 25 100 65 25 100 65 25 100 65 25 100 65 25 100 65 25 100 65 25 100 65 25 100 65 25 100 65 25 100 65 25 100 65 25 100 65 25 100 65 25 100 65 25 100 65 25 100 65 25 100 65 25 100 65 25 100 65 25 100 65 25 100 65 25 100 65 25 100 65 25 100 65 25 100 65 25 100 65 25 100 65 25 100 65 25 100 65 25 100 65 25 100 65 25 100 65 25 100 65 25 100 65 25 100 65 25 100 65 25 100 65 25 100 65 25 100 65 25 100 65 25 100 65 25 100 65 25 100 65 25 100 65 25 100 65 25 100 65 25 100 65 25 100 65 25 100 65 25 100 65 25 100 65 25 100 65 25 100 65 25 100 65 25 100 65 25 100 65 25 100 65 25 100 65 25 100 65 25 100 65 25 100 65 25 100 65
25 100 65 25 100 65 25 100 65 25 100 65 25 100 65 25 100 65 25 100 65 25 100 65 25 100 65 25 100 65 25 100 65 25 100 65 25 100 65 25 100 65 25 100 65 25 100 65 25 100 65 25 100 65 25 100 65 25 100 65 25 100 65 25 100 65 25 100 65 25 100 65 25 100 65 25 100 65 25 100 65 25 100 65 25 100 65 25 100 65 25 100 65 25 100 65 25 100 65 25 100 65 25 100 65 25 100 65 25 100 65 25 100 65 25 100 65 25 100 65 25 100 65 25 100 65 25 100 65 25 100 65 25 100 65 25 100 65 25 100 65 25 100 65 25 100 65 25 100 65 25 100 65 25 100 65 25 100 65 25 100 65 25 100 65 25 100 65 25 100 65 25 100 65 25 100 65 25 100 65 25 100 65 25 100 65 25 100 65 25 100 65 25 100 65 25 100 65 25 100 65 25 100 65 25 100 65 25 100 65 25 100 65 25 100 65 25 100 65 25 100 65 25 100 65 25 100 65 25 100 65 25 100 65 25 100 65 25 100 65 25 100 65 25 100 65 25 100 65 25 100 65 25 100 65 25 100 65 25 100 65 25 100 65 25 100 65 25 100 65 25 100 65 25 100 65 25 100 65 25 100 65 25 100 65 25 100 65 25 100 65 25 100 65 25 100 65 25 100 65 25 100 65 25 100 65 25 100 65 25 100 65 25 100 65 25 100 65 25 100 65 25 100 65 25 100 65 25 100 65 25 100 65 25 100 65 25 100 65 25 100 65 25 100 65 25 100 65 25 100 65 25 100 65 25 100 65 25 100 65 25 100 65 25 100 65 25 100 65 25 100 65 25 100 65 25 100 65 25 100 65 25 100 65 25 100 65 25 100 65 25 100 65 25 100 65 25 100 65 25 100 65 25 100 65 25 100 65 25 100 65 25 100 65 25 100 65 25 100 65 25 100 65 25 100 65 25 100 65 25 100 65 25 100 65 25 100 65 25 100 65 25 100 65 25 100 65 25 100 65 25 100 65 25 100 65 25 100 65 25 100 65 25 100 65 25 100 65 25 100 65 25 100 65 25 100 65 25 100 65 25 100 65 25 100 65 25 100 65 25 100 65 25 100 65 25 100 65 25 100 65 25 100 65 25 100 65 25 100 65 25 100 65 25 100 65 25 100 65 25 100 65 25 100 65 25 100 65 25 100 65 25 100 65 25 100 65 25 100 65 25 100 65 25 100 65 25 100 65 25 100 65 25 100 65 25 100 65 25 100 65 25 100 65 25 100 65 25 100 65 25 100 65 25 100 65 25 100 65 25 100 65 25 100 65 25 100 65 25 100 65 25 100 65 25 100 65 25 100 65 25 100 65 25 100 65 25 100 65 25 100 65 25 100 65 25 100 65 25 100 65 25 100 65 25 100 65 25 100 65 25 100 65 25 100 65 25 100 65 25 100 65 25 100 65 25 100 65 25 100 65 25 100 65 25 100 65 25 100 65 25 100 65 25 100 65 25 100 65 25 100 65 25 100 65 25 100 65 25 100 65 25 100 65 25 100 65 25 100 65 25 100 65 25 100 65 25 100 65 25 100 65 25 100 65 25 100 65 25 100 65 25 100 65 25 100 65 25 100 65 25 100 65 25 100 65 25 100 65 25 100 65 25 100 65 25 100 65 25 100 65 25 100 65 25 100 65 25 100 65 25 100 65 25 100 65 25 100 65 25 100 65 25 100 65 25 100 65 25 100 65 25 100 65 25 100 65 25 100 65 25 100 65 25 100 65 25 100 65 25 100 65 25 100 65 25 100 65 25 100 65 25 100 65 25 100 65 25 100 65 25 100 65 25 100 65 25 100 65 25 100 65 25 100 65 25 100 65 25 100 65 25 100 65 25 100 65 25 100 65 25 100 65 25 100 65 25 100 65 25 100 65 25 100 65 25 100 65 25 100 65 25 100 65 25 100 65 25 100 65 25 100 65 25 100 65 25 100 65 25 100 65 25 100 65 25 100 65 25 100 65 25 100 65 25 100 65 25 100 65 25 100 65 25 100 65 25 100 65 25 100 65 25 100 65 25 100 65 25 100 65 25 100 65 25 100 65 25 100 65 25 100 65 25 100 65 25 100 65 25 100 65 25 100 65 25 100 65 25 100 65 25 100 65 25 100 65 25 100 65
25 100 65 25 100 65 25 100 65 25 100 65 25 100 65 25 100 65 25 100 65 25 100 65 25 100 65 25 100 65 25 100 65 25 100 65 25 100 65 25 100 65 25 100 65 25 100 65 25 100 65 25 100 65 25 100 65 25 100 65 25 100 65 25 100 65 25 100 65 25 100 65 25 100 65 25 100 65 25 100 65 25 100 65 25 100 65 25 100 65 25 100 65 25 100 65 25 100 65 25 100 65 25 100 65 25 100 65 25 100 65 25 100 65 25 100 65 25 100 65 25 100 65 25 100 65 25 100 65 25 100 65 25 100 65 25 100 65 25 100 65 25 100 65 25 100 65 25 100 65 25 100 65 25 100 65 25 100 65 25 100 65 25 100 65 25 100 65 25 100 65 25 100 65 25 100 65 25 100 65 25 100 65 25 100 65 25 100 65 25 100 65 25 100 65 25 100 65 25 100 65 25 100 65 25 100 65 25 100 65 25 100 65 25 100 65 25 100 65 25 100 65 25 100 65 25 100 65 25 100 65 25 100 65 25 100 65 25 100 65 25 100 65 25 100 65 25 100 65 25 100 65 25 100 65 25 100 65 25 100 65 25 100 65 25 100 65 25 100 65 25 100 65 25 100 65 25 100 65 25 100 65 25 100 65 25 100 65 25 100 65 25 100 65 25 100 65 25 100 65 25 100 65 25 100 65 25 100 65 25 100 65 25 100 65 25 100 65 25 100 65 25 100 65 25 100 65 25 100 65 25 100 65 25 100 65 25 100 65 25 100 65 25 100 65 25 100 65 25 100 65 25 100 65 25 100 65 25 100 65 25 100 65 25 100 65 25 100 65 25 100 65 25 100 65 25 100 65 25 100 65 25 100 65 25 100 65 25 100 65 25 100 65 25 100 65 25 100 65 25 100 65 25 100 65 25 100 65 25 100 65 25 100 65 25 100 65 25 100 65 25 100 65 25 100 65 25 100 65 25 100 65 25 100 65 25 100 65 25 100 65 25 100 65 25 100 65 25 100 65 25 100 65 25 100 65 25 100 65 25 100 65 25 100 65 25 100 65 25 100 65 25 100 65 25 100 65 25 100 65 25 100 65 25 100 65 25 100 65 25 100 65 25 100 65 25 100 65 25 100 65 25 100 65 25 100 65 25 100 65 25 100 65 25 100 65 25 100 65 25 100 65 25 100 65 25 100 65 25 100 65 25 100 65 25 100 65 25 100 65 25 100 65 25 100 65 25 100 65 25 100 65 25 100 65 25 100 65 25 100 65 25 100 65 25 100 65 25 100 65 25 100 65 25 100 65 25 100 65 25 100 65 25 100 65 25 100 65 25 100 65 25 100 65 25 100 65 25 100 65 25 100 65 25 100 65 25 100 65 25 100 65 25 100 65 25 100 65 25 100 65 25 100 65 25 100 65 25 100 65 25 100 65 25 100 65 25 100 65 25 100 65 25 100 65 25 100 65 25 100 65 25 100 65 25 100 65 25 100 65 25 100 65 25 100 65 25 100 65 25 100 65 25 100 65 25 100 65 25 100 65 25 100 65 25 100 65 25 100 65 25 100 65 25 100 65 25 100 65 25 100 65 25 100 65 25 100 65 25 100 65 25 100 65 25 100 65 25 100 65 25 100 65 25 100 65 25 100 65 25 100 65 25 100 65 25 100 65 25 100 65 25 100 65 25 100 65 25 100 65 25 100 65 25 100 65 25 100 65 25 100 65 25 100 65 25 100 65 25 100 65 25 100 65 25 100 65 25 100 65 25 100 65 25 100 65 25 100 65 25 100 65 25 100 65 25 100 65 25 100 65 25 100 65 25 100 65 25 100 65 25 100 65 25 100 65 25 100 65 25 100 65 25 100 65 25 100 65 25 100 65 25 100 65 25 100 65 25 100 65 25 100 65 25 100 65 25 100 65 25 100 65 25 100 65 25 100 65 25 100 65 25 100 65 25 100 65 25 100 65 25 100 65 25 100 65 25 100 65 25 100 65 25 100 65 25 100 65 25 100 65 25 100 65 25 100 65 25 100 65 25 100 65 25 100 65 25 100 65 25 100 65 25 100 65 25 100 65 25 100 65 25 100 65 25 100 65 25 100 65 25 100 65 25 100 65 25 100 65 25 100 65 25 100 65 25 100 65 25 100 65 25 100 65 25 100 65 25 100 65
25 100 65 25 100 65 25 100 65 25 100 65 25 100 65 25 100 65 25 100 65 25 100 65 25 100 65 25 100 65 25 100 65 25 100 65 25 100 65 25 100 65 25 100 65 25 100 65 25 100 65 25 100 65 25 100 65 25 100 65 25 100 65 25 100 65 25 100 65 25 100 65 25 100 65 25 100 65 25 100 65 25 100 65 25 100 65 25 100 65 25 100 65 25 100 65 25 100 65 25 100 65 25 100 65 25 100 65 25 100 65 25 100 65 25 100 65 25 100 65 25 100 65 25 100 65 25 100 65 25 100 65 25 100 65 25 100 65 25 100 65 25 100 65 25 100 65 25 100 65 25 100 65 25 100 65 25 100 65 25 100 65 25 100 65 25 100 65 25 100 65 25 100 65 25 100 65 25 100 65 25 100 65 25 100 65 25 100 65 25 100 65 25 100 65 25 100 65 25 100 65 25 100 65 25 100 65 25 100 65 25 100 65 25 100 65 25 100 65 25 100 65 25 100 65 25 100 65 25 100 65 25 100 65 25 100 65 25 100 65 25 100 65 25 100 65 25 100 65 25 100 65 25 100 65 25 100 65 25 100 65 25 100 65 25 100 65 25 100 65 25 100 65 25 100 65 25 100 65 25 100 65 25 100 65 25 100 65 25 100 65 25 100 65 25 100 65 25 100 65 25 100 65 25 100 65 25 100 65 25 100 65 25 100 65 25 100 65 25 100 65 25 100 65 25 100 65 25 100 65 25 100 65 25 100 65 25 100 65 25 100 65 25 100 65 25 100 65 25 100 65 25 100 65 25 100 65 25 100 65 25 100 65 25 100 65 25 100 65 25 100 65 25 100 65 25 100 65 25 100 65 25 100 65 25 100 65 25 100 65 25 100 65 25 100 65 25 100 65 25 100 65 25 100 65 25 100 65 25 100 65 25 100 65 25 100 65 25 100 65 25 100 65 25 100 65 25 100 65 25 100 65 25 100 65 25 100 65 25 100 65 25 100 65 25 100 65 25 100 65 25 100 65 25 100 65 25 100 65 25 100 65 25 100 65 25 100 65 25 100 65 25 100 65 25 100 65 25 100 65 25 100 65 25 100 65 25 100 65 25 100 65 25 100 65 25 100 65 25 100 65 25 100 65 25 100 65 25 100 65 25 100 65 25 100 65 25 100 65 25 100 65 25 100 65 25 100 65 25 100 65 25 100 65 25 100 65 25 100 65 25 100 65 25 100 65 25 100 65 25 100 65 25 100 65 25 100 65 25 100 65 25 100 65 25 100 65 25 100 65 25 100 65 25 100 65 25 100 65 25 100 65 25 100 65 25 100 65 25 100 65 25 100 65 25 100 65 25 100 65 25 100 65 25 100 65 25 100 65 25 100 65 25 100 65 25 100 65 25 100 65 25 100 65 25 100 65 25 100 65 25 100 65 25 100 65 25 100 65 25 100 65 25 100 65 25 100 65 25 100 65 25 100 65 25 100 65 25 100 65 25 100 65 25 100 65 25 100 65 25 100 65 25 100 65 25 100 65 25 100 65 25 100 65 25 100 65 25 100 65 25 100 65 25 100 65 25 100 65 25 100 65 25 100 65 25 100 65 25 100 65 25 100 65 25 100 65 25 100 65 25 100 65 25 100 65 25 100 65 25 100 65 25 100 65 25 100 65 25 100 65 25 100 65 25 100 65 25 100 65 25 100 65 25 100 65 25 100 65 25 100 65 25 100 65 25 100 65 25 100 65 25 100 65 25 100 65 25 100 65 25 100 65 25 100 65 25 100 65 25 100 65 25 100 65 25 100 65 25 100 65 25 100 65 25 100 65 25 100 65 25 100 65 25 100 65 25 100 65 25 100 65 25 100 65 25 100 65 25 100 65 25 100 65 25 100 65 25 100 65 25 100 65 25 100 65 25 100 65 25 100 65 25 100 65 25 100 65 25 100 65 25 100 65 25 100 65 25 100 65 25 100 65 25 100 65 25 100 65 25 100 65 25 100 65 25 100 65 25 100 65 25 100 65 25 100 65 25 100 65 25 100 65 25 100 65 25 100 65 25 100 65 25 100 65 25 100 65 25 100 65 25 100 65 25 100 65 25 100 65 25 100 65 25 100 65 25 100 65 25 100 65 25 100 65 25 100 65 25 100 65 25 100 65 25 100 65 25 100 65
25 100 65 25 100 65 25 100 65 25 100 65 25 100 65 25 100 65 25 100 65 25 100 65 25 100 65 25 100 65 25 100 65 25 100 65 25 100 65 25 100 65 25 100 65 25 100 65 25 100 65 25 100 65 25 100 65 25 100 65 25 100 65 25 100 65 25 100 65 25 100 65 25 100 65 25 100 65 25 100 65 25 100 65 25 100 65 25 100 65 25 100 65 25 100 65 25 100 65 25 100 65 25 100 65 25 100 65 25 100 65 25 100 65 25 100 65 25 100 65 25 100 65 25 100 65 25 100 65 25 100 65 25 100 65 25 100 65 25 100 65 25 100 65 25 100 65 25 100 65 25 100 65 25 100 65 25 100 65 25 100 65 25 100 65 25 100 65 25 100 65 25 100 65 25 100 65 25 100 65 25 100 65 25 100 65 25 100 65 25 100 65 25 100 65 25 100 65 25 100 65 25 100 65 25 100 65 25 100 65 25 100 65 25 100 65 25 100 65 25 100 65 25 100 65 25 100 65 25 100 65 25 100 65 25 100 65 25 100 65 25 100 65 25 100 65 25 100 65 25 100 65 25 100 65 25 100 65 25 100 65 25 100 65 25 100 65 25 100 65 25 100 65 25 100 65 25 100 65 25 100 65 25 100 65 25 100 65 25 100 65 25 100 65 25 100 65 25 100 65 25 100 65 25 100 65 25 100 65 25 100 65 25 100 65 25 100 65 25 100 65 25 100 65 25 100 65 25 100 65 25 100 65 25 100 65 25 100 65 25 100 65 25 100 65 25 100 65 25 100 65 25 100 65 25 100 65 25 100 65 25 100 65 25 100 65 25 100 65 25 100 65 25 100 65 25 100 65 25 100 65 25 100 65 25 100 65 25 100 65 25 100 65 25 100 65 25 100 65 25 100 65 25 100 65 25 100 65 25 100 65 25 100 65 25 100 65 25 100 65 25 100 65 25 100 65 25 100 65 25 100 65 25 100 65 25 100 65 25 100 65 25 100 65 25 100 65 25 100 65 25 100 65 25 100 65 25 100 65 25 100 65 25 100 65 25 100 65 25 100 65 25 100 65 25 100 65 25 100 65 25 100 65 25 100 65 25 100 65 25 100 65 25 100 65 25 100 65 25 100 65 25 100 65 25 100 65 25 100 65 25 100 65 25 100 65 25 100 65 25 100 65 25 100 65 25 100 65 25 100 65 25 100 65 25 100 65 25 100 65 25 100 65 25 100 65 25 100 65 25 100 65 25 100 65 25 100 65 25 100 65 25 100 65 25 100 65 25 100 65 25 100 65 25 100 65 25 100 65 25 100 65 25 100 65 25 100 65 25 100 65 25 100 65 25 100 65 25 100 65 25 100 65 25 100 65 25 100 65 25 100 65 25 100 65 25 100 65 25 100 65 25 100 65 25 100 65 25 100 65 25 100 65 25 100 65 25 100 65 25 100 65 25 100 65 25 100 65 25 100 65 25 100 65 25 100 65 25 100 65 25 100 65 25 100 65 25 100 65 25 100 65 25 100 65 25 100 65 25 100 65 25 100 65 25 100 65 25 100 65 25 100 65 25 100 65 25 100 65 25 100 65 25 100 65 25 100 65 25 100 65 25 100 65 25 100 65 25 100 65 25 100 65 25 100 65 25 100 65 25 100 65 25 100 65 25 100 65 25 100 65 25 100 65 25 100 65 25 100 65 25 100 65 25 100 65 25 100 65 25 100 65 25 100 65 25 100 65 25 100 65 25 100 65 25 100 65 25 100 65 25 100 65 25 100 65 25 100 65 25 100 65 25 100 65 25 100 65 25 100 65 25 100 65 25 100 65 25 100 65 25 100 65 25 100 65 25 100 65 25 100 65 25 100 65 25 100 65 25 100 65 25 100 65 25 100 65 25 100 65 25 100 65 25 100 65 25 100 65 25 100 65 25 100 65 25 100 65 25 100 65 25 100 65 25 100 65 25 100 65 25 100 65 25 100 65 25 100 65 25 100 65 25 100 65 25 100 65 25 100 65 25 100 65 25 100 65 25 100 65 25 100 65 25 100 65 25 100 65 25 100 65 25 100 65 25 100 65 25 100 65 25 100 65 25 100 65 25 100 65 25 100 65 25 100 65 25 100 65 25 100 65 25 100 65 25 100 65 25 100 65 25 100 65 25 100 65 25 100 65
25 100 65 25 100 65 25 100 65 25 100 65 25 100 65 25 100 65 25 100 65 25 100 65 25 100 65 25 100 65 25 100 65 25 100 65 25 100 65 25 100 65 25 100 65 25 100 65 25 100 65 25 100 65 25 100 65 25 100 65 25 100 65 25 100 65 25 100 65 25 100 65 25 100 65 25 100 65 25 100 65 25 100 65 25 100 65 25 100 65 25 100 65 25 100 65 25 100 65 25 100 65 25 100 65 25 100 65 25 100 65 25 100 65 25 100 65 25 100 65 25 100 65 25 100 65 25 100 65 25 100 65 25 100 65 25 100 65 25 100 65 25 100 65 25 100 65 25 100 65 25 100 65 25 100 65 25 100 65 25 100 65 25 100 65 25 100 65 25 100 65 25 100 65 25 100 65 25 100 65 25 100 65 25 100 65 25 100 65 25 100 65 25 100 65 25 100 65 25 100 65 25 100 65 25 100 65 25 100 65 25 100 65 25 100 65 25 100 65 25 100 65 25 100 65 25 100 65 25 100 65 25 100 65 25 100 65 25 100 65 25 100 65 25 100 65 25 100 65 25 100 65 25 100 65 25 100 65 25 100 65 25 100 65 25 100 65 25 100 65 25 100 65 25 100 65 25 100 65 25 100 65 25 100 65 25 100 65 25 100 65 25 100 65 25 100 65 25 100 65 25 100 65 25 100 65 25 100 65 25 100 65 25 100 65 25 100 65 25 100 65 25 100 65 25 100 65 25 100 65 25 100 65 25 100 65 25 100 65 25 100 65 25 100 65 25 100 65 25 100 65 25 100 65 25 100 65 25 100 65 25 100 65 25 100 65 25 100 65 25 100 65 25 100 65 25 100 65 25 100 65 25 100 65 25 100 65 25 100 65 25 100 65 25 100 65 25 100 65 25 100 65 25 100 65 25 100 65 25 100 65 25 100 65 25 100 65 25 100 65 25 100 65 25 100 65 25 100 65 25 100 65 25 100 65 25 100 65 25 100 65 25 100 65 25 100 65 25 100 65 25 100 65 25 100 65 25 100 65 25 100 65 25 100 65 25 100 65 25 100 65 25 100 65 25 100 65 25 100 65 25 100 65 25 100 65 25 100 65 25 100 65 25 100 65 25 100 65 25 100 65 25 100 65 25 100 65 25 100 65 25 100 65 25 100 65 25 100 65 25 100 65 25 100 65 25 100 65 25 100 65 25 100 65 25 100 65 25 100 65 25 100 65 25 100 65 25 100 65 25 100 65 25 100 65 25 100 65 25 100 65 25 100 65 25 100 65 25 100 65 25 100 65 25 100 65 25 100 65 25 100 65 25 100 65 25 100 65 25 100 65 25 100 65 25 100 65 25 100 65 25 100 65 25 100 65 25 100 65 25 100 65 25 100 65 25 100 65 25 100 65 25 100 65 25 100 65 25 100 65 25 100 65 25 100 65 25 100 65 25 100 65 25 100 65 25 100 65 25 100 65 25 100 65 25 100 65 25 100 65 25 100 65 25 100 65 25 100 65 25 100 65 25 100 65 25 100 65 25 100 65 25 100 65 25 100 65 25 100 65 25 100 65 25 100 65 25 100 65 25 100 65 25 100 65 25 100 65 25 100 65 25 100 65 25 100 65 25 100 65 25 100 65 25 100 65 25 100 65 25 100 65 25 100 65 25 100 65 25 100 65 25 100 65 25 100 65 25 100 65 25 100 65 25 100 65 25 100 65 25 100 65 25 100 65 25 100 65 25 100 65 25 100 65 25 100 65 25 100 65 25 100 65 25 100 65 25 100 65 25 100 65 25 100 65 25 100 65 25 100 65 25 100 65 25 100 65 25 100 65 25 100 65 25 100 65 25 100 65 25 100 65 25 100 65 25 100 65 25 100 65 25 100 65 25 100 65 25 100 65 25 100 65 25 100 65 25 100 65 25 100 65 25 100 65 25 100 65 25 100 65 25 100 65 25 100 65 25 100 65 25 100 65 25 100 65 25 100 65 25 100 65 25 100 65 25 100 65 25 100 65 25 100 65 25 100 65 25 100 65 25 100 65 25 100 65 25 100 65 25 100 65 25 100 65 25 100 65 25 100 65 25 100 65 25 100 65 25 100 65 25 100 65 25 100 65 25 100 65 25 100 65 25 100 65 25 100 65 25 100 65 25 100 65 25 100 65 25 100 65
25 100 65 25 100 65 25 100 65 25 100 65 25 100 65 25 100 65 25 100 65 25 100 65 25 100 65 25 100 65 25 100 65 25 100 65 25 100 65 25 100 65 25 100 65 25 100 65 25 100 65 25 100 65 25 100 65 25 100 65 25 100 65 25 100 65 25 100 65 25 100 65 25 100 65 25 100 65 25 100 65 25 100 65 25 100 65 25 100 65 25 100 65 25 100 65 25 100 65 25 100 65 25 100 65 25 100 65 25 100 65 25 100 65 25 100 65 25 100 65 25 100 65 25 100 65 25 100 65 25 100 65 25 100 65 25 100 65 25 100 65 25 100 65 25 100 65 25 100 65 25 100 65 25 100 65 25 100 65 25 100 65 25 100 65 25 100 65 25 100 65 25 100 65 25 100 65 25 100 65 25 100 65 25 100 65 25 100 65 25 100 65 25 100 65 25 100 65 25 100 65 25 100 65 25 100 65 25 100 65 25 100 65 25 100 65 25 100 65 25 100 65 25 100 65 25 100 65 25 100 65 25 100 65 25 100 65 25 100 65 25 100 65 25 100 65 25 100 65 25 100 65 25 100 65 25 100 65 25 100 65 25 100 65 25 100 65 25 100 65 25 100 65 25 100 65 25 100 65 25 100 65 25 100 65 25 100 65 25 100 65 25 100 65 25 100 65 25 100 65 25 100 65 25 100 65 25 100 65 25 100 65 25 100 65 25 100 65 25 100 65 25 100 65 25 100 65 25 100 65 25 100 65 25 100 65 25 100 65 25 100 65 25 100 65 25 100 65 25 100 65 25 100 65 25 100 65 25 100 65 25 100 65 25 100 65 25 100 65 25 100 65 25 100 65 25 100 65 25 100 65 25 100 65 25 100 65 25 100 65 25 100 65 25 100 65 25 100 65 25 100 65 25 100 65 25 100 65 25 100 65 25 100 65 25 100 65 25 100 65 25 100 65 25 100 65 25 100 65 25 100 65 25 100 65 25 100 65 25 100 65 25 100 65 25 100 65 25 100 65 25 100 65 25 100 65 25 100 65 25 100 65 25 100 65 25 100 65 25 100 65 25 100 65 25 100 65 25 100 65 25 100 65 25 100 65 25 100 65 25 100 65 25 100 65 25 100 65 25 100 65 25 100 65 25 100 65 25 100 65 25 100 65 25 100 65 25 100 65 25 100 65 25 100 65 25 100 65 25 100 65 25 100 65 25 100 65 25 100 65 25 100 65 25 100 65 25 100 65 25 100 65 25 100 65 25 100 65 25 100 65 25 100 65 25 100 65 25 100 65 25 100 65 25 100 65 25 100 65 25 100 65 25 100 65 25 100 65 25 100 65 25 100 65 25 100 65 25 100 65 25 100 65 25 100 65 25 100 65 25 100 65 25 100 65 25 100 65 25 100 65 25 100 65 25 100 65 25 100 65 25 100 65 25 100 65 25 100 65 25 100 65 25 100 65 25 100 65 25 100 65 25 100 65 25 100 65 25 100 65 25 100 65 25 100 65 25 100 65 25 100 65 25 100 65 25 100 65 25 100 65 25 100 65 25 100 65 25 100 65 25 100 65 25 100 65 25 100 65 25 100 65 25 100 65 25 100 65 25 100 65 25 100 65 25 100 65 25 100 65 25 100 65 25 100 65 25 100 65 25 100 65 25 100 65 25 100 65 25 100 65 25 100 65 25 100 65 25 100 65 25 100 65 25 100 65 25 100 65 25 100 65 25 100 65 25 100 65 25 100 65 25 100 65 25 100 65 25 100 65 25 100 65 25 100 65 25 100 65 25 100 65 25 100 65 25 100 65 25 100 65 25 100 65 25 100 65 25 100 65 25 100 65 25 100 65 25 100 65 25 100 65 25 100 65 25 100 65 25 100 65 25 100 65 25 100 65 25 100 65 25 100 65 25 100 65 25 100 65 25 100 65 25 100 65 25 100 65 25 100 65 25 100 65 25 100 65 25 100 65 25 100 65 25 100 65 25 100 65 25 100 65 25 100 65 25 100 65 25 100 65 25 100 65 25 100 65 25 100 65 25 100 65 25 100 65 25 100 65 25 100 65 25 100 65 25 100 65 25 100 65 25 100 65 25 100 65 25 100 65 25 100 65 25 100 65 25 100 65 25 100 65 25 100 65 25 100 65 25 100 65 25 100 65 25 100 65 25 100 65
25 100 65 25 100 65 25 100 65 25 100 65 25 100 65 25 100 65 25 100 65 25 100 65 25 100 65 25 100 65 25 100 65 25 100 65 25 100 65 25 100 65 25 100 65 25 100 65 25 100 65 25 100 65 25 100 65 25 100 65 25 100 65 25 100 65 25 100 65 25 100 65 25 100 65 25 100 65 25 100 65 25 100 65 25 100 65 25 100 65 25 100 65 25 100 65 25 100 65 25 100 65 25 100 65 25 100 65 25 100 65 25 100 65 25 100 65 25 100 65 25 100 65 25 100 65 25 100 65 25 100 65 25 100 65 25 100 65 25 100 65 25 100 65 25 100 65 25 100 65 25 100 65 25 100 65 25 100 65 25 100 65 25 100 65 25 100 65 25 100 65 25 100 65 25 100 65 25 100 65 25 100 65 25 100 65 25 100 65 25 100 65 25 100 65 25 100 65 25 100 65 25 100 65 25 100 65 25 100 65 25 100 65 25 100 65 25 100 65 25 100 65 25 100 65 25 100 65 25 100 65 25 100 65 25 100 65 25 100 65 25 100 65 25 100 65 25 100 65 25 100 65 25 100 65 25 100 65 25 100 65 25 100 65 25 100 65 25 100 65 25 100 65 25 100 65 25 100 65 25 100 65 25 100 65 25 100 65 25 100 65 25 100 65 25 100 65 25 100 65 25 100 65 25 100 65 25 100 65 25 100 65 25 100 65 25 100 65 25 100 65 25 100 65 25 100 65 25 100 65 25 100 65 25 100 65 25 100 65 25 100 65 25 100 65 25 100 65 25 100 65 25 100 65 25 100 65 25 100 65 25 100 65 25 100 65 25 100 65 25 100 65 25 100 65 25 100 65 25 100 65 25 100 65 25 100 65 25 100 65 25 100 65 25 100 65 25 100 65 25 100 65 25 100 65 25 100 65 25 100 65 25 100 65 25 100 65 25 100 65 25 100 65 25 100 65 25 100 65 25 100 65 25 100 65 25 100 65 25 100 65 25 100 65 25 100 65 25 100 65 25 100 65 25 100 65 25 100 65 25 100 65 25 100 65 25 100 65 25 100 65 25 100 65 25 100 65 25 100 65 25 100 65 25 100 65 25 100 65 25 100 65 25 100 65 25 100 65 25 100 65 25 100 65 25 100 65 25 100 65 25 100 65 25 100 65 25 100 65 25 100 65 25 100 65 25 100 65 25 100 65 25 100 65 25 100 65 25 100 65 25 100 65 25 100 65 25 100 65 25 100 65 25 100 65 25 100 65 25 100 65 25 100 65 25 100 65 25 100 65 25 100 65 25 100 65 25 100 65 25 100 65 25 100 65 25 100 65 25 100 65 25 100 65 25 100 65 25 100 65 25 100 65 25 100 65 25 100 65 25 100 65 25 100 65 25 100 65 25 100 65 25 100 65 25 100 65 25 100 65 25 100 65 25 100 65 25 100 65 25 100 65 25 100 65 25 100 65 25 100 65 25 100 65 25 100 65 25 100 65 25 100 65 25 100 65 25 100 65 25 100 65 25 100 65 25 100 65 25 100 65 25 100 65 25 100 65 25 100 65 25 100 65 25 100 65 25 100 65 25 100 65 25 100 65 25 100 65 25 100 65 25 100 65 25 100 65 25 100 65 25 100 65 25 100 65 25 100 65 25 100 65 25 100 65 25 100 65 25 100 65 25 100 65 25 100 65 25 100 65 25 100 65 25 100 65 25 100 65 25 100 65 25 100 65 25 100 65 25 100 65 25 100 65 25 100 65 25 100 65 25 100 65 25 100 65 25 100 65 25 100 65 25 100 65 25 100 65 25 100 65 25 100 65 25 100 65 25 100 65 25 100 65 25 100 65 25 100 65 25 100 65 25 100 65 25 100 65 25 100 65 25 100 65 25 100 65 25 100 65 25 100 65 25 100 65 25 100 65 25 100 65 25 100 65 25 100 65 25 100 65 25 100 65 25 100 65 25 100 65 25 100 65 25 100 65 25 100 65 25 100 65 25 100 65 25 100 65 25 100 65 25 100 65 25 100 65 25 100 65 25 100 65 25 100 65 25 100 65 25 100 65 25 100 65 25 100 65 25 100 65 25 100 65 25 100 65 25 100 65 25 100 65 25 100 65 25 100 65 25 100 65 25 100 65 25 100 65 25 100 65 25 100 65 25 100 65 25 100 65
25 100 65 25 100 65 25 100 65 25 100 65 25 100 65 25 100 65 25 100 65 25 100 65 25 100 65 25 100 65 25 100 65 25 100 65 25 100 65 25 100 65 25 100 65 25 100 65 25 100 65 25 100 65 25 100 65 25 100 65 25 100 65 25 100 65 25 100 65 25 100 65 25 100 65 25 100 65 25 100 65 25 100 65 25 100 65 25 100 65 25 100 65 25 100 65 25 100 65 25 100 65 25 100 65 25 100 65 25 100 65 25 100 65 25 100 65 25 100 65 25 100 65 25 100 65 25 100 65 25 100 65 25 100 65 25 100 65 25 100 65 25 100 65 25 100 65 25 100 65 25 100 65 25 100 65 25 100 65 25 100 65 25 100 65 25 100 65 25 100 65 25 100 65 25 100 65 25 100 65 25 100 65 25 100 65 25 100 65 25 100 65 25 100 65 25 100 65 25 100 65 25 100 65 25 100 65 25 100 65 25 100 65 25 100 65 25 100 65 25 100 65 25 100 65 25 100 65 25 100 65 25 100 65 25 100 65 25 100 65 25 100 65 25 100 65 25 100 65 25 100 65 25 100 65 25 100 65 25 100 65 25 100 65 25 100 65 25 100 65 25 100 65 25 100 65 25 100 65 25 100 65 25 100 65 25 100 65 25 100 65 25 100 65 25 100 65 25 100 65 25 100 65 25 100 65 25 100 65 25 100 65 25 100 65 25 100 65 25 100 65 25 100 65 25 100 65 25 100 65 25 100 65 25 100 65 25 100 65 25 100 65 25 100 65 25 100 65 25 100 65 25 100 65 25 100 65 25 100 65 25 100 65 25 100 65 25 100 65 25 100 65 25 100 65 25 100 65 25 100 65 25 100 65 25 100 65 25 100 65 25 100 65 25 100 65 25 100 65 25 100 65 25 100 65 25 100 65 25 100 65 25 100 65 25 100 65 25 100 65 25 100 65 25 100 65 25 100 65 25 100 65 25 100 65 25 100 65 25 100 65 25 100 65 25 100 65 25 100 65 25 100 65 25 100 65 25 100 65 25 100 65 25 100 65 25 100 65 25 100 65 25 100 65 25 100 65 25 100 65 25 100 65 25 100 65 25 100 65 25 100 65 25 100 65 25 100 65 25 100 65 25 100 65 25 100 65 25 100 65 25 100 65 25 100 65 25 100 65 25 100 65 25 100 65 25 100 65 25 100 65 25 100 65 25 100 65 25 100 65 25 100 65 25 100 65 25 100 65 25 100 65 25 100 65 25 100 65 25 100 65 25 100 65 25 100 65 25 100 65 25 100 65 25 100 65 25 100 65 25 100 65 25 100 65 25 100 65 25 100 65 25 100 65 25 100 65 25 100 65 25 100 65 25 100 65 25 100 65 25 100 65 25 100 65 25 100 65 25 100 65 25 100 65 25 100 65 25 100 65 25 100 65 25 100 65 25 100 65 25 100 65 25 100 65 25 100 65 25 100 65 25 100 65 25 100 65 25 100 65 25 100 65 25 100 65 25 100 65 25 100 65 25 100 65 25 100 65 25 100 65 25 100 65 25 100 65 25 100 65 25 100 65 25 100 65 25 100 65 25 100 65 25 100 65 25 100 65 25 100 65 25 100 65 25 100 65 25 100 65 25 100 65 25 100 65 25 100 65 25 100 65 25 100 65 25 100 65 25 100 65 25 100 65 25 100 65 25 100 65 25 100 65 25 100 65 25 100 65 25 100 65 25 100 65 25 100 65 25 100 65 25 100 65 25 100 65 25 100 65 25 100 65 25 100 65 25 100 65 25 100 65 25 100 65 25 100 65 25 100 65 25 100 65 25 100 65 25 100 65 25 100 65 25 100 65 25 100 65 25 100 65 25 100 65 25 100 65 25 100 65 25 100 65 25 100 65 25 100 65 25 100 65 25 100 65 25 100 65 25 100 65 25 100 65 25 100 65 25 100 65 25 100 65 25 100 65 25 100 65 25 100 65 25 100 65 25 100 65 25 100 65 25 100 65 25 100 65 25 100 65 25 100 65 25 100 65 25 100 65 25 100 65 25 100 65 25 100 65 25 100 65 25 100 65 25 100 65 25 100 65 25 100 65 25 100 65 25 100 65 25 100 65 25 100 65 25 100 65 25 100 65 25 100 65 25 100 65 25 100 65 25 100 65 25 100 65 25 100 65
25 100 65 25 100 65 25 100 65 25 100 65 25 100 65 25 100 65 25 100 65 25 100 65 25 100 65 25 100 65 25 100 65 25 100 65 25 100 65 25 100 65 25 100 65 25 100 65 25 100 65 25 100 65 25 100 65 25 100 65 25 100 65 25 100 65 25 100 65 25 100 65 25 100 65 25 100 65 25 100 65 25 100 65 25 100 65 25 100 65 25 100 65 25 100 65 25 100 65 25 100 65 25 100 65 25 100 65 25 100 65 25 100 65 25 100 65 25 100 65 25 100 65 25 100 65 25 100 65 25 100 65 25 100 65 25 100 65 25 100 65 25 100 65 25 100 65 25 100 65 25 100 65 25 100 65 25 100 65 25 100 65 25 100 65 25 100 65 25 100 65 25 100 65 25 100 65 25 100 65 25 100 65 25 100 65 25 100 65 25 100 65 25 100 65 25 100 65 25 100 65 25 100 65 25 100 65 25 100 65 25 100 65 25 100 65 25 100 65 25 100 65 25 100 65 25 100 65 25 100 65 25 100 65 25 100 65 25 100 65 25 100 65 25 100 65 25 100 65 25 100 65 25 100 65 25 100 65 25 100 65 25 100 65 25 100 65 25 100 65 25 100 65 25 100 65 25 100 65 25 100 65 25 100 65 25 100 65 25 100 65 25 100 65 25 100 65 25 100 65 25 100 65 25 100 65 25 100 65 25 100 65 25 100 65 25 100 65 25 100 65 25 100 65 25 100 65 25 100 65 25 100 65 25 100 65 25 100 65 25 100 65 25 100 65 25 100 65 25 100 65 25 100 65 25 100 65 25 100 65 25 100 65 25 100 65 25 100 65 25 100 65 25 100 65 25 100 65 25 100 65 25 100 65 25 100 65 25 100 65 25 100 65 25 100 65 25 100 65 25 100 65 25 100 65 25 100 65 25 100 65 25 100 65 25 100 65 25 100 65 25 100 65 25 100 65 25 100 65 25 100 65 25 100 65 25 100 65 25 100 65 25 100 65 25 100 65 25 100 65 25 100 65 25 100 65 25 100 65 25 100 65 25 100 65 25 100 65 25 100 65 25 100 65 25 100 65 25 100 65 25 100 65 25 100 65 25 100 65 25 100 65 25 100 65 25 100 65 25 100 65 25 100 65 25 100 65 25 100 65 25 100 65 25 100 65 25 100 65 25 100 65 25 100 65 25 100 65 25 100 65 25 100 65 25 100 65 25 100 65 25 100 65 25 100 65 25 100 65 25 100 65 25 100 65 25 100 65 25 100 65 25 100 65 25 100 65 25 100 65 25 100 65 25 100 65 25 100 65 25 100 65 25 100 65 25 100 65 25 100 65 25 100 65 25 100 65 25 100 65 25 100 65 25 100 65 25 100 65 25 100 65 25 100 65 25 100 65 25 100 65 25 100 65 25 100 65 25 100 65 25 100 65 25 100 65 25 100 65 25 100 65 25 100 65 25 100 65 25 100 65 25 100 65 25 100 65 25 100 65 25 100 65 25 100 65 25 100 65 25 100 65 25 100 65 25 100 65 25 100 65 25 100 65 25 100 65 25 100 65 25 100 65 25 100 65 25 100 65 25 100 65 25 100 65 25 100 65 25 100 65 25 100 65 25 100 65 25 100 65 25 100 65 25 100 65 25 100 65 25 100 65 25 100 65 25 100 65 25 100 65 25 100 65 25 100 65 25 100 65 25 100 65 25 100 65 25 100 65 25 100 65 25 100 65 25 100 65 25 100 65 25 100 65 25 100 65 25 100 65 25 100 65 25 100 65 25 100 65 25 100 65 25 100 65 25 100 65 25 100 65 25 100 65 25 100 65 25 100 65 25 100 65 25 100 65 25 100 65 25 100 65 25 100 65 25 100 65 25 100 65 25 100 65 25 100 65 25 100 65 25 100 65 25 100 65 25 100 65 25 100 65 25 100 65 25 100 65 25 100 65 25 100 65 25 100 65 25 100 65 25 100 65 25 100 65 25 100 65 25 100 65 25 100 65 25 100 65 25 100 65 25 100 65 25 100 65 25 100 65 25 100 65 25 100 65 25 100 65 25 100 65 25 100 65 25 100 65 25 100 65 25 100 65 25 100 65 25 100 65 25 100 65 25 100 65 25 100 65 25 100 65 25 100 65 25 100 65 25 100 65 25 100 65 25 100 65 25 100 65
25 100 65 25 100 65 25 100 65 25 100 65 25 100 65 25 100 65 25 100 65 25 100 65 25 100 65 25 100 65 25 100 65 25 100 65 25 100 65 25 100 65 25 100 65 25 100 65 25 100 65 25 100 65 25 100 65 25 100 65 25 100 65 25 100 65 25 100 65 25 100 65 25 100 65 25 100 65 25 100 65 25 100 65 25 100 65 25 100 65 25 100 65 25 100 65 25 100 65 25 100 65 25 100 65 25 100 65 25 100 65 25 100 65 25 100 65 25 100 65 25 100 65 25 100 65 25 100 65 25 100 65 25 100 65 25 100 65 25 100 65 25 100 65 25 100 65 25 100 65 25 100 65 25 100 65 25 100 65 25 100 65 25 100 65 25 100 65 25 100 65 25 100 65 25 100 65 25 100 65 25 100 65 25 100 65 25 100 65 25 100 65 25 100 65 25 100 65 25 100 65 25 100 65 25 100 65 25 100 65 25 100 65 25 100 65 25 100 65 25 100 65 25 100 65 25 100 65 25 100 65 25 100 65 25 100 65 25 100 65 25 100 65 25 100 65 25 100 65 25 100 65 25 100 65 25 100 65 25 100 65 25 100 65 25 100 65 25 100 65 25 100 65 25 100 65 25 100 65 25 100 65 25 100 65 25 100 65 25 100 65 25 100 65 25 100 65 25 100 65 25 100 65 25 100 65 25 100 65 25 100 65 25 100 65 25 100 65 25 100 65 25 100 65 25 100 65 25 100 65 25 100 65 25 100 65 25 100 65 25 100 65 25 100 65 25 100 65 25 100 65 25 100 65 25 100 65 25 100 65 25 100 65 25 100 65 25 100 65 25 100 65 25 100 65 25 100 65 25 100 65 25 100 65 25 100 65 25 100 65 25 100 65 25 100 65 25 100 65 25 100 65 25 100 65 25 100 65 25 100 65 25 100 65 25 100 65 25 100 65 25 100 65 25 100 65 25 100 65 25 100 65 25 100 65 25 100 65 25 100 65 25 100 65 25 100 65 25 100 65 25 100 65 25 100 65 25 100 65 25 100 65 25 100 65 25 100 65 25 100 65 25 100 65 25 100 65 25 100 65 25 100 65 25 100 65 25 100 65 25 100 65 25 100 65 25 100 65 25 100 65 25 100 65 25 100 65 25 100 65 25 100 65 25 100 65 25 100 65 25 100 65 25 100 65 25 100 65 25 100 65 25 100 65 25 100 65 25 100 65 25 100 65 25 100 65 25 100 65 25 100 65 25 100 65 25 100 65 25 100 65 25 100 65 25 100 65 25 100 65 25 100 65 25 100 65 25 100 65 25 100 65 25 100 65 25 100 65 25 100 65 25 100 65 25 100 65 25 100 65 25 100 65 25 100 65 25 100 65 25 100 65 25 100 65 25 100 65 25 100 65 25 100 65 25 100 65 25 100 65 25 100 65 25 100 65 25 100 65 25 100 65 25 100 65 25 100 65 25 100 65 25 100 65 25 100 65 25 100 65 25 100 65 25 100 65 25 100 65 25 100 65 25 100 65 25 100 65 25 100 65 25 100 65 25 100 65 25 100 65 25 100 65 25 100 65 25 100 65 25 100 65 25 100 65 25 100 65 25 100 65 25 100 65 25 100 65 25 100 65 25 100 65 25 100 65 25 100 65 25 100 65 25 100 65 25 100 65 25 100 65 25 100 65 25 100 65 25 100 65 25 100 65 25 100 65 25 100 65 25 100 65 25 100 65 25 100 65 25 100 65 25 100 65 25 100 65 25 100 65 25 100 65 25 100 65 25 100 65 25 100 65 25 100 65 25 100 65 25 100 65 25 100 65 25 100 65 25 100 65 25 100 65 25 100 65 25 100 65 25 100 65 25 100 65 25 100 65 25 100 65 25 100 65 25 100 65 25 100 65 25 100 65 25 100 65 25 100 65 25 100 65 25 100 65 25 100 65 25 100 65 25 100 65 25 100 65 25 100 65 25 100 65 25 100 65 25 100 65 25 100 65 25 100 65 25 100 65 25 100 65 25 100 65 25 100 65 25 100 65 25 100 65 25 100 65 25 100 65 25 100 65 25 100 65 25 100 65 25 100 65 25 100 65 25 100 65 25 100 65 25 100 65 25 100 65 25 100 65 25 100 65 25 100 65 25 100 65 25 100 65 25 100 65 25 100 65 25 100 65
25 100 65 25 100 65 25 100 65 25 100 65 25 100 65 25 100 65 25 100 65 25 100 65 25 100 65 25 100 65 25 100 65 25 100 65 25 100 65 25 100 65 25 100 65 25 100 65 25 100 65 25 100 65 25 100 65 25 100 65 25 100 65 25 100 65 25 100 65 25 100 65 25 100 65 25 100 65 25 100 65 25 100 65 25 100 65 25 100 65 25 100 65 25 100 65 25 100 65 25 100 65 25 100 65 25 100 65 25 100 65 25 100 65 25 100 65 25 100 65 25 100 65 25 100 65 25 100 65 25 100 65 25 100 65 25 100 65 25 100 65 25 100 65 25 100 65 25 100 65 25 100 65 25 100 65 25 100 65 25 100 65 25 100 65 25 100 65 25 100 65 25 100 65 25 100 65 25 100 65 25 100 65 25 100 65 25 100 65 25 100 65 25 100 65 25 100 65 25 100 65 25 100 65 25 100 65 25 100 65 25 100 65 25 100 65 25 100 65 25 100 65 25 100 65 25 100 65 25 100 65 25 100 65 25 100 65 25 100 65 25 100 65 25 100 65 25 100 65 25 100 65 25 100 65 25 100 65 25 100 65 25 100 65 25 100 65 25 100 65 25 100 65 25 100 65 25 100 65 25 100 65 25 100 65 25 100 65 25 100 65 25 100 65 25 100 65 25 100 65 25 100 65 25 100 65 25 100 65 25 100 65 25 100 65 25 100 65 25 100 65 25 100 65 25 100 65 25 100 65 25 100 65 25 100 65 25 100 65 25 100 65 25 100 65 25 100 65 25 100 65 25 100 65 25 100 65 25 100 65 25 100 65 25 100 65 25 100 65 25 100 65 25 100 65 25 100 65 25 100 65 25 100 65 25 100 65 25 100 65 25 100 65 25 100 65 25 100 65 25 100 65 25 100 65 25 100 65 25 100 65 25 100 65 25 100 65 25 100 65 25 100 65 25 100 65 25 100 65 25 100 65 25 100 65 25 100 65 25 100 65 25 100 65 25 100 65 25 100 65 25 100 65 25 100 65 25 100 65 25 100 65 25 100 65 25 100 65 25 100 65 25 100 65 25 100 65 25 100 65 25 100 65 25 100 65 25 100 65 25 100 65 25 100 65 25 100 65 25 100 65 25 100 65 25 100 65 25 100 65 25 100 65 25 100 65 25 100 65 25 100 65 25 100 65 25 100 65 25 100 65 25 100 65 25 100 65 25 100 65 25 100 65 25 100 65 25 100 65 25 100 65 25 100 65 25 100 65 25 100 65 25 100 65 25 100 65 25 100 65 25 100 65 25 100 65 25 100 65 25 100 65 25 100 65 25 100 65 25 100 65 25 100 65 25 100 65 25 100 65 25 100 65 25 100 65 25 100 65 25 100 65 25 100 65 25 100 65 25 100 65 25 100 65 25 100 65 25 100 65 25 100 65 25 100 65 25 100 65 25 100 65 25 100 65 25 100 65 25 100 65 25 100 65 25 100 65 25 100 65 25 100 65 25 100 65 25 100 65 25 100 65 25 100 65 25 100 65 25 100 65 25 100 65 25 100 65 25 100 65 25 100 65 25 100 65 25 100 65 25 100 65 25 100 65 25 100 65 25 100 65 25 100 65 25 100 65 25 100 65 25 100 65 25 100 65 25 100 65 25 100 65 25 100 65 25 100 65 25 100 65 25 100 65 25 100 65 25 100 65 25 100 65 25 100 65 25 100 65 25 100 65 25 100 65 25 100 65 25 100 65 25 100 65 25 100 65 25 100 65 25 100 65 25 100 65 25 100 65 25 100 65 25 100 65 25 100 65 25 100 65 25 100 65 25 100 65 25 100 65 25 100 65 25 100 65 25 100 65 25 100 65 25 100 65 25 100 65 25 100 65 25 100 65 25 100 65 25 100 65 25 100 65 25 100 65 25 100 65 25 100 65 25 100 65 25 100 65 25 100 65 25 100 65 25 100 65 25 100 65 25 100 65 25 100 65 25 100 65 25 100 65 25 100 65 25 100 65 25 100 65 25 100 65 25 100 65 25 100 65 25 100 65 25 100 65 25 100 65 25 100 65 25 100 65 25 100 65 25 100 65 25 100 65 25 100 65 25 100 65 25 100 65 25 100 65 25 100 65 25 100 65 25 100 65 25 100 65 25 100 65 25 100 65 25 100 65 25 100 65
25 100 65 25 100 65 25 100 65 25 100 65 25 100 65 25 100 65 25 100 65 25 100 65 25 100 65 25 100 65 25 100 65 25 100 65 25 100 65 25 100 65 25 100 65 25 100 65 25 100 65 25 100 65 25 100 65 25 100 65 25 100 65 25 100 65 25 100 65 25 100 65 25 100 65 25 100 65 25 100 65 25 100 65 25 100 65 25 100 65 25 100 65 25 100 65 25 100 65 25 100 65 25 100 65 25 100 65 25 100 65 25 100 65 25 100 65 25 100 65 25 100 65 25 100 65 25 100 65 25 100 65 25 100 65 25 100 65 25 100 65 25 100 65 25 100 65 25 100 65 25 100 65 25 100 65 25 100 65 25 100 65 25 100 65 25 100 65 25 100 65 25 100 65 25 100 65 25 100 65 25 100 65 25 100 65 25 100 65 25 100 65 25 100 65 25 100 65 25 100 65 25 100 65 25 100 65 25 100 65 25 100 65 25 100 65 25 100 65 25 100 65 25 100 65 25 100 65 25 100 65 25 100 65 25 100 65 25 100 65 25 100 65 25 100 65 25 100 65 25 100 65 25 100 65 25 100 65 25 100 65 25 100 65 25 100 65 25 100 65 25 100 65 25 100 65 25 100 65 25 100 65 25 100 65 25 100 65 25 100 65 25 100 65 25 100 65 25 100 65 25 100 65 25 100 65 25 100 65 25 100 65 25 100 65 25 100 65 25 100 65 25 100 65 25 100 65 25 100 65 25 100 65 25 100 65 25 100 65 25 100 65 25 100 65 25 100 65 25 100 65 25 100 65 25 100 65 25 100 65 25 100 65 25 100 65 25 100 65 25 100 65 25 100 65 25 100 65 25 100 65 25 100 65 25 100 65 25 100 65 25 100 65 25 100 65 25 100 65 25 100 65 25 100 65 25 100 65 25 100 65 25 100 65 25 100 65 25 100 65 25 100 65 25 100 65 25 100 65 25 100 65 25 100 65 25 100 65 25 100 65 25 100 65 25 100 65 25 100 65 25 100 65 25 100 65 25 100 65 25 100 65 25 100 65 25 100 65 25 100 65 25 100 65 25 100 65 25 100 65 25 100 65 25 100 65 25 100 65 25 100 65 25 100 65 25 100 65 25 100 65 25 100 65 25 100 65 25 100 65 25 100 65 25 100 65 25 100 65 25 100 65 25 100 65 25 100 65 25 100 65 25 100 65 25 100 65 25 100 65 25 100 65 25 100 65 25 100 65 25 100 65 25 100 65 25 100 65 25 100 65 25 100 65 25 100 65 25 100 65 25 100 65 25 100 65 25 100 65 25 100 65 25 100 65 25 100 65 25 100 65 25 100 65 25 100 65 25 100 65 25 100 65 25 100 65 25 100 65 25 100 65 25 100 65 25 100 65 25 100 65 25 100 65 25 100 65 25 100 65 25 100 65 25 100 65 25 100 65 25 100 65 25 100 65 25 100 65 25 100 65 25 100 65 25 100 65 25 100 65 25 100 65 25 100 65 25 100 65 25 100 65 25 100 65 25 100 65 25 100 65 25 100 65 25 100 65 25 100 65 25 100 65 25 100 65 25 100 65 25 100 65 25 100 65 25 100 65 25 100 65 25 100 65 25 100 65 25 100 65 25 100 65 25 100 65 25 100 65 25 100 65 25 100 65 25 100 65 25 100 65 25 100 65 25 100 65 25 100 65 25 100 65 25 100 65 25 100 65 25 100 65 25 100 65 25 100 65 25 100 65 25 100 65 25 100 65 25 100 65 25 100 65 25 100 65 25 100 65 25 100 65 25 100 65 25 100 65 25 100 65 25 100 65 25 100 65 25 100 65 25 100 65 25 100 65 25 100 65 25 100 65 25 100 65 25 100 65 25 100 65 25 100 65 25 100 65 25 100 65 25 100 65 25 100 65 25 100 65 25 100 65 25 100 65 25 100 65 25 100 65 25 100 65 25 100 65 25 100 65 25 100 65 25 100 65 25 100 65 25 100 65 25 100 65 25 100 65 25 100 65 25 100 65 25 100 65 25 100 65 25 100 65 25 100 65 25 100 65 25 100 65 25 100 65 25 100 65 25 100 65 25 100 65 25 100 65 25 100 65 25 100 65 25 100 65 25 100 65 25 100 65 25 100 65 25 100 65 25 100 65 25 100 65 25 100 65 25 100 65
25 100 65 25 100 65 25 100 65 25 100 65 25 100 65 25 100 65 25 100 65 25 100 65 25 100 65 25 100 65 25 100 65 25 100 65 25 100 65 25 100 65 25 100 65 25 100 65 25 100 65 25 100 65 25 100 65 25 100 65 25 100 65 25 100 65 25 100 65 25 100 65 25 100 65 25 100 65 25 100 65 25 100 65 25 100 65 25 100 65 25 100 65 25 100 65 25 100 65 25 100 65 25 100 65 25 100 65 25 100 65 25 100 65 25 100 65 25 100 65 25 100 65 25 100 65 25 100 65 25 100 65 25 100 65 25 100 65 25 100 65 25 100 65 25 100 65 25 100 65 25 100 65 25 100 65 25 100 65 25 100 65 25 100 65 25 100 65 25 100 65 25 100 65 25 100 65 25 100 65 25 100 65 25 100 65 25 100 65 25 100 65 25 100 65 25 100 65 25 100 65 25 100 65 25 100 65 25 100 65 25 100 65 25 100 65 25 100 65 25 100 65 25 100 65 25 100 65 25 100 65 25 100 65 25 100 65 25 100 65 25 100 65 25 100 65 25 100 65 25 100 65 25 100 65 25 100 65 25 100 65 25 100 65 25 100 65 25 100 65 25 100 65 25 100 65 25 100 65 25 100 65 25 100 65 25 100 65 25 100 65 25 100 65 25 100 65 25 100 65 25 100 65 25 100 65 25 100 65 25 100 65 25 100 65 25 100 65 25 100 65 25 100 65 25 100 65 25 100 65 25 100 65 25 100 65 25 100 65 25 100 65 25 100 65 25 100 65 25 100 65 25 100 65 25 100 65 25 100 65 25 100 65 25 100 65 25 100 65 25 100 65 25 100 65 25 100 65 25 100 65 25 100 65 25 100 65 25 100 65 25 100 65 25 100 65 25 100 65 25 100 65 25 100 65 25 100 65 25 100 65 25 100 65 25 100 65 25 100 65 25 100 65 25 100 65 25 100 65 25 100 65 25 100 65 25 100 65 25 100 65 25 100 65 25 100 65 25 100 65 25 100 65 25 100 65 25 100 65 25 100 65 25 100 65 25 100 65 25 100 65 25 100 65 25 100 65 25 100 65 25 100 65 25 100 65 25 100 65 25 100 65 25 100 65 25 100 65 25 100 65 25 100 65 25 100 65 25 100 65 25 100 65 25 100 65 25 100 65 25 100 65 25 100 65 25 100 65 25 100 65 25 100 65 25 100 65 25 100 65 25 100 65 25 100 65 25 100 65 25 100 65 25 100 65 25 100 65 25 100 65 25 100 65 25 100 65 25 100 65 25 100 65 25 100 65 25 100 65 25 100 65 25 100 65 25 100 65 25 100 65 25 100 65 25 100 65 25 100 65 25 100 65 25 100 65 25 100 65 25 100 65 25 100 65 25 100 65 25 100 65 25 100 65 25 100 65 25 100 65 25 100 65 25 100 65 25 100 65 25 100 65 25 100 65 25 100 65 25 100 65 25 100 65 25 100 65 25 100 65 25 100 65 25 100 65 25 100 65 25 100 65 25 100 65 25 100 65 25 100 65 25 100 65 25 100 65 25 100 65 25 100 65 25 100 65 25 100 65 25 100 65 25 100 65 25 100 65 25 100 65 25 100 65 25 100 65 25 100 65 25 100 65 25 100 65 25 100 65 25 100 65 25 100 65 25 100 65 25 100 65 25 100 65 25 100 65 25 100 65 25 100 65 25 100 65 25 100 65 25 100 65 25 100 65 25 100 65 25 100 65 25 100 65 25 100 65 25 100 65 25 100 65 25 100 65 25 100 65 25 100 65 25 100 65 25 100 65 25 100 65 25 100 65 25 100 65 25 100 65 25 100 65 25 100 65 25 100 65 25 100 65 25 100 65 25 100 65 25 100 65 25 100 65 25 100 65 25 100 65 25 100 65 25 100 65 25 100 65 25 100 65 25 100 65 25 100 65 25 100 65 25 100 65 25 100 65 25 100 65 25 100 65 25 100 65 25 100 65 25 100 65 25 100 65 25 100 65 25 100 65 25 100 65 25 100 65 25 100 65 25 100 65 25 100 65 25 100 65 25 100 65 25 100 65 25 100 65 25 100 65 25 100 65 25 100 65 25 100 65 25 100 65 25 100 65 25 100 65 25 100 65 25 100 65 25 100 65 25 100 65 25 100 65 25 100 65 25 100 65
25 100 65 25 100 65 25 100 65 25 100 65 25 100 65 25 100 65 25 100 65 25 100 65 25 100 65 25 100 65 25 100 65 25 100 65 25 100 65 25 100 65 25 100 65 25 100 65 25 100 65 25 100 65 25 100 65 25 100 65 25 100 65 25 100 65 25 100 65 25 100 65 25 100 65 25 100 65 25 100 65 25 100 65 25 100 65 25 100 65 25 100 65 25 100 65 25 100 65 25 100 65 25 100 65 25 100 65 25 100 65 25 100 65 25 100 65 25 100 65 25 100 65 25 100 65 25 100 65 25 100 65 25 100 65 25 100 65 25 100 65 25 100 65 25 100 65 25 100 65 25 100 65 25 100 65 25 100 65 25 100 65 25 100 65 25 100 65 25 100 65 25 100 65 25 100 65 25 100 65 25 100 65 25 100 65 25 100 65 25 100 65 25 100 65 25 100 65 25 100 65 25 100 65 25 100 65 25 100 65 25 100 65 25 100 65 25 100 65 25 100 65 25 100 65 25 100 65 25 100 65 25 100 65 25 100 65 25 100 65 25 100 65 25 100 65 25 100 65 25 100 65 25 100 65 25 100 65 25 100 65 25 100 65 25 100 65 25 100 65 25 100 65 25 100 65 25 100 65 25 100 65 25 100 65 25 100 65 25 100 65 25 100 65 25 100 65 25 100 65 25 100 65 25 100 65 25 100 65 25 100 65 25 100 65 25 100 65 25 100 65 25 100 65 25 100 65 25 100 65 25 100 65 25 100 65 25 100 65 25 100 65 25 100 65 25 100 65 25 100 65 25 100 65 25 100 65 25 100 65 25 100 65 25 100 65 25 100 65 25 100 65 25 100 65 25 100 65 25 100 65 25 100 65 25 100 65 25 100 65 25 100 65 25 100 65 25 100 65 25 100 65 25 100 65 25 100 65 25 100 65 25 100 65 25 100 65 25 100 65 25 100 65 25 100 65 25 100 65 15 15 15 15 15 15 25 100 65 25 100 65 25 100 65 25 100 65 25 100 65 25 100 65 25 100 65 25 100 65 25 100 65 25 100 65 25 100 65 25 100 65 25 100 65 25 100 65 25 100 65 25 100 65 25 100 65 25 100 65 25 100 65 25 100 65 25 100 65 25 100 65 25 100 65 25 100 65 25 100 65 25 100 65 25 100 65 25 100 65 25 100 65 25 100 65 25 100 65 25 100 65 25 100 65 25 100 65 25 100 65 25 100 65 25 100 65 25 100 65 25 100 65 25 100 65 25 100 65 25 100 65 25 100 65 25 100 65 25 100 65 25 100 65 25 100 65 25 100 65 25 100 65 25 100 65 25 100 65 25 100 65 25 100 65 25 100 65 25 100 65 25 100 65 25 100 65 25 100 65 25 100 65 25 100 65 25 100 65 25 100 65 25 100 65 25 100 65 25 100 65 25 100 65 25 100 65 25 100 65 25 100 65 25 100 65 25 100 65 25 100 65 25 100 65 25 100 65 25 100 65 25 100 65 25 100 65 25 100 65 25 100 65 25 100 65 25 100 65 25 100 65 25 100 65 25 100 65 25 100 65 25 100 65 25 100 65 25 100 65 25 100 65 25 100 65 25 100 65 25 100 65 25 100 65 25 100 65 25 100 65 25 100 65 25 100 65 25 100 65 25 100 65 25 100 65 25 100 65 25 100 65 25 100 65 25 100 65 25 100 65 25 100 65 25 100 65 25 100 65 25 100 65 25 100 65 25 100 65 25 100 65 25 100 65 25 100 65 25 100 65 25 100 65 25 100 65 25 100 65 25 100 65 25 100 65 25 100 65 25 100 65 25 100 65 25 100 65 25 100 65 25 100 65 25 100 65 25 100 65 25 100 65 25 100 65 25 100 65 25 100 65 25 100 65 25 100 65 25 100 65 25 100 65 25 100 65 25 100 65 25 100 65 25 100 65 25 100 65 25 100 65 25 100 65 25 100 65 25 100 65 25 100 65 25 100 65 25 100 65 25 100 65 25 100 65 25 100 65 25 100 65 25 100 65 25 100 65 25 100 65 25 100 65 25 100 65 25 100 65 25 100 65 25 100 65 25 100 65 25 100 65 25 100 65 25 100 65 25 100 65 25 100 65 25 100 65 25 100 65 25 100 65 25 100 65 25 100 65 25 100 65 25 100 65 25 100 65 25 100 65
25 100 65 25 100 65 25 100 65 25 100 65 25 100 65 25 100 65 25 100 65 25 100 65 25 100 65 25 100 65 25 100 65 25 100 65 25 100 65 25 100 65 25 100 65 25 100 65 25 100 65 25 100 65 25 100 65 25 100 65 25 100 65 25 100 65 25 100 65 25 100 65 25 100 65 25 100 65 25 100 65 25 100 65 25 100 65 25 100 65 25 100 65 25 100 65 25 100 65 25 100 65 25 100 65 25 100 65 25 100 65 25 100 65 25 100 65 25 100 65 25 100 65 25 100 65 25 100 65 25 100 65 25 100 65 25 100 65 25 100 65 25 100 65 25 100 65 25 100 65 25 100 65 25 100 65 25 100 65 25 100 65 25 100 65 25 100 65 25 100 65 25 100 65 25 100 65 25 100 65 25 100 65 25 100 65 25 100 65 25 100 65 25 100 65 25 100 65 25 100 65 25 100 65 25 100 65 25 100 65 25 100 65 25 100 65 25 100 65 25 100 65 25 100 65 25 100 65 25 100 65 25 100 65 25 100 65 25 100 65 25 100 65 25 100 65 25 100 65 25 100 65 25 100 65 25 100 65 25 100 65 25 100 65 25 100 65 25 100 65 25 100 65 25 100 65 25 100 65 25 100 65 25 100 65 25 100 65 25 100 65 25 100 65 25 100 65 25 100 65 25 100 65 25 100 65 25 100 65 25 100 65 25 100 65 25 100 65 25 100 65 25 100 65 25 100 65 25 100 65 25 100 65 25 100 65 25 100 65 25 100 65 25 100 65 25 100 65 25 100 65 25 100 65 25 100 65 25 100 65 25 100 65 25 100 65 25 100 65 25 100 65 25 100 65 25 100 65 25 100 65 25 100 65 25 100 65 25 100 65 25 100 65 25 100 65 25 100 65 25 100 65 25 100 65 25 100 65 25 100 65 25 100 65 25 100 65 25 100 65 25 100 65 15 15 15 15 15 15 15 15 15 15 15 15 15 15 15 15 15 15 25 100 65 25 100 65 25 100 65 25 100 65 25 100 65 25 100 65 25 100 65 25 100 65 25 100 65 25 100 65 25 100 65 25 100 65 25 100 65 25 100 65 25 100 65 25 100 65 25 100 65 25 100 65 25 100 65 25 100 65 25 100 65 25 100 65 25 100 65 25 100 65 25 100 65 25 100 65 25 100 65 25 100 65 25 100 65 25 100 65 25 100 65 25 100 65 25 100 65 25 100 65 25 100 65 25 100 65 25 100 65 25 100 65 25 100 65 25 100 65 25 100 65 25 100 65 25 100 65 25 100 65 25 100 65 25 100 65 25 100 65 25 100 65 25 100 65 25 100 65 25 100 65 25 100 65 25 100 65 25 100 65 25 100 65 25 100 65 25 100 65 25 100 65 25 100 65 25 100 65 25 100 65 25 100 65 25 100 65 25 100 65 25 100 65 25 100 65 25 100 65 25 100 65 25 100 65 25 100 65 25 100 65 25 100 65 25 100 65 25 100 65 25 100 65 25 100 65 25 100 65 25 100 65 25 100 65 25 100 65 25 100 65 25 100 65 25 100 65 25 100 65 25 100 65 25 100 65 25 100 65 25 100 65 25 100 65 25 100 65 25 100 65 25 100 65 25 100 65 25 100 65 25 100 65 25 100 65 25 100 65 25 100 65 25 100 65 25 100 65 25 100 65 25 100 65 25 100 65 25 100 65 25 100 65 25 100 65 25 100 65 25 100 65 25 100 65 25 100 65 25 100 65 25 100 65 25 100 65 25 100 65 25 100 65 25 100 65 25 100 65 25 100 65 25 100 65 25 100 65 25 100 65 25 100 65 25 100 65 25 100 65 25 100 65 25 100 65 25 100 65 25 100 65 25 100 65 25 100 65 25 100 65 25 100 65 25 100 65 25 100 65 25 100 65 25 100 65 25 100 65 25 100 65 25 100 65 25 100 65 25 100 65 25 100 65 25 100 65 25 100 65 25 100 65 25 100 65 25 100 65 25 100 65 25 100 65 25 100 65 25 100 65 25 100 65 25 100 65 25 100 65 25 100 65 25 100 65 25 100 65 25 100 65 25 100 65 25 100 65 25 100 65 25 100 65 25 100 65 25 100 65 25 100 65 25 100 65 25 100 65 25 100 65 25 100 65 25 100 65 25 100 65 25 100 65 25 100 65
25 100 65 25 100 65 25 100 65 25 100 65 25 100 65 25 100 65 25 100 65 25 100 65 25 100 65 25 100 65 25 100 65 25 100 65 25 100 65 25 100 65 25 100 65 25 100 65 25 100 65 25 100 65 25 100 65 25 100 65 25 100 65 25 100 65 25 100 65 25 100 65 25 100 65 25 100 65 25 100 65 25 100 65 25 100 65 25 100 65 25 100 65 25 100 65 25 100 65 25 100 65 25 100 65 25 100 65 25 100 65 25 100 65 25 100 65 25 100 65 25 100 65 25 100 65 25 100 65 25 100 65 25 100 65 25 100 65 25 100 65 25 100 65 25 100 65 25 100 65 25 100 65 25 100 65 25 100 65 25 100 65 25 100 65 25 100 65 25 100 65 25 100 65 25 100 65 25 100 65 25 100 65 25 100 65 25 100 65 25 100 65 25 100 65 25 100 65 25 100 65 25 100 65 25 100 65 25 100 65 25 100 65 25 100 65 25 100 65 25 100 65 25 100 65 25 100 65 25 100 65 25 100 65 25 100 65 25 100 65 25 100 65 25 100 65 25 100 65 25 100 65 25 100 65 25 100 65 25 100 65 25 100 65 25 100 65 25 100 65 25 100 65 25 100 65 25 100 65 25 100 65 25 100 65 25 100 65 25 100 65 25 100 65 25 100 65 25 100 65 25 100 65 25 100 65 25 100 65 25 100 65 25 100 65 25 100 65 25 100 65 25 100 65 25 100 65 25 100 65 25 100 65 25 100 65 25 100 65 25 100 65 25 100 65 25 100 65 25 100 65 25 100 65 25 100 65 25 100 65 25 100 65 25 100 65 25 100 65 25 100 65 25 100 65 25 100 65 25 100 65 25 100 65 25 100 65 25 100 65 25 100 65 25 100 65 25 100 65 25 100 65 25 100 65 25 100 65 25 100 65 25 100 65 25 100 65 25 100 65 15 15 15 15 15 15 15 15 15 15 15 15 15 15 15 15 15 15 15 15 15 15 15 15 25 100 65 25 100 65 25 100 65 25 100 65 25 100 65 25 100 65 25 100 65 25 100 65 25 100 65 25 100 65 25 100 65 25 100 65 25 100 65 25 100 65 25 100 65 25 100 65 25 100 65 25 100 65 25 100 65 25 100 65 25 100 65 25 100 65 25 100 65 25 100 65 25 100 65 25 100 65 25 100 65 25 100 65 25 100 65 25 100 65 25 100 65 25 100 65 25 100 65 25 100 65 25 100 65 25 100 65 25 100 65 25 100 65 25 100 65 25 100 65 25 100 65 25 100 65 25 100 65 25 100 65 25 100 65 25 100 65 25 100 65 25 100 65 25 100 65 25 100 65 25 100 65 25 100 65 25 100 65 25 100 65 25 100 65 25 100 65 25 100 65 25 100 65 25 100 65 25 100 65 25 100 65 25 100 65 25 100 65 25 100 65 25 100 65 25 100 65 25 100 65 25 100 65 25 100 65 25 100 65 25 100 65 25 100 65 25 100 65 25 100 65 25 100 65 25 100 65 25 100 65 25 100 65 25 100 65 25 100 65 25 100 65 25 100 65 25 100 65 25 100 65 25 100 65 25 100 65 25 100 65 25 100 65 25 100 65 25 100 65 25 100 65 25 100 65 25 100 65 25 100 65 25 100 65 25 100 65 25 100 65 25 100 65 25 100 65 25 100 65 25 100 65 25 100 65 25 100 65 25 100 65 25 100 65 25 100 65 25 100 65 25 100 65 25 100 65 25 100 65 25 100 65 25 100 65 25 100 65 25 100 65 25 100 65 25 100 65 25 100 65 25 100 65 25 100 65 25 100 65 25 100 65 25 100 65 25 100 65 25 100 65 25 100 65 25 100 65 25 100 65 25 100 65 25 100 65 25 100 65 25 100 65 25 100 65 25 100 65 25 100 65 25 100 65 25 100 65 25 100 65 25 100 65 25 100 65 25 100 65 25 100 65 25 100 65 25 100 65 25 100 65 25 100 65 25 100 65 25 100 65 25 100 65 25 100 65 25 100 65 25 100 65 25 100 65 25 100 65 25 100 65 25 100 65 25 100 65 25 100 65 25 100 65 25 100 65 25 100 65 25 100 65 25 100 65 25 100 65 25 100 65 25 100 65 25 100 65 25 100 65 25 100 65 25 100 65 25 100 65 25 100 65 25 100 65
25 100 65 25 100 65 25 100 65 25 100 65 25 100 65 25 100 65 25 100 65 25 100 65 25 100 65 25 100 65 25 100 65 25 100 65 25 100 65 25 100 65 25 100 65 25 100 65 25 100 65 25 100 65 25 100 65 25 100 65 25 100 65 25 100 65 25 100 65 25 100 65 25 100 65 25 100 65 25 100 65 25 100 65 25 100 65 25 100 65 25 100 65 25 100 65 25 100 65 25 100 65 25 100 65 25 100 65 25 100 65 25 100 65 25 100 65 25 100 65 25 100 65 25 100 65 25 100 65 25 100 65 25 100 65 25 100 65 25 100 65 25 100 65 25 100 65 25 100 65 25 100 65 25 100 65 25 100 65 25 100 65 25 100 65 25 100 65 25 100 65 25 100 65 25 100 65 25 100 65 25 100 65 25 100 65 25 100 65 25 100 65 25 100 65 25 100 65 25 100 65 25 100 65 25 100 65 25 100 65 25 100 65 25 100 65 25 100 65 25 100 65 25 100 65 25 100 65 25 100 65 25 100 65 25 100 65 25 100 65 25 100 65 25 100 65 25 100 65 25 100 65 25 100 65 25 100 65 25 100 65 25 100 65 25 100 65 25 100 65 25 100 65 25 100 65 25 100 65 25 100 65 25 100 65 25 100 65 25 100 65 25 100 65 25 100 65 25 100 65 25 100 65 25 100 65 25 100 65 25 100 65 25 100 65 25 100 65 25 100 65 25 100 65 25 100 65 25 100 65 25 100 65 25 100 65 25 100 65 25 100 65 25 100 65 25 100 65 25 100 65 25 100 65 25 100 65 25 100 65 25 100 65 25 100 65 25 100 65 25 100 65 25 100 65 25 100 65 25 100 65 25 100 65 25 100 65 25 100 65 25 100 65 25 100 65 25 100 65 25 100 65 25 100 65 25 100 65 25 100 65 25 100 65 25 100 65 25 100 65 15 15 15 15 15 15 15 15 15 15 15 15 15 15 15 15 15 15 15 15 15 15 15 15 25 100 65 25 100 65 25 100 65 25 100 65 25 100 65 25 100 65 25 100 65 25 100 65 25 100 65 25 100 65 25 100 65 25 100 65 25 100 65 25 100 65 25 100 65 25 100 65 25 100 65 25 100 65 25 100 65 25 100 65 25 100 65 25 100 65 25 100 65 25 100 65 25 100 65 25 100 65 25 100 65 25 100 65 25 100 65 25 100 65 25 100 65 25 100 65 25 100 65 25 100 65 25 100 65 25 100 65 25 100 65 25 100 65 25 100 65 25 100 65 25 100 65 25 100 65 25 100 65 25 100 65 25 100 65 25 100 65 25 100 65 25 100 65 25 100 65 25 100 65 25 100 65 25 100 65 25 100 65 25 100 65 25 100 65 25 100 65 25 100 65 25 100 65 25 100 65 25 100 65 25 100 65 25 100 65 25 100 65 25 100 65 25 100 65 25 100 65 25 100 65 25 100 65 25 100 65 25 100 65 25 100 65 25 100 65 25 100 65 25 100 65 25 100 65 25 100 65 25 100 65 25 100 65 25 100 65 25 100 65 25 100 65 25 100 65 25 100 65 25 100 65 25 100 65 25 100 65 25 100 65 25 100 65 25 100 65 25 100 65 25 100 65 25 100 65 25 100 65 25 100 65 25 100 65 25 100 65 25 100 65 25 100 65 25 100 65 25 100 65 25 100 65 25 100 65 25 100 65 25 100 65 25 100 65 25 100 65 25 100 65 25 100 65 25 100 65 25 100 65 25 100 65 25 100 65 25 100 65 25 100 65 25 100 65 25 100 65 25 100 65 25 100 65 25 100 65 25 100 65 25 100 65 25 100 65 25 100 65 25 100 65 25 100 65 25 100 65 25 100 65 25 100 65 25 100 65 25 100 65 25 100 65 25 100 65 25 100 65 25 100 65 25 100 65 25 100 65 25 100 65 25 100 65 25 100 65 25 100 65 25 100 65 25 100 65 25 100 65 25 100 65 25 100 65 25 100 65 25 100 65 25 100 65 25 100 65 25 100 65 25 100 65 25 100 65 25 100 65 25 100 65 25 100 65 25 100 65 25 100 65 25 100 65 25 100 65 25 100 65 25 100 65 25 100 65 25 100 65 25 100 65 25 100 65 25 100 65 25 100 65 25 100 65 25 100 65 25 100 65 25 100 65 25 100 65
25 100 65 25 100 65 25 100 65 25 100 65 25 100 65 25 100 65 25 100 65 25 100 65 25 100 65 25 100 65 25 100 65 25 100 65 25 100 65 25 100 65 25 100 65 25 100 65 25 100 65 25 100 65 25 100 65 25 100 65 25 100 65 25 100 65 25 100 65 25 100 65 25 100 65 25 100 65 25 100 65 25 100 65 25 100 65 25 100 65 25 100 65 25 100 65 25 100 65 25 100 65 25 100 65 25 100 65 25 100 65 25 100 65 25 100 65 25 100 65 25 100 65 25 100 65 25 100 65 25 100 65 25 100 65 25 100 65 25 100 65 25 100 65 25 100 65 25 100 65 25 100 65 25 100 65 25 100 65 25 100 65 25 100 65 25 100 65 25 100 65 25 100 65 25 100 65 25 100 65 25 100 65 25 100 65 25 100 65 25 100 65 25 100 65 25 100 65 25 100 65 25 100 65 25 100 65 25 100 65 25 100 65 25 100 65 25 100 65 25 100 65 25 100 65 25 100 65 25 100 65 25 100 65 25 100 65 25 100 65 25 100 65 25 100 65 25 100 65 25 100 65 25 100 65 25 100 65 25 100 65 25 100 65 25 100 65 25 100 65 25 100 65 25 100 65 25 100 65 25 100 65 25 100 65 25 100 65 25 100 65 25 100 65 25 100 65 25 100 65 25 100 65 25 100 65 25 100 65 25 100 65 25 100 65 25 100 65 25 100 65 25 100 65 25 100 65 25 100 65 25 100 65 25 100 65 25 100 65 25 100 65 25 100 65 25 100 65 25 100 65 25 100 65 25 100 65 25 100 65 25 100 65 25 100 65 25 100 65 25 100 65 25 100 65 25 100 65 25 100 65 25 100 65 25 100 65 25 100 65 25 100 65 25 100 65 25 100 65 25 100 65 25 100 65 25 100 65 25 100 65 25 100 65 25 100 65 15 15 15 15 15 15 15 15 15 15 15 15 15 15 15 15 15 15 15 15 15 15 15 15 15 15 15 15 15 15 25 100 65 25 100 65 25 100 65 25 100 65 25 100 65 25 100 65 25 100 65 25 100 65 25 100 65 25 100 65 25 100 65 25 100 65 25 100 65 25 100 65 25 100 65 25 100 65 25 100 65 25 100 65 25 100 65 25 100 65 25 100 65 25 100 65 25 100 65 25 100 65 25 100 65 25 100 65 25 100 65 25 100 65 25 100 65 25 100 65 25 100 65 25 100 65 25 100 65 25 100 65 25 100 65 25 100 65 25 100 65 25 100 65 25 100 65 25 100 65 25 100 65 25 100 65 25 100 65 25 100 65 25 100 65 25 100 65 25 100 65 25 100 65 25 100 65 25 100 65 25 100 65 25 100 65 25 100 65 25 100 65 25 100 65 25 100 65 25 100 65 25 100 65 25 100 65 25 100 65 25 100 65 25 100 65 25 100 65 25 100 65 25 100 65 25 100 65 25 100 65 25 100 65 25 100 65 25 100 65 25 100 65 25 100 65 25 100 65 25 100 65 25 100 65 25 100 65 25 100 65 25 100 65 25 100 65 25 100 65 25 100 65 25 100 65 25 100 65 25 100 65 25 100 65 25 100 65 25 100 65 25 100 65 25 100 65 25 100 65 25 100 65 25 100 65 25 100 65 25 100 65 25 100 65 25 100 65 25 100 65 25 100 65 25 100 65 25 100 65 25 100 65 25 100 65 25 100 65 25 100 65 25 100 65 25 100 65 25 100 65 25 100 65 25 100 65 25 100 65 25 100 65 25 100 65 25 100 65 25 100 65 25 100 65 25 100 65 25 100 65 25 100 65 25 100 65 25 100 65 25 100 65 25 100 65 25 100 65 25 100 65 25 100 65 25 100 65 25 100 65 25 100 65 25 100 65 25 100 65 25 100 65 25 100 65 25 100 65 25 100 65 25 100 65 25 100 65 25 100 65 25 100 65 25 100 65 25 100 65 25 100 65 25 100 65 25 100 65 25 100 65 25 100 65 25 100 65 25 100 65 25 100 65 25 100 65 25 100 65 25 100 65 25 100 65 25 100 65 25 100 65 25 100 65 25 100 65 25 100 65 25 100 65 25 100 65 25 100 65 25 100 65 25 100 65 25 100 65 25 100 65 25 100 65 25 100 65 25 100 65 25 100 65 25 100 65 25 100 65 25 100 65
25 100 65 25 100 65 25 100 65 25 100 65 25 100 65 25 100 65 25 100 65 25 100 65 25 100 65 25 100 65 25 100 65 25 100 65 25 100 65 25 100 65 25 100 65 25 100 65 25 100 65 25 100 65 25 100 65 25 100 65 25 100 65 25 100 65 25 100 65 25 100 65 25 100 65 25 100 65 25 100 65 25 100 65 25 100 65 25 100 65 25 100 65 25 100 65 25 100 65 25 100 65 25 100 65 25 100 65 25 100 65 25 100 65 25 100 65 25 100 65 25 100 65 25 100 65 25 100 65 25 100 65 25 100 65 25 100 65 25 100 65 25 100 65 25 100 65 25 100 65 25 100 65 25 100 65 25 100 65 25 100 65 25 100 65 25 100 65 25 100 65 25 100 65 25 100 65 25 100 65 25 100 65 25 100 65 25 100 65 25 100 65 25 100 65 25 100 65 25 100 65 25 100 65 25 100 65 25 100 65 25 100 65 25 100 65 25 100 65 25 100 65 25 100 65 25 100 65 25 100 65 25 100 65 25 100 65 25 100 65 25 100 65 25 100 65 25 100 65 25 100 65 25 100 65 25 100 65 25 100 65 25 100 65 25 100 65 25 100 65 25 100 65 25 100 65 25 100 65 25 100 65 25 100 65 25 100 65 25 100 65 25 100 65 25 100 65 25 100 65 25 100 65 25 100 65 25 100 65 25 100 65 25 100 65 25 100 65 25 100 65 25 100 65 25 100 65 25 100 65 25 100 65 25 100 65 25 100 65 25 100 65 25 100 65 25 100 65 25 100 65 25 100 65 25 100 65 25 100 65 25 100 65 25 100 65 25 100 65 25 100 65 25 100 65 25 100 65 25 100 65 25 100 65 25 100 65 25 100 65 25 100 65 25 100 65 25 100 65 25 100 65 25 100 65 25 100 65 25 100 65 25 100 65 25 100 65 15 15 15 15 15 15 15 15 15 15 15 15 15 15 15 15 15 15 15 15 15 15 15 15 15 15 15 15 15 15 25 100 65 25 100 65 25 100 65 25 100 65 25 100 65 25 100 65 25 100 65 25 100 65 25 100 65 25 100 65 25 100 65 25 100 65 25 100 65 25 100 65 25 100 65 25 100 65 25 100 65 25 100 65 25 100 65 25 100 65 25 100 65 25 100 65 25 100 65 25 100 65 25 100 65 25 100 65 25 100 65 25 100 65 25 100 65 25 100 65 25 100 65 25 100 65 25 100 65 25 100 65 25 100 65 25 100 65 25 100 65 25 100 65 25 100 65 25 100 65 25 100 65 25 100 65 25 100 65 25 100 65 25 100 65 25 100 65 25 100 65 25 100 65 25 100 65 25 100 65 25 100 65 25 100 65 25 100 65 25 100 65 25 100 65 25 100 65 25 100 65 25 100 65 25 100 65 25 100 65 25 100 65 25 100 65 25 100 65 25 100 65 25 100 65 25 100 65 25 100 65 25 100 65 25 100 65 25 100 65 25 100 65 25 100 65 25 100 65 25 100 65 25 100 65 25 100 65 25 100 65 25 100 65 25 100 65 25 100 65 25 100 65 25 100 65 25 100 65 25 100 65 25 100 65 25 100 65 25 100 65 25 100 65 25 100 65 25 100 65 25 100 65 25 100 65 25 100 65 25 100 65 25 100 65 25 100 65 25 100 65 25 100 65 25 100 65 25 100 65 25 100 65 25 100 65 25 100 65 25 100 65 25 100 65 25 100 65 25 100 65 25 100 65 25 100 65 25 100 65 25 100 65 25 100 65 25 100 65 25 100 65 25 100 65 25 100 65 25 100 65 25 100 65 25 100 65 25 100 65 25 100 65 25 100 65 25 100 65 25 100 65 25 100 65 25 100 65 25 100 65 25 100 65 25 100 65 25 100 65 25 100 65 25 100 65 25 100 65 25 100 65 25 100 65 25 100 65 25 100 65 25 100 65 25 100 65 25 100 65 25 100 65 25 100 65 25 100 65 25 100 65 25 100 65 25 100 65 25 100 65 25 100 65 25 100 65 25 100 65 25 100 65 25 100 65 25 100 65 25 100 65 25 100 65 25 100 65 25 100 65 25 100 65 25 100 65 25 100 65 25 100 65 25 100 65 25 100 65 25 100 65 25 100 65 25 100 65 25 100 65 25 100 65 25 100 65 25 100 65 25 100 65
25 100 65 25 100 65 25 100 65 25 100 65 25 100 65 25 100 65 25 100 65 25 100 65 25 100 65 25 100 65 25 100 65 25 100 65 25 100 65 25 100 65 25 100 65 25 100 65 25 100 65 25 100 65 25 100 65 25 100 65 25 100 65 25 100 65 25 100 65 25 100 65 25 100 65 25 100 65 25 100 65 25 100 65 25 100 65 25 100 65 25 100 65 25 100 65 25 100 65 25 100 65 25 100 65 25 100 65 25 100 65 25 100 65 25 100 65 25 100 65 25 100 65 25 100 65 25 100 65 25 100 65 25 100 65 25 100 65 25 100 65 25 100 65 25 100 65 25 100 65 25 100 65 25 100 65 25 100 65 25 100 65 25 100 65 25 100 65 25 100 65 25 100 65 25 100 65 25 100 65 25 100 65 25 100 65 25 100 65 25 100 65 25 100 65 25 100 65 25 100 65 25 100 65 25 100 65 25 100 65 25 100 65 25 100 65 25 100 65 25 100 65 25 100 65 25 100 65 25 100 65 25 100 65 25 100 65 25 100 65 25 100 65 25 100 65 25 100 65 25 100 65 25 100 65 25 100 65 25 100 65 25 100 65 25 100 65 25 100 65 25 100 65 25 100 65 25 100 65 25 100 65 25 100 65 25 100 65 25 100 65 25 100 65 25 100 65 25 100 65 25 100 65 25 100 65 25 100 65 25 100 65 25 100 65 25 100 65 25 100 65 25 100 65 25 100 65 25 100 65 25 100 65 25 100 65 25 100 65 25 100 65 25 100 65 25 100 65 25 100 65 25 100 65 25 100 65 25 100 65 25 100 65 25 100 65 25 100 65 25 100 65 25 100 65 25 100 65 25 100 65 25 100 65 25 100 65 25 100 65 25 100 65 25 100 65 25 100 65 25 100 65 25 100 65 25 100 65 25 100 65 25 100 65 25 100 65 25 100 65 15 15 15 15 15 15 15 15 15 15 15 15 15 15 15 15 15 15 15 15 15 15 15 15 25 100 65 25 100 65 25 100 65 25 100 65 25 100 65 25 100 65 25 100 65 25 100 65 25 100 65 25 100 65 25 100 65 25 100 65 25 100 65 25 100 65 25 100 65 25 100 65 25 100 65 25 100 65 25 100 65 25 100 65 25 100 65 25 100 65 25 100 65 25 100 65 25 100 65 25 100 65 25 100 65 25 100 65 25 100 65 25 100 65 25 100 65 25 100 65 25 100 65 25 100 65 25 100 65 25 100 65 25 100 65 25 100 65 25 100 65 25 100 65 25 100 65 25 100 65 25 100 65 25 100 65 25 100 65 25 100 65 25 100 65 25 100 65 25 100 65 25 100 65 25 100 65 25 100 65 25 100 65 25 100 65 25 100 65 25 100 65 25 100 65 25 100 65 25 100 65 25 100 65 25 100 65 25 100 65 25 100 65 25 100 65 25 100 65 25 100 65 25 100 65 25 100 65 25 100 65 25 100 65 25 100 65 25 100 65 25 100 65 25 100 65 25 100 65 25 100 65 25 100 65 25 100 65 25 100 65 25 100 65 25 100 65 25 100 65 25 100 65 25 100 65 25 100 65 25 100 65 25 100 65 25 100 65 25 100 65 25 100 65 25 100 65 25 100 65 25 100 65 25 100 65 25 100 65 25 100 65 25 100 65 25 100 65 25 100 65 25 100 65 25 100 65 25 100 65 25 100 65 25 100 65 25 100 65 25 100 65 25 100 65 25 100 65 25 100 65 25 100 65 25 100 65 25 100 65 25 100 65 25 100 65 25 100 65 25 100 65 25 100 65 25 100 65 25 100 65 25 100 65 25 100 65 25 100 65 25 100 65 25 100 65 25 100 65 25 100 65 25 100 65 25 100 65 25 100 65 25 100 65 25 100 65 25 100 65 25 100 65 25 100 65 25 100 65 25 100 65 25 100 65 25 100 65 25 100 65 25 100 65 25 100 65 25 100 65 25 100 65 25 100 65 25 100 65 25 100 65 25 100 65 25 100 65 25 100 65 25 100 65 25 100 65 25 100 65 25 100 65 25 100 65 25 100 65 25 100 65 25 100 65 25 100 65 25 100 65 25 100 65 25 100 65 25 100 65 25 100 65 25 100 65 25 100 65 25 100 65 25 100 65 25 100 65 25 100 65 25 100 65 25 100 65 25 100 65
25 100 65 25 100 65 25 100 65 25 100 65 25 100 65 25 100 65 25 100 65 25 100 65 25 100 65 25 100 65 25 100 65 25 100 65 25 100 65 25 100 65 25 100 65 25 100 65 25 100 65 25 100 65 25 100 65 25 100 65 25 100 65 25 100 65 25 100 65 25 100 65 25 100 65 25 100 65 25 100 65 25 100 65 25 100 65 25 100 65 25 100 65 25 100 65 25 100 65 25 100 65 25 100 65 25 100 65 25 100 65 25 100 65 25 100 65 25 100 65 25 100 65 25 100 65 25 100 65 25 100 65 25 100 65 25 100 65 25 100 65 25 100 65 25 100 65 25 100 65 25 100 65 25 100 65 25 100 65 25 100 65 25 100 65 25 100 65 25 100 65 25 100 65 25 100 65 25 100 65 25 100 65 25 100 65 25 100 65 25 100 65 25 100 65 25 100 65 25 100 65 25 100 65 25 100 65 25 100 65 25 100 65 25 100 65 25 100 65 25 100 65 25 100 65 25 100 65 25 100 65 25 100 65 25 100 65 25 100 65 25 100 65 25 100 65 25 100 65 25 100 65 25 100 65 25 100 65 25 100 65 25 100 65 25 100 65 25 100 65 25 100 65 25 100 65 25 100 65 25 100 65 25 100 65 25 100 65 25 100 65 25 100 65 25 100 65 25 100 65 25 100 65 25 100 65 25 100 65 25 100 65 25 100 65 25 100 65 25 100 65 25 100 65 25 100 65 25 100 65 25 100 65 25 100 65 25 100 65 25 100 65 25 100 65 25 100 65 25 100 65 25 100 65 25 100 65 25 100 65 25 100 65 25 100 65 25 100 65 25 100 65 25 100 65 25 100 65 25 100 65 25 100 65 25 100 65 25 100 65 25 100 65 25 100 65 25 100 65 25 100 65 25 100 65 25 100 65 25 100 65 25 100 65 25 100 65 25 100 65 15 15 15 15 15 15 15 15 15 15 15 15 15 15 15 15 15 15 15 15 15 15 15 15 25 100 65 25 100 65 25 100 65 25 100 65 25 100 65 25 100 65 25 100 65 25 100 65 25 100 65 25 100 65 25 100 65 25 100 65 25 100 65 25 100 65 25 100 65 25 100 65 25 100 65 25 100 65 25 100 65 25 100 65 25 100 65 25 100 65 25 100 65 25 100 65 25 100 65 25 100 65 25 100 65 25 100 65 25 100 65 25 100 65 25 100 65 25 100 65 25 100 65 25 100 65 25 100 65 25 100 65 25 100 65 25 100 65 25 100 65 25 100 65 25 100 65 25 100 65 25 100 65 25 100 65 25 100 65 25 100 65 25 100 65 25 100 65 25 100 65 25 100 65 25 100 65 25 100 65 25 100 65 25 100 65 25 100 65 25 100 65 25 100 65 25 100 65 25 100 65 25 100 65 25 100 65 25 100 65 25 100 65 25 100 65 25 100 65 25 100 65 25 100 65 25 100 65 25 100 65 25 100 65 25 100 65 25 100 65 25 100 65 25 100 65 25 100 65 25 100 65 25 100 65 25 100 65 25 100 65 25 100 65 25 100 65 25 100 65 25 100 65 25 100 65 25 100 65 25 100 65 25 100 65 25 100 65 25 100 65 25 100 65 25 100 65 25 100 65 25 100 65 25 100 65 25 100 65 25 100 65 25 100 65 25 100 65 25 100 65 25 100 65 25 100 65 25 100 65 25 100 65 25 100 65 25 100 65 25 100 65 25 100 65 25 100 65 25 100 65 25 100 65 25 100 65 25 100 65 25 100 65 25 100 65 25 100 65 25 100 65 25 100 65 25 100 65 25 100 65 25 100 65 25 100 65 25 100 65 25 100 65 25 100 65 25 100 65 25 100 65 25 100 65 25 100 65 25 100 65 25 100 65 25 100 65 25 100 65 25 100 65 25 100 65 25 100 65 25 100 65 25 100 65 25 100 65 25 100 65 25 100 65 25 100 65 25 100 65 25 100 65 25 100 65 25 100 65 25 100 65 25 100 65 25 100 65 25 100 65 25 100 65 25 100 65 25 100 65 25 100 65 25 100 65 25 100 65 25 100 65 25 100 65 25 100 65 25 100 65 25 100 65 25 100 65 25 100 65 25 100 65 25 100 65 25 100 65 25 100 65 25 100 65 25 100 65 25 100 65 25 100 65 25 100 65 25 100 65
25 100 65 25 100 65 25 100 65 25 100 65 25 100 65 25 100 65 25 100 65 25 100 65 25 100 65 25 100 65 25 100 65 25 100 65 25 100 65 25 100 65 25 100 65 25 100 65 25 100 65 25 100 65 25 100 65 25 100 65 25 100 65 25 100 65 25 100 65 25 100 65 25 100 65 25 100 65 25 100 65 25 100 65 25 100 65 25 100 65 25 100 65 25 100 65 25 100 65 25 100 65 25 100 65 25 100 65 25 100 65 25 100 65 25 100 65 25 100 65 25 100 65 25 100 65 25 100 65 25 100 65 25 100 65 25 100 65 25 100 65 25 100 65 25 100 65 25 100 65 25 100 65 25 100 65 25 100 65 25 100 65 25 100 65 25 100 65 25 100 65 25 100 65 25 100 65 25 100 65 25 100 65 25 100 65 25 100 65 25 100 65 25 100 65 25 100 65 25 100 65 25 100 65 25 100 65 25 100 65 25 100 65 25 100 65 25 100 65 25 100 65 25 100 65 25 100 65 25 100 65 25 100 65 25 100 65 25 100 65 25 100 65 25 100 65 25 100 65 25 100 65 25 100 65 25 100 65 25 100 65 25 100 65 25 100 65 25 100 65 25 100 65 25 100 65 25 100 65 25 100 65 25 100 65 25 100 65 25 100 65 25 100 65 25 100 65 25 100 65 25 100 65 25 100 65 25 100 65 25 100 65 25 100 65 25 100 65 25 100 65 25 100 65 25 100 65 25 100 65 25 100 65 25 100 65 25 100 65 25 100 65 25 100 65 25 100 65 25 100 65 25 100 65 25 100 65 25 100 65 25 100 65 25 100 65 25 100 65 25 100 65 25 100 65 25 100 65 25 100 65 25 100 65 25 100 65 25 100 65 25 100 65 25 100 65 25 100 65 25 100 65 25 100 65 25 100 65 25 100 65 25 100 65 25 100 65 25 100 65 25 100 65 15 15 15 15 15 15 15 15 15 15 15 15 15 15 15 15 15 15 25 100 65 25 100 65 25 100 65 25 100 65 25 100 65 25 100 65 25 100 65 25 100 65 25 100 65 25 100 65 25 100 65 25 100 65 25 100 65 25 100 65 25 100 65 25 100 65 25 100 65 25 100 65 25 100 65 25 100 65 25 100 65 25 100 65 25 100 65 25 100 65 25 100 65 25 100 65 25 100 65 25 100 65 25 100 65 25 100 65 25 100 65 25 100 65 25 100 65 25 100 65 25 100 65 25 100 65 25 100 65 25 100 65 25 100 65 25 100 65 25 100 65 25 100 65 25 100 65 25 100 65 25 100 65 25 100 65 25 100 65 25 100 65 25 100 65 25 100 65 25 100 65 25 100 65 25 100 65 25 100 65 25 100 65 25 100 65 25 100 65 25 100 65 25 100 65 25 100 65 25 100 65 25 100 65 25 100 65 25 100 65 25 100 65 25 100 65 25 100 65 25 100 65 25 100 65 25 100 65 25 100 65 25 100 65 25 100 65 25 100 65 25 100 65 25 100 65 25 100 65 25 100 65 25 100 65 25 100 65 25 100 65 25 100 65 25 100 65 25 100 65 25 100 65 25 100 65 25 100 65 25 100 65 25 100 65 25 100 65 25 100 65 25 100 65 25 100 65 25 100 65 25 100 65 25 100 65 25 100 65 25 100 65 25 100 65 25 100 65 25 100 65 25 100 65 25 100 65 25 100 65 25 100 65 25 100 65 25 100 65 25 100 65 25 100 65 25 100 65 25 100 65 25 100 65 25 100 65 25 100 65 25 100 65 25 100 65 25 100 65 25 100 65 25 100 65 25 100 65 25 100 65 25 100 65 25 100 65 25 100 65 25 100 65 25 100 65 25 100 65 25 100 65 25 100 65 25 100 65 25 100 65 25 100 65 25 100 65 25 100 65 25 100 65 25 100 65 25 100 65 25 100 65 25 100 65 25 100 65 25 100 65 25 100 65 25 100 65 25 100 65 25 100 65 25 100 65 25 100 65 25 100 65 25 100 65 25 100 65 25 100 65 25 100 65 25 100 65 25 100 65 25 100 65 25 100 65 25 100 65 25 100 65 25 100 65 25 100 65 25 100 65 25 100 65 25 100 65 25 100 65 25 100 65 25 100 65 25 100 65 25 100 65 25 100 65 25 100 65 25 100 65 25 100 65 25 100 65
25 100 65 25 100 65 25 100 65 25 100 65 25 100 65 25 100 65 25 100 65 25 100 65 25 100 65 25 100 65 25 100 65 25 100 65 25 100 65 25 100 65 25 100 65 25 100 65 25 100 65 25 100 65 25 100 65 25 100 65 25 100 65 25 100 65 25 100 65 25 100 65 25 100 65 25 100 65 25 100 65 25 100 65 25 100 65 25 100 65 25 100 65 25 100 65 25 100 65 25 100 65 25 100 65 25 100 65 25 100 65 25 100 65 25 100 65 25 100 65 25 100 65 25 100 65 25 100 65 25 100 65 25 100 65 25 100 65 25 100 65 25 100 65 25 100 65 25 100 65 25 100 65 25 100 65 25 100 65 25 100 65 25 100 65 25 100 65 25 100 65 25 100 65 25 100 65 25 100 65 25 100 65 25 100 65 25 100 65 25 100 65 25 100 65 25 100 65 25 100 65 25 100 65 25 100 65 25 100 65 25 100 65 25 100 65 25 100 65 25 100 65 25 100 65 25 100 65 25 100 65 25 100 65 25 100 65 25 100 65 25 100 65 25 100 65 25 100 65 25 100 65 25 100 65 25 100 65 25 100 65 25 100 65 25 100 65 25 100 65 25 100 65 25 100 65 25 100 65 25 100 65 25 100 65 25 100 65 25 100 65 25 100 65 25 100 65 25 100 65 25 100 65 25 100 65 25 100 65 25 100 65 25 100 65 25 100 65 25 100 65 25 100 65 25 100 65 25 100 65 25 100 65 25 100 65 25 100 65 25 100 65 25 100 65 25 100 65 25 100 65 25 100 65 25 100 65 25 100 65 25 100 65 25 100 65 25 100 65 25 100 65 25 100 65 25 100 65 25 100 65 25 100 65 25 100 65 25 100 65 25 100 65 25 100 65 25 100 65 25 100 65 25 100 65 25 100 65 25 100 65 25 100 65 25 100 65 25 100 65 25 100 65 25 100 65 25 100 65 15 15 15 15 15 15 25 100 65 25 100 65 25 100 65 25 100 65 25 100 65 25 100 65 25 100 65 25 100 65 25 100 65 25 100 65 25 100 65 25 100 65 25 100 65 25 100 65 25 100 65 25 100 65 25 100 65 25 100 65 25 100 65 25 100 65 25 100 65 25 100 65 25 100 65 25 100 65 25 100 65 25 100 65 25 100 65 25 100 65 25 100 65 25 100 65 25 100 65 25 100 65 25 100 65 25 100 65 25 100 65 25 100 65 25 100 65 25 100 65 25 100 65 25 100 65 25 100 65 25 100 65 25 100 65 25 100 65 25 100 65 25 100 65 25 100 65 25 100 65 25 100 65 25 100 65 25 100 65 25 100 65 25 100 65 25 100 65 25 100 65 25 100 65 25 100 65 25 100 65 25 100 65 25 100 65 25 100 65 25 100 65 25 100 65 25 100 65 25 100 65 25 100 65 25 100 65 25 100 65 25 100 65 25 100 65 25 100 65 25 100 65 25 100 65 25 100 65 25 100 65 25 100 65 25 100 65 25 100 65 25 100 65 25 100 65 25 100 65 25 100 65 25 100 65 25 100 65 25 100 65 25 100 65 25 100 65 25 100 65 25 100 65 25 100 65 25 100 65 25 100 65 25 100 65 25 100 65 25 100 65 25 100 65 25 100 65 25 100 65 25 100 65 25 100 65 25 100 65 25 100 65 25 100 65 25 100 65 25 100 65 25 100 65 25 100 65 25 100 65 25 100 65 25 100 65 25 100 65 25 100 65 25 100 65 25 100 65 25 100 65 25 100 65 25 100 65 25 100 65 25 100 65 25 100 65 25 100 65 25 100 65 25 100 65 25 100 65 25 100 65 25 100 65 25 100 65 25 100 65 25 100 65 25 100 65 25 100 65 25 100 65 25 100 65 25 100 65 25 100 65 25 100 65 25 100 65 25 100 65 25 100 65 25 100 65 25 100 65 25 100 65 25 100 65 25 100 65 25 100 65 25 100 65 25 100 65 25 100 65 25 100 65 25 100 65 25 100 65 25 100 65 25 100 65 25 100 65 25 100 65 25 100 65 25 100 65 25 100 65 25 100 65 25 100 65 25 100 65 25 100 65 25 100 65 25 100 65 25 100 65 25 100 65 25 100 65 25 100 65 25 100 65 25 100 65 25 100 65 25 100 65 25 100 65 25 100 65 25 100 65
25 100 65 25 100 65 25 100 65 25 100 65 25 100 65 25 100 65 25 100 65 25 100 65 25 100 65 25 100 65 25 100 65 25 100 65 25 100 65 25 100 65 25 100 65 25 100 65 25 100 65 25 100 65 25 100 65 25 100 65 25 100 65 25 100 65 25 100 65 25 100 65 25 100 65 25 100 65 25 100 65 25 100 65 25 100 65 25 100 65 25 100 65 25 100 65 25 100 65 25 100 65 25 100 65 25 100 65 25 100 65 25 100 65 25 100 65 25 100 65 25 100 65 25 100 65 25 100 65 25 100 65 25 100 65 25 100 65 25 100 65 25 100 65 25 100 65 25 100 65 25 100 65 25 100 65 25 100 65 25 100 65 25 100 65 25 100 65 25 100 65 25 100 65 25 100 65 25 100 65 25 100 65 25 100 65 25 100 65 25 100 65 25 100 65 25 100 65 25 100 65 25 100 65 25 100 65 25 100 65 25 100 65 25 100 65 25 100 65 25 100 65 25 100 65 25 100 65 25 100 65 25 100 65 25 100 65 25 100 65 25 100 65 25 100 65 25 100 65 25 100 65 25 100 65 25 100 65 25 100 65 25 100 65 25 100 65 25 100 65 25 100 65 25 100 65 25 100 65 25 100 65 25 100 65 25 100 65 25 100 65 25 100 65 25 100 65 25 100 65 25 100 65 25 100 65 25 100 65 25 100 65 25 100 65 25 100 65 25 100 65 25 100 65 25 100 65 25 100 65 25 100 65 25 100 65 25 100 65 25 100 65 25 100 65 25 100 65 25 100 65 25 100 65 25 100 65 25 100 65 25 100 65 25 100 65 25 100 65 25 100 65 25 100 65 25 100 65 25 100 65 25 100 65 25 100 65 25 100 65 25 100 65 25 100 65 25 100 65 25 100 65 25 100 65 25 100 65 25 100 65 25 100 65 25 100 65 25 100 65 25 100 65 25 100 65 25 100 65 25 100 65 25 100 65 25 100 65 25 100 65 25 100 65 25 100 65 25 100 65 25 100 65 25 100 65 25 100 65 25 100 65 25 100 65 25 100 65 25 100 65 25 100 65 25 100 65 25 100 65 25 100 65 25 100 65 25 100 65 25 100 65 25 100 65 25 100 65 25 100 65 25 100 65 25 100 65 25 100 65 25 100 65 25 100 65 25 100 65 25 100 65 25 100 65 25 100 65 25 100 65 25 100 65 25 100 65 25 100 65 25 100 65 25 100 65 25 100 65 25 100 65 25 100 65 25 100 65 25 100 65 25 100 65 25 100 65 25 100 65 25 100 65 25 100 65 25 100 65 25 100 65 25 100 65 25 100 65 25 100 65 25 100 65 25 100 65 25 100 65 25 100 65 25 100 65 25 100 65 25 100 65 25 100 65 25 100 65 25 100 65 25 100 65 25 100 65 25 100 65 25 100 65 25 100 65 25 100 65 25 100 65 25 100 65 25 100 65 25 100 65 25 100 65 25 100 65 25 100 65 25 100 65 25 100 65 25 100 65 25 100 65 25 100 65 25 100 65 25 100 65 25 100 65 25 100 65 25 100 65 25 100 65 25 100 65 25 100 65 25 100 65 25 100 65 25 100 65 25 100 65 25 100 65 25 100 65 25 100 65 25 100 65 25 100 65 25 100 65 25 100 65 25 100 65 25 100 65 25 100 65 25 100 65 25 100 65 25 100 65 25 100 65 25 100 65 25 100 65 25 100 65 25 100 65 25 100 65 25 100 65 25 100 65 25 100 65 25 100 65 25 100 65 25 100 65 25 100 65 25 100 65 25 100 65 25 100 65 25 100 65 25 100 65 25 100 65 25 100 65 25 100 65 25 100 65 25 100 65 25 100 65 25 100 65 25 100 65 25 100 65 25 100 65 25 100 65 25 100 65 25 100 65 25 100 65 25 100 65 25 100 65 25 100 65 25 100 65 25 100 65 25 100 65 25 100 65 25 100 65 25 100 65 25 100 65 25 100 65 25 100 65 25 100 65 25 100 65 25 100 65 25 100 65 25 100 65 25 100 65 25 100 65 25 100 65 25 100 65 25 100 65 25 100 65 25 100 65 25 100 65 25 100 65 25 100 65 25 100 65 25 100 65 25 100 65 25 100 65 25 100 65 25 100 65 25 100 65 25 100 65 25 100 65 25 100 65 25 100 65
25 100 65 25 100 65 25 100 65 25 100 65 25 100 65 25 100 65 25 100 65 25 100 65 25 100 65 25 100 65 25 100 65 25 100 65 25 100 65 25 100 65 25 100 65 25 100 65 25 100 65 25 100 65 25 100 65 25 100 65 25 100 65 25 100 65 25 100 65 25 100 65 25 100 65 25 100 65 25 100 65 25 100 65 25 100 65 25 100 65 25 100 65 25 100 65 25 100 65 25 100 65 25 100 65 25 100 65 25 100 65 25 100 65 25 100 65 25 100 65 25 100 65 25 100 65 25 100 65 25 100 65 25 100 65 25 100 65 25 100 65 25 100 65 25 100 65 25 100 65 25 100 65 25 100 65 25 100 65 25 100 65 25 100 65 25 100 65 25 100 65 25 100 65 25 100 65 25 100 65 25 100 65 25 100 65 25 100 65 25 100 65 25 100 65 25 100 65 25 100 65 25 100 65 25 100 65 25 100 65 25 100 65 25 100 65 25 100 65 25 100 65 25 100 65 25 100 65 25 100 65 25 100 65 25 100 65 25 100 65 25 100 65 25 100 65 25 100 65 25 100 65 25 100 65 25 100 65 25 100 65 25 100 65 25 100 65 25 100 65 25 100 65 25 100 65 25 100 65 25 100 65 25 100 65 25 100 65 25 100 65 25 100 65 25 100 65 25 100 65 25 100 65 25 100 65 25 100 65 25 100 65 25 100 65 25 100 65 25 100 65 25 100 65 25 100 65 25 100 65 25 100 65 25 100 65 25 100 65 25 100 65 25 100 65 25 100 65 25 100 65 25 100 65 25 100 65 25 100 65 25 100 65 25 100 65 25 100 65 25 100 65 25 100 65 25 100 65 25 100 65 25 100 65 25 100 65 25 100 65 25 100 65 25 100 65 25 100 65 25 100 65 25 100 65 25 100 65 25 100 65 25 100 65 25 100 65 25 100 65 25 100 65 25 100 65 25 100 65 25 100 65 25 100 65 25 100 65 25 100 65 25 100 65 25 100 65 25 100 65 25 100 65 25 100 65 25 100 65 25 100 65 25 100 65 25 100 65 25 100 65 25 100 65 25 100 65 25 100 65 25 100 65 25 100 65 25 100 65 25 100 65 25 100 65 25 100 65 25 100 65 25 100 65 25 100 65 25 100 65 25 100 65 25 100 65 25 100 65 25 100 65 25 100 65 25 100 65 25 100 65 25 100 65 25 100 65 25 100 65 25 100 65 25 100 65 25 100 65 25 100 65 25 100 65 25 100 65 25 100 65 25 100 65 25 100 65 25 100 65 25 100 65 25 100 65 25 100 65 25 100 65 25 100 65 25 100 65 25 100 65 25 100 65 25 100 65 25 100 65 25 100 65 25 100 65 25 100 65 25 100 65 25 100 65 25 100 65 25 100 65 25 100 65 25 100 65 25 100 65 25 100 65 25 100 65 25 100 65 25 100 65 25 100 65 25 100 65 25 100 65 25 100 65 25 100 65 25 100 65 25 100 65 25 100 65 25 100 65 25 100 65 25 100 65 25 100 65 25 100 65 25 100 65 25 100 65 25 100 65 25 100 65 25 100 65 25 100 65 25 100 65 25 100 65 25 100 65 25 100 65 25 100 65 25 100 65 25 100 65 25 100 65 25 100 65 25 100 65 25 100 65 25 100 65 25 100 65 25 100 65 25 100 65 25 100 65 25 100 65 25 100 65 25 100 65 25 100 65 25 100 65 25 100 65 25 100 65 25 100 65 25 100 65 25 100 65 25 100 65 25 100 65 25 100 65 25 100 65 25 100 65 25 100 65 25 100 65 25 100 65 25 100 65 25 100 65 25 100 65 25 100 65 25 100 65 25 100 65 25 100 65 25 100 65 25 100 65 25 100 65 25 100 65 25 100 65 25 100 65 25 100 65 25 100 65 25 100 65 25 100 65 25 100 65 25 100 65 25 100 65 25 100 65 25 100 65 25 100 65 25 100 65 25 100 65 25 100 65 25 100 65 25 100 65 25 100 65 25 100 65 25 100 65 25 100 65 25 100 65 25 100 65 25 100 65 25 100 65 25 100 65 25 100 65 25 100 65 25 100 65 25 100 65 25 100 65 25 100 65 25 100 65 25 100 65 25 100 65 25 100 65 25 100 65 25 100 65 25 100 65 25 100 65 25 100 65 25 100 65
25 100 65 25 100 65 25 100 65 25 100 65 25 100 65 25 100 65 25 100 65 25 100 65 25 100 65 25 100 65 25 100 65 25 100 65 25 100 65 25 100 65 25 100 65 25 100 65 25 100 65 25 100 65 25 100 65 25 100 65 25 100 65 25 100 65 25 100 65 25 100 65 25 100 65 25 100 65 25 100 65 25 100 65 25 100 65 25 100 65 25 100 65 25 100 65 25 100 65 25 100 65 25 100 65 25 100 65 25 100 65 25 100 65 25 100 65 25 100 65 25 100 65 25 100 65 25 100 65 25 100 65 25 100 65 25 100 65 25 100 65 25 100 65 25 100 65 25 100 65 25 100 65 25 100 65 25 100 65 25 100 65 25 100 65 25 100 65 25 100 65 25 100 65 25 100 65 25 100 65 25 100 65 25 100 65 25 100 65 25 100 65 25 100 65 25 100 65 25 100 65 25 100 65 25 100 65 25 100 65 25 100 65 25 100 65 25 100 65 25 100 65 25 100 65 25 100 65 25 100 65 25 100 65 25 100 65 25 100 65 25 100 65 25 100 65 25 100 65 25 100 65 25 100 65 25 100 65 25 100 65 25 100 65 25 100 65 25 100 65 25 100 65 25 100 65 25 100 65 25 100 65 25 100 65 25 100 65 25 100 65 25 100 65 25 100 65 25 100 65 25 100 65 25 100 65 25 100 65 25 100 65 25 100 65 25 100 65 25 100 65 25 100 65 25 100 65 25 100 65 25 100 65 25 100 65 25 100 65 25 100 65 25 100 65 25 100 65 25 100 65 25 100 65 25 100 65 25 100 65 25 100 65 25 100 65 25 100 65 25 100 65 25 100 65 25 100 65 25 100 65 25 100 65 25 100 65 25 100 65 25 100 65 25 100 65 25 100 65 25 100 65 25 100 65 25 100 65 25 100 65 25 100 65 25 100 65 25 100 65 25 100 65 25 100 65 25 100 65 25 100 65 25 100 65 25 100 65 25 100 65 25 100 65 25 100 65 25 100 65 25 100 65 25 100 65 25 100 65 25 100 65 25 100 65 25 100 65 25 100 65 25 100 65 25 100 65 25 100 65 25 100 65 25 100 65 25 100 65 25 100 65 25 100 65 25 100 65 25 100 65 25 100 65 25 100 65 25 100 65 25 100 65 25 100 65 25 100 65 25 100 65 25 100 65 25 100 65 25 100 65 25 100 65 25 100 65 25 100 65 25 100 65 25 100 65 25 100 65 25 100 65 25 100 65 25 100 65 25 100 65 25 100 65 25 100 65 25 100 65 25 100 65 25 100 65 25 100 65 25 100 65 25 100 65 25 100 65 25 100 65 25 100 65 25 100 65 25 100 65 25 100 65 25 100 65 25 100 65 25 100 65 25 100 65 25 100 65 25 100 65 25 100 65 25 100 65 25 100 65 25 100 65 25 100 65 25 100 65 25 100 65 25 100 65 25 100 65 25 100 65 25 100 65 25 100 65 25 100 65 25 100 65 25 100 65 25 100 65 25 100 65 25 100 65 25 100 65 25 100 65 25 100 65 25 100 65 25 100 65 25 100 65 25 100 65 25 100 65 25 100 65 25 100 65 25 100 65 25 100 65 25 100 65 25 100 65 25 100 65 25 100 65 25 100 65 25 100 65 25 100 65 25 100 65 25 100 65 25 100 65 25 100 65 25 100 65 25 100 65 25 100 65 25 100 65 25 100 65 25 100 65 25 100 65 25 100 65 25 100 65 25 100 65 25 100 65 25 100 65 25 100 65 25 100 65 25 100 65 25 100 65 25 100 65 25 100 65 25 100 65 25 100 65 25 100 65 25 100 65 25 100 65 25 100 65 25 100 65 25 100 65 25 100 65 25 100 65 25 100 65 25 100 65 25 100 65 25 100 65 25 100 65 25 100 65 25 100 65 25 100 65 25 100 65 25 100 65 25 100 65 25 100 65 25 100 65 25 100 65 25 100 65 25 100 65 25 100 65 25 100 65 25 100 65 25 100 65 25 100 65 25 100 65 25 100 65 25 100 65 25 100 65 25 100 65 25 100 65 25 100 65 25 100 65 25 100 65 25 100 65 25 100 65 25 100 65 25 100 65 25 100 65 25 100 65 25 100 65 25 100 65 25 100 65 25 100 65 25 100 65 25 100 65 25 100 65 25 100 65
25 100 65 25 100 65 25 100 65 25 100 65 25 100 65 25 100 65 25 100 65 25 100 65 25 100 65 25 100 65 25 100 65 25 100 65 25 100 65 25 100 65 25 100 65 25 100 65 25 100 65 25 100 65 25 100 65 25 100 65 25 100 65 25 100 65 25 100 65 25 100 65 25 100 65 25 100 65 25 100 65 25 100 65 25 100 65 25 100 65 25 100 65 25 100 65 25 100 65 25 100 65 25 100 65 25 100 65 25 100 65 25 100 65 25 100 65 25 100 65 25 100 65 25 100 65 25 100 65 25 100 65 25 100 65 25 100 65 25 100 65 25 100 65 25 100 65 25 100 65 25 100 65 25 100 65 25 100 65 25 100 65 25 100 65 25 100 65 25 100 65 25 100 65 25 100 65 25 100 65 25 100 65 25 100 65 25 100 65 25 100 65 25 100 65 25 100 65 25 100 65 25 100 65 25 100 65 25 100 65 25 100 65 25 100 65 25 100 65 25 100 65 25 100 65 25 100 65 25 100 65 25 100 65 25 100 65 25 100 65 25 100 65 25 100 65 25 100 65 25 100 65 25 100 65 25 100 65 25 100 65 25 100 65 25 100 65 25 100 65 25 100 65 25 100 65 25 100 65 25 100 65 25 100 65 25 100 65 25 100 65 25 100 65 25 100 65 25 100 65 25 100 65 25 100 65 25 100 65 25 100 65 25 100 65 25 100 65 25 100 65 25 100 65 25 100 65 25 100 65 25 100 65 25 100 65 25 100 65 25 100 65 25 100 65 25 100 65 25 100 65 25 100 65 25 100 65 25 100 65 25 100 65 25 100 65 25 100 65 25 100 65 25 100 65 25 100 65 25 100 65 25 100 65 25 100 65 25 100 65 25 100 65 25 100 65 25 100 65 25 100 65 25 100 65 25 100 65 25 100 65 25 100 65 25 100 65 25 100 65 25 100 65 25 100 65 25 100 65 25 100 65 25 100 65 25 100 65 25 100 65 25 100 65 25 100 65 25 100 65 25 100 65 25 100 65 25 100 65 25 100 65 25 100 65 25 100 65 25 100 65 25 100 65 25 100 65 25 100 65 25 100 65 25 100 65 25 100 65 25 100 65 25 100 65 25 100 65 25 100 65 25 100 65 25 100 65 25 100 65 25 100 65 25 100 65 25 100 65 25 100 65 25 100 65 25 100 65 25 100 65 25 100 65 25 100 65 25 100 65 25 100 65 25 100 65 25 100 65 25 100 65 25 100 65 25 100 65 25 100 65 25 100 65 25 100 65 25 100 65 25 100 65 25 100 65 25 100 65 25 100 65 25 100 65 25 100 65 25 100 65 25 100 65 25 100 65 25 100 65 25 100 65 25 100 65 25 100 65 25 100 65 25 100 65 25 100 65 25 100 65 25 100 65 25 100 65 25 100 65 25 100 65 25 100 65 25 100 65 25 100 65 25 100 65 25 100 65 25 100 65 25 100 65 25 100 65 25 100 65 25 100 65 25 100 65 25 100 65 25 100 65 25 100 65 25 100 65 25 100 65 25 100 65 25 100 65 25 100 65 25 100 65 25 100 65 25 100 65 25 100 65 25 100 65 25 100 65 25 100 65 25 100 65 25 100 65 25 100 65 25 100 65 25 100 65 25 100 65 25 100 65 25 100 65 25 100 65 25 100 65 25 100 65 25 100 65 25 100 65 25 100 65 25 100 65 25 100 65 25 100 65 25 100 65 25 100 65 25 100 65 25 100 65 25 100 65 25 100 65 25 100 65 25 100 65 25 100 65 25 100 65 25 100 65 25 100 65 25 100 65 25 100 65 25 100 65 25 100 65 25 100 65 25 100 65 25 100 65 25 100 65 25 100 65 25 100 65 25 100 65 25 100 65 25 100 65 25 100 65 25 100 65 25 100 65 25 100 65 25 100 65 25 100 65 25 100 65 25 100 65 25 100 65 25 100 65 25 100 65 25 100 65 25 100 65 25 100 65 25 100 65 25 100 65 25 100 65 25 100 65 25 100 65 25 100 65 25 100 65 25 100 65 25 100 65 25 100 65 25 100 65 25 100 65 25 100 65 25 100 65 25 100 65 25 100 65 25 100 65 25 100 65 25 100 65 25 100 65 25 100 65 25 100 65 25 100 65 25 100 65 25 100 65 25 100 65 25 100 65
25 100 65 25 100 65 25 100 65 25 100 65 25 100 65 25 100 65 25 100 65 25 100 65 25 100 65 25 100 65 25 100 65 25 100 65 25 100 65 25 100 65 25 100 65 25 100 65 25 100 65 25 100 65 25 100 65 25 100 65 25 100 65 25 100 65 25 100 65 25 100 65 25 100 65 25 100 65 25 100 65 25 100 65 25 100 65 25 100 65 25 100 65 25 100 65 25 100 65 25 100 65 25 100 65 25 100 65 25 100 65 25 100 65 25 100 65 25 100 65 25 100 65 25 100 65 25 100 65 25 100 65 25 100 65 25 100 65 25 100 65 25 100 65 25 100 65 25 100 65 25 100 65 25 100 65 25 100 65 25 100 65 25 100 65 25 100 65 25 100 65 25 100 65 25 100 65 25 100 65 25 100 65 25 100 65 25 100 65 25 100 65 25 100 65 25 100 65 25 100 65 25 100 65 25 100 65 25 100 65 25 100 65 25 100 65 25 100 65 25 100 65 25 100 65 25 100 65 25 100 65 25 100 65 25 100 65 25 100 65 25 100 65 25 100 65 25 100 65 25 100 65 25 100 65 25 100 65 25 100 65 25 100 65 25 100 65 25 100 65 25 100 65 25 100 65 25 100 65 25 100 65 25 100 65 25 100 65 25 100 65 25 100 65 25 100 65 25 100 65 25 100 65 25 100 65 25 100 65 25 100 65 25 100 65 25 100 65 25 100 65 25 100 65 25 100 65 25 100 65 25 100 65 25 100 65 25 100 65 25 100 65 25 100 65 25 100 65 25 100 65 25 100 65 25 100 65 25 100 65 25 100 65 25 100 65 25 100 65 25 100 65 25 100 65 25 100 65 25 100 65 25 100 65 25 100 65 25 100 65 25 100 65 25 100 65 25 100 65 25 100 65 25 100 65 25 100 65 25 100 65 25 100 65 25 100 65 25 100 65 25 100 65 25 100 65 25 100 65 25 100 65 25 100 65 25 100 65 25 100 65 25 100 65 25 100 65 25 100 65 25 100 65 25 100 65 25 100 65 25 100 65 25 100 65 25 100 65 25 100 65 25 100 65 25 100 65 25 100 65 25 100 65 25 100 65 25 100 65 25 100 65 25 100 65 25 100 65 25 100 65 25 100 65 25 100 65 25 100 65 25 100 65 25 100 65 25 100 65 25 100 65 25 100 65 25 100 65 25 100 65 25 100 65 25 100 65 25 100 65 25 100 65 25 100 65 25 100 65 25 100 65 25 100 65 25 100 65 25 100 65 25 100 65 25 100 65 25 100 65 25 100 65 25 100 65 25 100 65 25 100 65 25 100 65 25 100 65 25 100 65 25 100 65 25 100 65 25 100 65 25 100 65 25 100 65 25 100 65 25 100 65 25 100 65 25 100 65 25 100 65 25 100 65 25 100 65 25 100 65 25 100 65 25 100 65 25 100 65 25 100 65 25 100 65 25 100 65 25 100 65 25 100 65 25 100 65 25 100 65 25 100 65 25 100 65 25 100 65 25 100 65 25 100 65 25 100 65 25 100 65 25 100 65 25 100 65 25 100 65 25 100 65 25 100 65 25 100 65 25 100 65 25 100 65 25 100 65 25 100 65 25 100 65 25 100 65 25 100 65 25 100 65 25 100 65 25 100 65 25 100 65 25 100 65 25 100 65 25 100 65 25 100 65 25 100 65 25 100 65 25 100 65 25 100 65 25 100 65 25 100 65 25 100 65 25 100 65 25 100 65 25 100 65 25 100 65 25 100 65 25 100 65 25 100 65 25 100 65 25 100 65 25 100 65 25 100 65 25 100 65 25 100 65 25 100 65 25 100 65 25 100 65 25 100 65 25 100 65 25 100 65 25 100 65 25 100 65 25 100 65 25 100 65 25 100 65 25 100 65 25 100 65 25 100 65 25 100 65 25 100 65 25 100 65 25 100 65 25 100 65 25 100 65 25 100 65 25 100 65 25 100 65 25 100 65 25 100 65 25 100 65 25 100 65 25 100 65 25 100 65 25 100 65 25 100 65 25 100 65 25 100 65 25 100 65 25 100 65 25 100 65 25 100 65 25 100 65 25 100 65 25 100 65 25 100 65 25 100 65 25 100 65 25 100 65 25 100 65 25 100 65 25 100 65 25 100 65 25 100 65 25 100 65 25 100 65 25 100 65
25 100 65 25 100 65 25 100 65 25 100 65 25 100 65 25 100 65 25 100 65 25 100 65 25 100 65 25 100 65 25 100 65 25 100 65 25 100 65 25 100 65 25 100 65 25 100 65 25 100 65 25 100 65 25 100 65 25 100 65 25 100 65 25 100 65 25 100 65 25 100 65 25 100 65 25 100 65 25 100 65 25 100 65 25 100 65 25 100 65 25 100 65 25 100 65 25 100 65 25 100 65 25 100 65 25 100 65 25 100 65 25 100 65 25 100 65 25 100 65 25 100 65 25 100 65 25 100 65 25 100 65 25 100 65 25 100 65 25 100 65 25 100 65 25 100 65 25 100 65 25 100 65 25 100 65 25 100 65 25 100 65 25 100 65 25 100 65 25 100 65 25 100 65 25 100 65 25 100 65 25 100 65 25 100 65 25 100 65 25 100 65 25 100 65 25 100 65 25 100 65 25 100 65 25 100 65 25 100 65 25 100 65 25 100 65 25 100 65 25 100 65 25 100 65 25 100 65 25 100 65 25 100 65 25 100 65 25 100 65 25 100 65 25 100 65 25 100 65 25 100 65 25 100 65 25 100 65 25 100 65 25 100 65 25 100 65 25 100 65 25 100 65 25 100 65 25 100 65 25 100 65 25 100 65 25 100 65 25 100 65 25 100 65 25 100 65 25 100 65 25 100 65 25 100 65 25 100 65 25 100 65 25 100 65 25 100 65 25 100 65 25 100 65 25 100 65 25 100 65 25 100 65 25 100 65 25 100 65 25 100 65 25 100 65 25 100 65 25 100 65 25 100 65 25 100 65 25 100 65 25 100 65 25 100 65 25 100 65 25 100 65 25 100 65 25 100 65 25 100 65 25 100 65 25 100 65 25 100 65 25 100 65 25 100 65 25 100 65 25 100 65 25 100 65 25 100 65 25 100 65 25 100 65 25 100 65 25 100 65 25 100 65 25 100 65 25 100 65 25 100 65 25 100 65 25 100 65 25 100 65 25 100 65 25 100 65 25 100 65 25 100 65 25 100 65 25 100 65 25 100 65 25 100 65 25 100 65 25 100 65 25 100 65 25 100 65 25 100 65 25 100 65 25 100 65 25 100 65 25 100 65 25 100 65 25 100 65 25 100 65 25 100 65 25 100 65 25 100 65 25 100 65 25 100 65 25 100 65 25 100 65 25 100 65 25 100 65 25 100 65 25 100 65 25 100 65 25 100 65 25 100 65 25 100 65 25 100 65 25 100 65 25 100 65 25 100 65 25 100 65 25 100 65 25 100 65 25 100 65 25 100 65 25 100 65 25 100 65 25 100 65 25 100 65 25 100 65 25 100 65 25 100 65 25 100 65 25 100 65 25 100 65 25 100 65 25 100 65 25 100 65 25 100 65 25 100 65 25 100 65 25 100 65 25 100 65 25 100 65 25 100 65 25 100 65 25 100 65 25 100 65 25 100 65 25 100 65 25 100 65 25 100 65 25 100 65 25 100 65 25 100 65 25 100 65 25 100 65 25 100 65 25 100 65 25 100 65 25 100 65 25 100 65 25 100 65 25 100 65 25 100 65 25 100 65 25 100 65 25 100 65 25 100 65 25 100 65 25 100 65 25 100 65 25 100 65 25 100 65 25 100 65 25 100 65 25 100 65 25 100 65 25 100 65 25 100 65 25 100 65 25 100 65 25 100 65 25 100 65 25 100 65 25 100 65 25 100 65 25 100 65 25 100 65 25 100 65 25 100 65 25 100 65 25 100 65 25 100 65 25 100 65 25 100 65 25 100 65 25 100 65 25 100 65 25 100 65 25 100 65 25 100 65 25 100 65 25 100 65 25 100 65 25 100 65 25 100 65 25 100 65 25 100 65 25 100 65 25 100 65 25 100 65 25 100 65 25 100 65 25 100 65 25 100 65 25 100 65 25 100 65 25 100 65 25 100 65 25 100 65 25 100 65 25 100 65 25 100 65 25 100 65 25 100 65 25 100 65 25 100 65 25 100 65 25 100 65 25 100 65 25 100 65 25 100 65 25 100 65 25 100 65 25 100 65 25 100 65 25 100 65 25 100 65 25 100 65 25 100 65 25 100 65 25 100 65 25 100 65 25 100 65 25 100 65 25 100 65 25 100 65 25 100 65 25 100 65 25 100 65 25 100 65 25 100 65 25 100 65
25 100 65 25 100 65 25 100 65 25 100 65 25 100 65 25 100 65 25 100 65 25 100 65 25 100 65 25 100 65 25 100 65 25 100 65 25 100 65 25 100 65 25 100 65 25 100 65 25 100 65 25 100 65 25 100 65 25 100 65 25 100 65 25 100 65 25 100 65 25 100 65 25 100 65 25 100 65 25 100 65 25 100 65 25 100 65 25 100 65 25 100 65 25 100 65 25 100 65 25 100 65 25 100 65 25 100 65 25 100 65 25 100 65 25 100 65 25 100 65 25 100 65 25 100 65 25 100 65 25 100 65 25 100 65 25 100 65 25 100 65 25 100 65 25 100 65 25 100 65 25 100 65 25 100 65 25 100 65 25 100 65 25 100 65 25 100 65 25 100 65 25 100 65 25 100 65 25 100 65 25 100 65 25 100 65 25 100 65 25 100 65 25 100 65 25 100 65 25 100 65 25 100 65 25 100 65 25 100 65 25 100 65 25 100 65 25 100 65 25 100 65 25 100 65 25 100 65 25 100 65 25 100 65 25 100 65 25 100 65 25 100 65 25 100 65 25 100 65 25 100 65 25 100 65 25 100 65 25 100 65 25 100 65 25 100 65 25 100 65 25 100 65 25 100 65 25 100 65 25 100 65 25 100 65 25 100 65 25 100 65 25 100 65 25 100 65 25 100 65 25 100 65 25 100 65 25 100 65 25 100 65 25 100 65 25 100 65 25 100 65 25 100 65 25 100 65 25 100 65 25 100 65 25 100 65 25 100 65 25 100 65 25 100 65 25 100 65 25 100 65 25 100 65 25 100 65 25 100 65 25 100 65 25 100 65 25 100 65 25 100 65 25 100 65 25 100 65 25 100 65 25 100 65 25 100 65 25 100 65 25 100 65 25 100 65 25 100 65 25 100 65 25 100 65 25 100 65 25 100 65 25 100 65 25 100 65 25 100 65 25 100 65 25 100 65 25 100 65 25 100 65 25 100 65 25 100 65 25 100 65 25 100 65 25 100 65 25 100 65 25 100 65 25 100 65 25 100 65 25 100 65 25 100 65 25 100 65 25 100 65 25 100 65 25 100 65 25 100 65 25 100 65 25 100 65 25 100 65 25 100 65 25 100 65 25 100 65 25 100 65 25 100 65 25 100 65 25 100 65 25 100 65 25 100 65 25 100 65 25 100 65 25 100 65 25 100 65 25 100 65 25 100 65 25 100 65 25 100 65 25 100 65 25 100 65 25 100 65 25 100 65 25 100 65 25 100 65 25 100 65 25 100 65 25 100 65 25 100 65 25 100 65 25 100 65 25 100 65 25 100 65 25 100 65 25 100 65 25 100 65 25 100 65 25 100 65 25 100 65 25 100 65 25 100 65 25 100 65 25 100 65 25 100 65 25 100 65 25 100 65 25 100 65 25 100 65 25 100 65 25 100 65 25 100 65 25 100 65 25 100 65 25 100 65 25 100 65 25 100 65 25 100 65 25 100 65 25 100 65 25 100 65 25 100 65 25 100 65 25 100 65 25 100 65 25 100 65 25 100 65 25 100 65 25 100 65 25 100 65 25 100 65 25 100 65 25 100 65 25 100 65 25 100 65 25 100 65 25 100 65 25 100 65 25 100 65 25 100 65 25 100 65 25 100 65 25 100 65 25 100 65 25 100 65 25 100 65 25 100 65 25 100 65 25 100 65 25 100 65 25 100 65 25 100 65 25 100 65 25 100 65 25 100 65 25 100 65 25 100 65 25 100 65 25 100 65 25 100 65 25 100 65 25 100 65 25 100 65 25 100 65 25 100 65 25 100 65 25 100 65 25 100 65 25 100 65 25 100 65 25 100 65 25 100 65 25 100 65 25 100 65 25 100 65 25 100 65 25 100 65 25 100 65 25 100 65 25 100 65 25 100 65 25 100 65 25 100 65 25 100 65 25 100 65 25 100 65 25 100 65 25 100 65 25 100 65 25 100 65 25 100 65 25 100 65 25 100 65 25 100 65 25 100 65 25 100 65 25 100 65 25 100 65 25 100 65 25 100 65 25 100 65 25 100 65 25 100 65 25 100 65 25 100 65 25 100 65 25 100 65 25 100 65 25 100 65 25 100 65 25 100 65 25 100 65 25 100 65 25 100 65 25 100 65 25 100 65 25 100 65 25 100 65 25 100 65 25 100 65
25 100 65 25 100 65 25 100 65 25 100 65 25 100 65 25 100 65 25 100 65 25 100 65 25 100 65 25 100 65 25 100 65 25 100 65 25 100 65 25 100 65 25 100 65 25 100 65 25 100 65 25 100 65 25 100 65 25 100 65 25 100 65 25 100 65 25 100 65 25 100 65 25 100 65 25 100 65 25 100 65 25 100 65 25 100 65 25 100 65 25 100 65 25 100 65 25 100 65 25 100 65 25 100 65 25 100 65 25 100 65 25 100 65 25 100 65 25 100 65 25 100 65 25 100 65 25 100 65 25 100 65 25 100 65 25 100 65 25 100 65 25 100 65 25 100 65 25 100 65 25 100 65 25 100 65 25 100 65 25 100 65 25 100 65 25 100 65 25 100 65 25 100 65 25 100 65 25 100 65 25 100 65 25 100 65 25 100 65 25 100 65 25 100 65 25 100 65 25 100 65 25 100 65 25 100 65 25 100 65 25 100 65 25 100 65 25 100 65 25 100 65 25 100 65 25 100 65 25 100 65 25 100 65 25 100 65 25 100 65 25 100 65 25 100 65 25 100 65 25 100 65 25 100 65 25 100 65 25 100 65 25 100 65 25 100 65 25 100 65 25 100 65 25 100 65 25 100 65 25 100 65 25 100 65 25 100 65 25 100 65 25 100 65 25 100 65 25 100 65 25 100 65 25 100 65 25 100 65 25 100 65 25 100 65 25 100 65 25 100 65 25 100 65 25 100 65 25 100 65 25 100 65 25 100 65 25 100 65 25 100 65 25 100 65 25 100 65 25 100 65 25 100 65 25 100 65 25 100 65 25 100 65 25 100 65 25 100 65 25 100 65 25 100 65 25 100 65 25 100 65 25 100 65 25 100 65 25 100 65 25 100 65 25 100 65 25 100 65 25 100 65 25 100 65 25 100 65 25 100 65 25 100 65 25 100 65 25 100 65 25 100 65 25 100 65 25 100 65 25 100 65 25 100 65 25 100 65 25 100 65 25 100 65 25 100 65 25 100 65 25 100 65 25 100 65 25 100 65 25 100 65 25 100 65 25 100 65 25 100 65 25 100 65 25 100 65 25 100 65 25 100 65 25 100 65 25 100 65 25 100 65 25 100 65 25 100 65 25 100 65 25 100 65 25 100 65 25 100 65 25 100 65 25 100 65 25 100 65 25 100 65 25 100 65 25 100 65 25 100 65 25 100 65 25 100 65 25 100 65 25 100 65 25 100 65 25 100 65 25 100 65 25 100 65 25 100 65 25 100 65 25 100 65 25 100 65 25 100 65 25 100 65 25 100 65 25 100 65 25 100 65 25 100 65 25 100 65 25 100 65 25 100 65 25 100 65 25 100 65 25 100 65 25 100 65 25 100 65 25 100 65 25 100 65 25 100 65 25 100 65 25 100 65 25 100 65 25 100 65 25 100 65 25 100 65 25 100 65 25 100 65 25 100 65 25 100 65 25 100 65 25 100 65 25 100 65 25 100 65 25 100 65 25 100 65 25 100 65 25 100 65 25 100 65 25 100 65 25 100 65 25 100 65 25 100 65 25 100 65 25 100 65 25 100 65 25 100 65 25 100 65 25 100 65 25 100 65 25 100 65 25 100 65 25 100 65 25 100 65 25 100 65 25 100 65 25 100 65 25 100 65 25 100 65 25 100 65 25 100 65 25 100 65 25 100 65 25 100 65 25 100 65 25 100 65 25 100 65 25 100 65 25 100 65 25 100 65 25 100 65 25 100 65 25 100 65 25 100 65 25 100 65 25 100 65 25 100 65 25 100 65 25 100 65 25 100 65 25 100 65 25 100 65 25 100 65 25 100 65 25 100 65 25 100 65 25 100 65 25 100 65 25 100 65 25 100 65 25 100 65 25 100 65 25 100 65 25 100 65 25 100 65 25 100 65 25 100 65 25 100 65 25 100 65 25 100 65 25 100 65 25 100 65 25 100 65 25 100 65 25 100 65 25 100 65 25 100 65 25 100 65 25 100 65 25 100 65 25 100 65 25 100 65 25 100 65 25 100 65 25 100 65 25 100 65 25 100 65 25 100 65 25 100 65 25 100 65 25 100 65 25 100 65 25 100 65 25 100 65 25 100 65 25 100 65 25 100 65 25 100 65 25 100 65 25 100 65 25 100 65 25 100 65 25 100 65 25 100 65
25 100 65 25 100 65 25 100 65 25 100 65 25 100 65 25 100 65 25 100 65 25 100 65 25 100 65 25 100 65 25 100 65 25 100 65 25 100 65 25 100 65 25 100 65 25 100 65 25 100 65 25 100 65 25 100 65 25 100 65 25 100 65 25 100 65 25 100 65 25 100 65 25 100 65 25 100 65 25 100 65 25 100 65 25 100 65 25 100 65 25 100 65 25 100 65 25 100 65 25 100 65 25 100 65 25 100 65 25 100 65 25 100 65 25 100 65 25 100 65 25 100 65 25 100 65 25 100 65 25 100 65 25 100 65 25 100 65 25 100 65 25 100 65 25 100 65 25 100 65 25 100 65 25 100 65 25 100 65 25 100 65 25 100 65 25 100 65 25 100 65 25 100 65 25 100 65 25 100 65 25 100 65 25 100 65 25 100 65 25 100 65 25 100 65 25 100 65 25 100 65 25 100 65 25 100 65 25 100 65 25 100 65 25 100 65 25 100 65 25 100 65 25 100 65 25 100 65 25 100 65 25 100 65 25 100 65 25 100 65 25 100 65 25 100 65 25 100 65 25 100 65 25 100 65 25 100 65 25 100 65 25 100 65 25 100 65 25 100 65 25 100 65 25 100 65 25 100 65 25 100 65 25 100 65 25 100 65 25 100 65 25 100 65 25 100 65 25 100 65 25 100 65 25 100 65 25 100 65 25 100 65 25 100 65 25 100 65 25 100 65 25 100 65 25 100 65 25 100 65 25 100 65 25 100 65 25 100 65 25 100 65 25 100 65 25 100 65 25 100 65 25 100 65 25 100 65 25 100 65 25 100 65 25 100 65 25 100 65 25 100 65 25 100 65 25 100 65 25 100 65 25 100 65 25 100 65 25 100 65 25 100 65 25 100 65 25 100 65 25 100 65 25 100 65 25 100 65 25 100 65 25 100 65 25 100 65 25 100 65 25 100 65 25 100 65 25 100 65 25 100 65 25 100 65 25 100 65 25 100 65 25 100 65 25 100 65 25 100 65 25 100 65 25 100 65 25 100 65 25 100 65 25 100 65 25 100 65 25 100 65 25 100 65 25 100 65 25 100 65 25 100 65 25 100 65 25 100 65 25 100 65 25 100 65 25 100 65 25 100 65 25 100 65 25 100 65 25 100 65 25 100 65 25 100 65 25 100 65 25 100 65 25 100 65 25 100 65 25 100 65 25 100 65 25 100 65 25 100 65 25 100 65 25 100 65 25 100 65 25 100 65 25 100 65 25 100 65 25 100 65 25 100 65 25 100 65 25 100 65 25 100 65 25 100 65 25 100 65 25 100 65 25 100 65 25 100 65 25 100 65 25 100 65 25 100 65 25 100 65 25 100 65 25 100 65 25 100 65 25 100 65 25 100 65 25 100 65 25 100 65 25 100 65 25 100 65 25 100 65 25 100 65 25 100 65 25 100 65 25 100 65 25 100 65 25 100 65 25 100 65 25 100 65 25 100 65 25 100 65 25 100 65 25 100 65 25 100 65 25 100 65 25 100 65 25 100 65 25 100 65 25 100 65 25 100 65 25 100 65 25 100 65 25 100 65 25 100 65 25 100 65 25 100 65 25 100 65 25 100 65 25 100 65 25 100 65 25 100 65 25 100 65 25 100 65 25 100 65 25 100 65 25 100 65 25 100 65 25 100 65 25 100 65 25 100 65 25 100 65 25 100 65 25 100 65 25 100 65 25 100 65 25 100 65 25 100 65 25 100 65 25 100 65 25 100 65 25 100 65 25 100 65 25 100 65 25 100 65 25 100 65 25 100 65 25 100 65 25 100 65 25 100 65 25 100 65 25 100 65 25 100 65 25 100 65 25 100 65 25 100 65 25 100 65 25 100 65 25 100 65 25 100 65 25 100 65 25 100 65 25 100 65 25 100 65 25 100 65 25 100 65 25 100 65 25 100 65 25 100 65 25 100 65 25 100 65 25 100 65 25 100 65 25 100 65 25 100 65 25 100 65 25 100 65 25 100 65 25 100 65 25 100 65 25 100 65 25 100 65 25 100 65 25 100 65 25 100 65 25 100 65 25 100 65 25 100 65 25 100 65 25 100 65 25 100 65 25 100 65 25 100 65 25 100 65 25 100 65 25 100 65 25 100 65 25 100 65 25 100 65 25 100 65 25 100 65 25 100 65
25 100 65 25 100 65 25 100 65 25 100 65 25 100 65 25 100 65 25 100 65 25 100 65 25 100 65 25 100 65 25 100 65 25 100 65 25 100 65 25 100 65 25 100 65 25 100 65 25 100 65 25 100 65 25 100 65 25 100 65 25 100 65 25 100 65 25 100 65 25 100 65 25 100 65 25 100 65 25 100 65 25 100 65 25 100 65 25 100 65 25 100 65 25 100 65 25 100 65 25 100 65 25 100 65 25 100 65 25 100 65 25 100 65 25 100 65 25 100 65 25 100 65 25 100 65 25 100 65 25 100 65 25 100 65 25 100 65 25 100 65 25 100 65 25 100 65 25 100 65 25 100 65 25 100 65 25 100 65 25 100 65 25 100 65 25 100 65 25 100 65 25 100 65 25 100 65 25 100 65 25 100 65 25 100 65 25 100 65 25 100 65 25 100 65 25 100 65 25 100 65 25 100 65 25 100 65 25 100 65 25 100 65 25 100 65 25 100 65 25 100 65 25 100 65 25 100 65 25 100 65 25 100 65 25 100 65 25 100 65 25 100 65 25 100 65 25 100 65 25 100 65 25 100 65 25 100 65 25 100 65 25 100 65 25 100 65 25 100 65 25 100 65 25 100 65 25 100 65 25 100 65 25 100 65 25 100 65 25 100 65 25 100 65 25 100 65 25 100 65 25 100 65 25 100 65 25 100 65 25 100 65 25 100 65 25 100 65 25 100 65 25 100 65 25 100 65 25 100 65 25 100 65 25 100 65 25 100 65 25 100 65 25 100 65 25 100 65 25 100 65 25 100 65 25 100 65 25 100 65 25 100 65 25 100 65 25 100 65 25 100 65 25 100 65 25 100 65 25 100 65 25 100 65 25 100 65 25 100 65 25 100 65 25 100 65 25 100 65 25 100 65 25 100 65 25 100 65 25 100 65 25 100 65 25 100 65 25 100 65 25 100 65 25 100 65 25 100 65 25 100 65 25 100 65 25 100 65 25 100 65 25 100 65 25 100 65 25 100 65 25 100 65 25 100 65 25 100 65 25 100 65 25 100 65 25 100 65 25 100 65 25 100 65 25 100 65 25 100 65 25 100 65 25 100 65 25 100 65 25 100 65 25 100 65 25 100 65 25 100 65 25 100 65 25 100 65 25 100 65 25 100 65 25 100 65 25 100 65 25 100 65 25 100 65 25 100 65 25 100 65 25 100 65 25 100 65 25 100 65 25 100 65 25 100 65 25 100 65 25 100 65 25 100 65 25 100 65 25 100 65 25 100 65 25 100 65 25 100 65 25 100 65 25 100 65 25 100 65 25 100 65 25 100 65 25 100 65 25 100 65 25 100 65 25 100 65 25 100 65 25 100 65 25 100 65 25 100 65 25 100 65 25 100 65 25 100 65 25 100 65 25 100 65 25 100 65 25 100 65 25 100 65 25 100 65 25 100 65 25 100 65 25 100 65 25 100 65 25 100 65 25 100 65 25 100 65 25 100 65 25 100 65 25 100 65 25 100 65 25 100 65 25 100 65 25 100 65 25 100 65 25 100 65 25 100 65 25 100 65 25 100 65 25 100 65 25 100 65 25 100 65 25 100 65 25 100 65 25 100 65 25 100 65 25 100 65 25 100 65 25 100 65 25 100 65 25 100 65 25 100 65 25 100 65 25 100 65 25 100 65 25 100 65 25 100 65 25 100 65 25 100 65 25 100 65 25 100 65 25 100 65 25 100 65 25 100 65 25 100 65 25 100 65 25 100 65 25 100 65 25 100 65 25 100 65 25 100 65 25 100 65 25 100 65 25 100 65 25 100 65 25 100 65 25 100 65 25 100 65 25 100 65 25 100 65 25 100 65 25 100 65 25 100 65 25 100 65 25 100 65 25 100 65 25 100 65 25 100 65 25 100 65 25 100 65 25 100 65 25 100 65 25 100 65 25 100 65 25 100 65 25 100 65 25 100 65 25 100 65 25 100 65 25 100 65 25 100 65 25 100 65 25 100 65 25 100 65 25 100 65 25 100 65 25 100 65 25 100 65 25 100 65 25 100 65 25 100 65 25 100 65 25 100 65 25 100 65 25 100 65 25 100 65 25 100 65 25 100 65 25 100 65 25 100 65 25 100 65 25 100 65 25 100 65 25 100 65 25 100 65 25 100 65 25 100 65 25 100 65
25 100 65 25 100 65 25 100 65 25 100 65 25 100 65 25 100 65 25 100 65 25 100 65 25 100 65 25 100 65 25 100 65 25 100 65 25 100 65 25 100 65 25 100 65 25 100 65 25 100 65 25 100 65 25 100 65 25 100 65 25 100 65 25 100 65 25 100 65 25 100 65 25 100 65 25 100 65 25 100 65 25 100 65 25 100 65 25 100 65 25 100 65 25 100 65 25 100 65 25 100 65 25 100 65 25 100 65 25 100 65 25 100 65 25 100 65 25 100 65 25 100 65 25 100 65 25 100 65 25 100 65 25 100 65 25 100 65 25 100 65 25 100 65 25 100 65 25 100 65 25 100 65 25 100 65 25 100 65 25 100 65 25 100 65 25 100 65 25 100 65 25 100 65 25 100 65 25 100 65 25 100 65 25 100 65 25 100 65 25 100 65 25 100 65 25 100 65 25 100 65 25 100 65 25 100 65 25 100 65 25 100 65 25 100 65 25 100 65 25 100 65 25 100 65 25 100 65 25 100 65 25 100 65 25 100 65 25 100 65 25 100 65 25 100 65 25 100 65 25 100 65 25 100 65 25 100 65 25 100 65 25 100 65 25 100 65 25 100 65 25 100 65 25 100 65 25 100 65 25 100 65 25 100 65 25 100 65 25 100 65 25 100 65 25 100 65 25 100 65 25 100 65 25 100 65 25 100 65 25 100 65 25 100 65 25 100 65 25 100 65 25 100 65 25 100 65 25 100 65 25 100 65 25 100 65 25 100 65 25 100 65 25 100 65 25 100 65 25 100 65 25 100 65 25 100 65 25 100 65 25 100 65 25 100 65 25 100 65 25 100 65 25 100 65 25 100 65 25 100 65 25 100 65 25 100 65 25 100 65 25 100 65 25 100 65 25 100 65 25 100 65 25 100 65 25 100 65 25 100 65 25 100 65 25 100 65 25 100 65 25 100 65 25 100 65 25 100 65 25 100 65 25 100 65 25 100 65 25 100 65 25 100 65 25 100 65 25 100 65 25 100 65 25 100 65 25 100 65 25 100 65 25 100 65 25 100 65 25 100 65 25 100 65 25 100 65 25 100 65 25 100 65 25 100 65 25 100 65 25 100 65 25 100 65 25 100 65 25 100 65 25 100 65 25 100 65 25 100 65 25 100 65 25 100 65 25 100 65 25 100 65 25 100 65 25 100 65 25 100 65 25 100 65 25 100 65 25 100 65 25 100 65 25 100 65 25 100 65 25 100 65 25 100 65 25 100 65 25 100 65 25 100 65 25 100 65 25 100 65 25 100 65 25 100 65 25 100 65 25 100 65 25 100 65 25 100 65 25 100 65 25 100 65 25 100 65 25 100 65 25 100 65 25 100 65 25 100 65 25 100 65 25 100 65 25 100 65 25 100 65 25 100 65 25 100 65 25 100 65 25 100 65 25 100 65 25 100 65 25 100 65 25 100 65 25 100 65 25 100 65 25 100 65 25 100 65 25 100 65 25 100 65 25 100 65 25 100 65 25 100 65 25 100 65 25 100 65 25 100 65 25 100 65 25 100 65 25 100 65 25 100 65 25 100 65 25 100 65 25 100 65 25 100 65 25 100 65 25 100 65 25 100 65 25 100 65 25 100 65 25 100 65 25 100 65 25 100 65 25 100 65 25 100 65 25 100 65 25 100 65 25 100 65 25 100 65 25 100 65 25 100 65 25 100 65 25 100 65 25 100 65 25 100 65 25 100 65 25 100 65 25 100 65 25 100 65 25 100 65 25 100 65 25 100 65 25 100 65 25 100 65 25 100 65 25 100 65 25 100 65 25 100 65 25 100 65 25 100 65 25 100 65 25 100 65 25 100 65 25 100 65 25 100 65 25 100 65 25 100 65 25 100 65 25 100 65 25 100 65 25 100 65 25 100 65 25 100 65 25 100 65 25 100 65 25 100 65 25 100 65 25 100 65 25 100 65 25 100 65 25 100 65 25 100 65 25 100 65 25 100 65 25 100 65 25 100 65 25 100 65 25 100 65 25 100 65 25 100 65 25 100 65 25 100 65 25 100 65 25 100 65 25 100 65 25 100 65 25 100 65 25 100 65 25 100 65 25 100 65 25 100 65 25 100 65 25 100 65 25 100 65 25 100 65 25 100 65 25 100 65 25 100 65 25 100 65 25 100 65
25 100 65 25 100 65 25 100 65 25 100 65 25 100 65 25 100 65 25 100 65 25 100 65 25 100 65 25 100 65 25 100 65 25 100 65 25 100 65 25 100 65 25 100 65 25 100 65 25 100 65 25 100 65 25 100 65 25 100 65 25 100 65 25 100 65 25 100 65 25 100 65 25 100 65 25 100 65 25 100 65 25 100 65 25 100 65 25 100 65 25 100 65 25 100 65 25 100 65 25 100 65 25 100 65 25 100 65 25 100 65 25 100 65 25 100 65 25 100 65 25 100 65 25 100 65 25 100 65 25 100 65 25 100 65 25 100 65 25 100 65 25 100 65 25 100 65 25 100 65 25 100 65 25 100 65 25 100 65 25 100 65 25 100 65 25 100 65 25 100 65 25 100 65 25 100 65 25 100 65 25 100 65 25 100 65 25 100 65 25 100 65 25 100 65 25 100 65 25 100 65 25 100 65 25 100 65 25 100 65 25 100 65 25 100 65 25 100 65 25 100 65 25 100 65 25 100 65 25 100 65 25 100 65 25 100 65 25 100 65 25 100 65 25 100 65 25 100 65 25 100 65 25 100 65 25 100 65 25 100 65 25 100 65 25 100 65 25 100 65 25 100 65 25 100 65 25 100 65 25 100 65 25 100 65 25 100 65 25 100 65 25 100 65 25 100 65 25 100 65 25 100 65 25 100 65 25 100 65 25 100 65 25 100 65 25 100 65 25 100 65 25 100 65 25 100 65 25 100 65 25 100 65 25 100 65 25 100 65 25 100 65 25 100 65 25 100 65 25 100 65 25 100 65 25 100 65 25 100 65 25 100 65 25 100 65 25 100 65 25 100 65 25 100 65 25 100 65 25 100 65 25 100 65 25 100 65 25 100 65 25 100 65 25 100 65 25 100 65 25 100 65 25 100 65 25 100 65 25 100 65 25 100 65 25 100 65 25 100 65 25 100 65 25 100 65 25 100 65 25 100 65 25 100 65 25 100 65 25 100 65 25 100 65 25 100 65 25 100 65 25 100 65 25 100 65 25 100 65 25 100 65 25 100 65 25 100 65 25 100 65 25 100 65 25 100 65 25 100 65 25 100 65 25 100 65 25 100 65 25 100 65 25 100 65 25 100 65 25 100 65 25 100 65 25 100 65 25 100 65 25 100 65 25 100 65 25 100 65 25 100 65 25 100 65 25 100 65 25 100 65 25 100 65 25 100 65 25 100 65 25 100 65 25 100 65 25 100 65 25 100 65 25 100 65 25 100 65 25 100 65 25 100 65 25 100 65 25 100 65 25 100 65 25 100 65 25 100 65 25 100 65 25 100 65 25 100 65 25 100 65 25 100 65 25 100 65 25 100 65 25 100 65 25 100 65 25 100 65 25 100 65 25 100 65 25 100 65 25 100 65 25 100 65 25 100 65 25 100 65 25 100 65 25 100 65 25 100 65 25 100 65 25 100 65 25 100 65 25 100 65 25 100 65 25 100 65 25 100 65 25 100 65 25 100 65 25 100 65 25 100 65 25 100 65 25 100 65 25 100 65 25 100 65 25 100 65 25 100 65 25 100 65 25 100 65 25 100 65 25 100 65 25 100 65 25 100 65 25 100 65 25 100 65 25 100 65 25 100 65 25 100 65 25 100 65 25 100 65 25 100 65 25 100 65 25 100 65 25 100 65 25 100 65 25 100 65 25 100 65 25 100 65 25 100 65 25 100 65 25 100 65 25 100 65 25 100 65 25 100 65 25 100 65 25 100 65 25 100 65 25 100 65 25 100 65 25 100 65 25 100 65 25 100 65 25 100 65 25 100 65 25 100 65 25 100 65 25 100 65 25 100 65 25 100 65 25 100 65 25 100 65 25 100 65 25 100 65 25 100 65 25 100 65 25 100 65 25 100 65 25 100 65 25 100 65 25 100 65 25 100 65 25 100 65 25 100 65 25 100 65 25 100 65 25 100 65 25 100 65 25 100 65 25 100 65 25 100 65 25 100 65 25 100 65 25 100 65 25 100 65 25 100 65 25 100 65 25 100 65 25 100 65 25 100 65 25 100 65 25 100 65 25 100 65 25 100 65 25 100 65 25 100 65 25 100 65 25 100 65 25 100 65 25 100 65 25 100 65 25 100 65 25 100 65 25 100 65 25 100 65 25 100 65 25 100 65 25 100 65
25 100 65 25 100 65 25 100 65 25 100 65 25 100 65 25 100 65 25 100 65 25 100 65 25 100 65 25 100 65 25 100 65 25 100 65 25 100 65 25 100 65 25 100 65 25 100 65 25 100 65 25 100 65 25 100 65 25 100 65 25 100 65 25 100 65 25 100 65 25 100 65 25 100 65 25 100 65 25 100 65 25 100 65 25 100 65 25 100 65 25 100 65 25 100 65 25 100 65 25 100 65 25 100 65 25 100 65 25 100 65 25 100 65 25 100 65 25 100 65 25 100 65 25 100 65 25 100 65 25 100 65 25 100 65 25 100 65 25 100 65 25 100 65 25 100 65 25 100 65 25 100 65 25 100 65 25 100 65 25 100 65 25 100 65 25 100 65 25 100 65 25 100 65 25 100 65 25 100 65 25 100 65 25 100 65 25 100 65 25 100 65 25 100 65 25 100 65 25 100 65 25 100 65 25 100 65 25 100 65 25 100 65 25 100 65 25 100 65 25 100 65 25 100 65 25 100 65 25 100 65 25 100 65 25 100 65 25 100 65 25 100 65 25 100 65 25 100 65 25 100 65 25 100 65 25 100 65 25 100 65 25 100 65 25 100 65 25 100 65 25 100 65 25 100 65 25 100 65 25 100 65 25 100 65 25 100 65 25 100 65 25 100 65 25 100 65 25 100 65 25 100 65 25 100 65 25 100 65 25 100 65 25 100 65 25 100 65 25 100 65 25 100 65 25 100 65 25 100 65 25 100 65 25 100 65 25 100 65 25 100 65 25 100 65 25 100 65 25 100 65 25 100 65 25 100 65 25 100 65 25 100 65 25 100 65 25 100 65 25 100 65 25 100 65 25 100 65 25 100 65 25 100 65 25 100 65 25 100 65 25 100 65 25 100 65 25 100 65 25 100 65 25 100 65 25 100 65 25 100 65 25 100 65 25 100 65 25 100 65 25 100 65 25 100 65 25 100 65 25 100 65 25 100 65 25 100 65 25 100 65 25 100 65 25 100 65 25 100 65 25 100 65 25 100 65 25 100 65 25 100 65 25 100 65 25 100 65 25 100 65 25 100 65 25 100 65 25 100 65 25 100 65 25 100 65 25 100 65 25 100 65 25 100 65 25 100 65 25 100 65 25 100 65 25 100 65 25 100 65 25 100 65 25 100 65 25 100 65 25 100 65 25 100 65 25 100 65 25 100 65 25 100 65 25 100 65 25 100 65 25 100 65 25 100 65 25 100 65 25 100 65 25 100 65 25 100 65 25 100 65 25 100 65 25 100 65 25 100 65 25 100 65 25 100 65 25 100 65 25 100 65 25 100 65 25 100 65 25 100 65 25 100 65 25 100 65 25 100 65 25 100 65 25 100 65 25 100 65 25 100 65 25 100 65 25 100 65 25 100 65 25 100 65 25 100 65 25 100 65 25 100 65 25 100 65 25 100 65 25 100 65 25 100 65 25 100 65 25 100 65 25 100 65 25 100 65 25 100 65 25 100 65 25 100 65 25 100 65 25 100 65 25 100 65 25 100 65 25 100 65 25 100 65 25 100 65 25 100 65 25 100 65 25 100 65 25 100 65 25 100 65 25 100 65 25 100 65 25 100 65 25 100 65 25 100 65 25 100 65 25 100 65 25 100 65 25 100 65 25 100 65 25 100 65 25 100 65 25 100 65 25 100 65 25 100 65 25 100 65 25 100 65 25 100 65 25 100 65 25 100 65 25 100 65 25 100 65 25 100 65 25 100 65 25 100 65 25 100 65 25 100 65 25 100 65 25 100 65 25 100 65 25 100 65 25 100 65 25 100 65 25 100 65 25 100 65 25 100 65 25 100 65 25 100 65 25 100 65 25 100 65 25 100 65 25 100 65 25 100 65 25 100 65 25 100 65 25 100 65 25 100 65 25 100 65 25 100 65 25 100 65 25 100 65 25 100 65 25 100 65 25 100 65 25 100 65 25 100 65 25 100 65 25 100 65 25 100 65 25 100 65 25 100 65 25 100 65 25 100 65 25 100 65 25 100 65 25 100 65 25 100 65 25 100 65 25 100 65 25 100 65 25 100 65 25 100 65 25 100 65 25 100 65 25 100 65 25 100 65 25 100 65 25 100 65 25 100 65 25 100 65 25 100 65 25 100 65 25 100 65 25 100 65 25 100 65 25 100 65
25 100 65 25 100 65 25 100 65 25 100 65 25 100 65 25 100 65 25 100 65 25 100 65 25 100 65 25 100 65 25 100 65 25 100 65 25 100 65 25 100 65 25 100 65 25 100 65 25 100 65 25 100 65 25 100 65 25 100 65 25 100 65 25 100 65 25 100 65 25 100 65 25 100 65 25 100 65 25 100 65 25 100 65 25 100 65 25 100 65 25 100 65 25 100 65 25 100 65 25 100 65 25 100 65 25 100 65 25 100 65 25 100 65 25 100 65 25 100 65 25 100 65 25 100 65 25 100 65 25 100 65 25 100 65 25 100 65 25 100 65 25 100 65 25 100 65 25 100 65 25 100 65 25 100 65 25 100 65 25 100 65 25 100 65 25 100 65 25 100 65 25 100 65 25 100 65 25 100 65 25 100 65 25 100 65 25 100 65 25 100 65 25 100 65 25 100 65 25 100 65 25 100 65 25 100 65 25 100 65 25 100 65 25 100 65 25 100 65 25 100 65 25 100 65 25 100 65 25 100 65 25 100 65 25 100 65 25 100 65 25 100 65 25 100 65 25 100 65 25 100 65 25 100 65 25 100 65 25 100 65 25 100 65 25 100 65 25 100 65 25 100 65 25 100 65 25 100 65 25 100 65 25 100 65 25 100 65 25 100 65 25 100 65 25 100 65 25 100 65 25 100 65 25 100 65 25 100 65 25 100 65 25 100 65 25 100 65 25 100 65 25 100 65 25 100 65 25 100 65 25 100 65 25 100 65 25 100 65 25 100 65 25 100 65 25 100 65 25 100 65 25 100 65 25 100 65 25 100 65 25 100 65 25 100 65 25 100 65 25 100 65 25 100 65 25 100 65 25 100 65 25 100 65 25 100 65 25 100 65 25 100 65 25 100 65 25 100 65 25 100 65 25 100 65 25 100 65 25 100 65 25 100 65 25 100 65 25 100 65 25 100 65 25 100 65 25 100 65 25 100 65 25 100 65 25 100 65 25 100 65 25 100 65 25 100 65 25 100 65 25 100 65 25 100 65 25 100 65 25 100 65 25 100 65 25 100 65 25 100 65 25 100 65 25 100 65 25 100 65 25 100 65 25 100 65 25 100 65 25 100 65 25 100 65 25 100 65 25 100 65 25 100 65 25 100 65 25 100 65 25 100 65 25 100 65 25 100 65 25 100 65 25 100 65 25 100 65 25 100 65 25 100 65 25 100 65 25 100 65 25 100 65 25 100 65 25 100 65 25 100 65 25 100 65 25 100 65 25 100 65 25 100 65 25 100 65 25 100 65 25 100 65 25 100 65 25 100 65 25 100 65 25 100 65 25 100 65 25 100 65 25 100 65 25 100 65 25 100 65 25 100 65 25 100 65 25 100 65 25 100 65 25 100 65 25 100 65 25 100 65 25 100 65 25 100 65 25 100 65 25 100 65 25 100 65 25 100 65 25 100 65 25 100 65 25 100 65 25 100 65 25 100 65 25 100 65 25 100 65 25 100 65 25 100 65 25 100 65 25 100 65 25 100 65 25 100 65 25 100 65 25 100 65 25 100 65 25 100 65 25 100 65 25 100 65 25 100 65 25 100 65 25 100 65 25 100 65 25 100 65 25 100 65 25 100 65 25 100 65 25 100 65 25 100 65 25 100 65 25 100 65 25 100 65 25 100 65 25 100 65 25 100 65 25 100 65 25 100 65 25 100 65 25 100 65 25 100 65 25 100 65 25 100 65 25 100 65 25 100 65 25 100 65 25 100 65 25 100 65 25 100 65 25 100 65 25 100 65 25 100 65 25 100 65 25 100 65 25 100 65 25 100 65 25 100 65 25 100 65 25 100 65 25 100 65 25 100 65 25 100 65 25 100 65 25 100 65 25 100 65 25 100 65 25 100 65 25 100 65 25 100 65 25 100 65 25 100 65 25 100 65 25 100 65 25 100 65 25 100 65 25 100 65 25 100 65 25 100 65 25 100 65 25 100 65 25 100 65 25 100 65 25 100 65 25 100 65 25 100 65 25 100 65 25 100 65 25 100 65 25 100 65 25 100 65 25 100 65 25 100 65 25 100 65 25 100 65 25 100 65 25 100 65 25 100 65 25 100 65 25 100 65 25 100 65 25 100 65 25 100 65 25 100 65 25 100 65 25 100 65 25 100 65 25 100 65 25 100 65
25 100 65 25 100 65 25 100 65 25 100 65 25 100 65 25 100 65 25 100 65 25 100 65 25 100 65 25 100 65 25 100 65 25 100 65 25 100 65 25 100 65 25 100 65 25 100 65 25 100 65 25 100 65 25 100 65 25 100 65 25 100 65 25 100 65 25 100 65 25 100 65 25 100 65 25 100 65 25 100 65 25 100 65 25 100 65 25 100 65 25 100 65 25 100 65 25 100 65 25 100 65 25 100 65 25 100 65 25 100 65 25 100 65 25 100 65 25 100 65 25 100 65 25 100 65 25 100 65 25 100 65 25 100 65 25 100 65 25 100 65 25 100 65 25 100 65 25 100 65 25 100 65 25 100 65 25 100 65 25 100 65 25 100 65 25 100 65 25 100 65 25 100 65 25 100 65 25 100 65 25 100 65 25 100 65 25 100 65 25 100 65 25 100 65 25 100 65 25 100 65 25 100 65 25 100 65 25 100 65 25 100 65 25 100 65 25 100 65 25 100 65 25 100 65 25 100 65 25 100 65 25 100 65 25 100 65 25 100 65 25 100 65 25 100 65 25 100 65 25 100 65 25 100 65 25 100 65 25 100 65 25 100 65 25 100 65 25 100 65 25 100 65 25 100 65 25 100 65 25 100 65 25 100 65 25 100 65 25 100 65 25 100 65 25 100 65 25 100 65 25 100 65 25 100 65 25 100 65 25 100 65 25 100 65 25 100 65 25 100 65 25 100 65 25 100 65 25 100 65 25 100 65 25 100 65 25 100 65 25 100 65 25 100 65 25 100 65 25 100 65 25 100 65 25 100 65 25 100 65 25 100 65 25 100 65 25 100 65 25 100 65 25 100 65 25 100 65 25 100 65 25 100 65 25 100 65 25 100 65 25 100 65 25 100 65 25 100 65 25 100 65 25 100 65 25 100 65 25 100 65 25 100 65 25 100 65 25 100 65 25 100 65 25 100 65 25 100 65 25 100 65 25 100 65 25 100 65 25 100 65 25 100 65 25 100 65 25 100 65 25 100 65 25 100 65 25 100 65 25 100 65 25 100 65 25 100 65 25 100 65 25 100 65 25 100 65 25 100 65 25 100 65 25 100 65 25 100 65 25 100 65 25 100 65 25 100 65 25 100 65 25 100 65 25 100 65 25 100 65 25 100 65 25 100 65 25 100 65 25 100 65 25 100 65 25 100 65 25 100 65 25 100 65 25 100 65 25 100 65 25 100 65 25 100 65 25 100 65 25 100 65 25 100 65 25 100 65 25 100 65 25 100 65 25 100 65 25 100 65 25 100 65 25 100 65 25 100 65 25 100 65 25 100 65 25 100 65 25 100 65 25 100 65 25 100 65 25 100 65 25 100 65 25 100 65 25 100 65 25 100 65 25 100 65 25 100 65 25 100 65 25 100 65 25 100 65 25 100 65 25 100 65 25 100 65 25 100 65 25 100 65 25 100 65 25 100 65 25 100 65 25 100 65 25 100 65 25 100 65 25 100 65 25 100 65 25 100 65 25 100 65 25 100 65 25 100 65 25 100 65 25 100 65 25 100 65 25 100 65 25 100 65 25 100 65 25 100 65 25 100 65 25 100 65 25 100 65 25 100 65 25 100 65 25 100 65 25 100 65 25 100 65 25 100 65 25 100 65 25 100 65 25 100 65 25 100 65 25 100 65 25 100 65 25 100 65 25 100 65 25 100 65 25 100 65 25 100 65 25 100 65 25 100 65 25 100 65 25 100 65 25 100 65 25 100 65 25 100 65 25 100 65 25 100 65 25 100 65 25 100 65 25 100 65 25 100 65 25 100 65 25 100 65 25 100 65 25 100 65 25 100 65 25 100 65 25 100 65 25 100 65 25 100 65 25 100 65 25 100 65 25 100 65 25 100 65 25 100 65 25 100 65 25 100 65 25 100 65 25 100 65 25 100 65 25 100 65 25 100 65 25 100 65 25 100 65 25 100 65 25 100 65 25 100 65 25 100 65 25 100 65 25 100 65 25 100 65 25 100 65 25 100 65 25 100 65 25 100 65 25 100 65 25 100 65 25 100 65 25 100 65 25 100 65 25 100 65 25 100 65 25 100 65 25 100 65 25 100 65 25 100 65 25 100 65 25 100 65 25 100 65 25 100 65 25 100 65 25 100 65 25 100 65 25 100 65 25 100 65
25 100 65 25 100 65 25 100 65 25 100 65 25 100 65 25 100 65 25 100 65 25 100 65 25 100 65 25 100 65 25 100 65 25 100 65 25 100 65 25 100 65 25 100 65 25 100 65 25 100 65 25 100 65 25 100 65 25 100 65 25 100 65 25 100 65 25 100 65 25 100 65 25 100 65 25 100 65 25 100 65 25 100 65 25 100 65 25 100 65 25 100 65 25 100 65 25 100 65 25 100 65 25 100 65 25 100 65 25 100 65 25 100 65 25 100 65 25 100 65 25 100 65 25 100 65 25 100 65 25 100 65 25 100 65 25 100 65 25 100 65 25 100 65 25 100 65 25 100 65 25 100 65 25 100 65 25 100 65 25 100 65 25 100 65 25 100 65 25 100 65 25 100 65 25 100 65 25 100 65 25 100 65 25 100 65 25 100 65 25 100 65 25 100 65 25 100 65 25 100 65 25 100 65 25 100 65 25 100 65 25 100 65 25 100 65 25 100 65 25 100 65 25 100 65 25 100 65 25 100 65 25 100 65 25 100 65 25 100 65 25 100 65 25 100 65 25 100 65 25 100 65 25 100 65 25 100 65 25 100 65 25 100 65 25 100 65 25 100 65 25 100 65 25 100 65 25 100 65 25 100 65 25 100 65 25 100 65 25 100 65 25 100 65 25 100 65 25 100 65 25 100 65 25 100 65 25 100 65 25 100 65 25 100 65 25 100 65 25 100 65 25 100 65 25 100 65 25 100 65 25 100 65 25 100 65 25 100 65 25 100 65 25 100 65 25 100 65 25 100 65 25 100 65 25 100 65 25 100 65 25 100 65 25 100 65 25 100 65 25 100 65 25 100 65 25 100 65 25 100 65 25 100 65 25 100 65 25 100 65 25 100 65 25 100 65 25 100 65 25 100 65 25 100 65 25 100 65 25 100 65 25 100 65 25 100 65 25 100 65 25 100 65 25 100 65 25 100 65 25 100 65 25 100 65 25 100 65 25 100 65 25 100 65 25 100 65 25 100 65 25 100 65 25 100 65 25 100 65 25 100 65 25 100 65 25 100 65 25 100 65 25 100 65 25 100 65 25 100 65 25 100 65 25 100 65 25 100 65 25 100 65 25 100 65 25 100 65 25 100 65 25 100 65 25 100 65 25 100 65 25 100 65 25 100 65 25 100 65 25 100 65 25 100 65 25 100 65 25 100 65 25 100 65 25 100 65 25 100 65 25 100 65 25 100 65 25 100 65 25 100 65 25 100 65 25 100 65 25 100 65 25 100 65 25 100 65 25 100 65 25 100 65 25 100 65 25 100 65 25 100 65 25 100 65 25 100 65 25 100 65 25 100 65 25 100 65 25 100 65 25 100 65 25 100 65 25 100 65 25 100 65 25 100 65 25 100 65 25 100 65 25 100 65 25 100 65 25 100 65 25 100 65 25 100 65 25 100 65 25 100 65 25 100 65 25 100 65 25 100 65 25 100 65 25 100 65 25 100 65 25 100 65 25 100 65 25 100 65 25 100 65 25 100 65 25 100 65 25 100 65 25 100 65 25 100 65 25 100 65 25 100 65 25 100 65 25 100 65 25 100 65 25 100 65 25 100 65 25 100 65 25 100 65 25 100 65 25 100 65 25 100 65 25 100 65 25 100 65 25 100 65 25 100 65 25 100 65 25 100 65 25 100 65 25 100 65 25 100 65 25 100 65 25 100 65 25 100 65 25 100 65 25 100 65 25 100 65 25 100 65 25 100 65 25 100 65 25 100 65 25 100 65 25 100 65 25 100 65 25 100 65 25 100 65 25 100 65 25 100 65 25 100 65 25 100 65 25 100 65 25 100 65 25 100 65 25 100 65 25 100 65 25 100 65 25 100 65 25 100 65 25 100 65 25 100 65 25 100 65 25 100 65 25 100 65 25 100 65 25 100 65 25 100 65 25 100 65 25 100 65 25 100 65 25 100 65 25 100 65 25 100 65 25 100 65 25 100 65 25 100 65 25 100 65 25 100 65 25 100 65 25 100 65 25 100 65 25 100 65 25 100 65 25 100 65 25 100 65 25 100 65 25 100 65 25 100 65 25 100 65 25 100 65 25 100 65 25 100 65 25 100 65 25 100 65 25 100 65 25 100 65 25 100 65 25 100 65 25 100 65 25 100 65 25 100 65 25 100 65
25 100 65 25 100 65 25 100 65 25 100 65 25 100 65 25 100 65 25 100 65 25 100 65 25 100 65 25 100 65 25 100 65 25 100 65 25 100 65 25 100 65 25 100 65 25 100 65 25 100 65 25 100 65 25 100 65 25 100 65 25 100 65 25 100 65 25 100 65 25 100 65 25 100 65 25 100 65 25 100 65 25 100 65 25 100 65 25 100 65 25 100 65 25 100 65 25 100 65 25 100 65 25 100 65 25 100 65 25 100 65 25 100 65 25 100 65 25 100 65 25 100 65 25 100 65 25 100 65 25 100 65 25 100 65 25 100 65 25 100 65 25 100 65 25 100 65 25 100 65 25 100 65 25 100 65 25 100 65 25 100 65 25 100 65 25 100 65 25 100 65 25 100 65 25 100 65 25 100 65 25 100 65 25 100 65 25 100 65 25 100 65 25 100 65 25 100 65 25 100 65 25 100 65 25 100 65 25 100 65 25 100 65 25 100 65 25 100 65 25 100 65 25 100 65 25 100 65 25 100 65 25 100 65 25 100 65 25 100 65 25 100 65 25 100 65 25 100 65 25 100 65 25 100 65 25 100 65 25 100 65 25 100 65 25 100 65 25 100 65 25 100 65 25 100 65 25 100 65 25 100 65 25 100 65 25 100 65 25 100 65 25 100 65 25 100 65 25 100 65 25 100 65 25 100 65 25 100 65 25 100 65 25 100 65 25 100 65 25 100 65 25 100 65 25 100 65 25 100 65 25 100 65 25 100 65 25 100 65 25 100 65 25 100 65 25 100 65 25 100 65 25 100 65 25 100 65 25 100 65 25 100 65 25 100 65 25 100 65 25 100 65 25 100 65 25 100 65 25 100 65 25 100 65 25 100 65 25 100 65 25 100 65 25 100 65 25 100 65 25 100 65 25 100 65 25 100 65 25 100 65 25 100 65 25 100 65 25 100 65 25 100 65 25 100 65 25 100 65 25 100 65 25 100 65 25 100 65 25 100 65 25 100 65 25 100 65 25 100 65 25 100 65 25 100 65 25 100 65 25 100 65 25 100 65 25 100 65 25 100 65 25 100 65 25 100 65 25 100 65 25 100 65 25 100 65 25 100 65 25 100 65 25 100 65 25 100 65 25 100 65 25 100 65 25 100 65 25 100 65 25 100 65 25 100 65 25 100 65 25 100 65 25 100 65 25 100 65 25 100 65 25 100 65 25 100 65 25 100 65 25 100 65 25 100 65 25 100 65 25 100 65 25 100 65 25 100 65 25 100 65 25 100 65 25 100 65 25 100 65 25 100 65 25 100 65 25 100 65 25 100 65 25 100 65 25 100 65 25 100 65 25 100 65 25 100 65 25 100 65 25 100 65 25 100 65 25 100 65 25 100 65 25 100 65 25 100 65 25 100 65 25 100 65 25 100 65 25 100 65 25 100 65 25 100 65 25 100 65 25 100 65 25 100 65 25 100 65 25 100 65 25 100 65 25 100 65 25 100 65 25 100 65 25 100 65 25 100 65 25 100 65 25 100 65 25 100 65 25 100 65 25 100 65 25 100 65 25 100 65 25 100 65 25 100 65 25 100 65 25 100 65 25 100 65 25 100 65 25 100 65 25 100 65 25 100 65 25 100 65 25 100 65 25 100 65 25 100 65 25 100 65 25 100 65 25 100 65 25 100 65 25 100 65 25 100 65 25 100 65 25 100 65 25 100 65 25 100 65 25 100 65 25 100 65 25 100 65 25 100 65 25 100 65 25 100 65 25 100 65 25 100 65 25 100 65 25 100 65 25 100 65 25 100 65 25 100 65 25 100 65 25 100 65 25 100 65 25 100 65 25 100 65 25 100 65 25 100 65 25 100 65 25 100 65 25 100 65 25 100 65 25 100 65 25 100 65 25 100 65 25 100 65 25 100 65 25 100 65 25 100 65 25 100 65 25 100 65 25 100 65 25 100 65 25 100 65 25 100 65 25 100 65 25 100 65 25 100 65 25 100 65 25 100 65 25 100 65 25 100 65 25 100 65 25 100 65 25 100 65 25 100 65 25 100 65 25 100 65 25 100 65 25 100 65 25 100 65 25 100 65 25 100 65 25 100 65 25 100 65 25 100 65 25 100 65 25 100 65 25 100 65 25 100 65 25 100 65 25 100 65 25 100 65 25 100 65 25 100 65
25 100 65 25 100 65 25 100 65 25 100 65 25 100 65 25 100 65 25 100 65 25 100 65 25 100 65 25 100 65 25 100 65 25 100 65 25 100 65 25 100 65 25 100 65 25 100 65 25 100 65 25 100 65 25 100 65 25 100 65 25 100 65 25 100 65 25 100 65 25 100 65 25 100 65 25 100 65 25 100 65 25 100 65 25 100 65 25 100 65 25 100 65 25 100 65 25 100 65 25 100 65 25 100 65 25 100 65 25 100 65 25 100 65 25 100 65 25 100 65 25 100 65 25 100 65 25 100 65 25 100 65 25 100 65 25 100 65 25 100 65 25 100 65 25 100 65 25 100 65 25 100 65 25 100 65 25 100 65 25 100 65 25 100 65 25 100 65 25 100 65 25 100 65 25 100 65 25 100 65 25 100 65 25 100 65 25 100 65 25 100 65 25 100 65 25 100 65 25 100 65 25 100 65 25 100 65 25 100 65 25 100 65 25 100 65 25 100 65 25 100 65 25 100 65 25 100 65 25 100 65 25 100 65 25 100 65 25 100 65 25 100 65 25 100 65 25 100 65 25 100 65 25 100 65 25 100 65 25 100 65 25 100 65 25 100 65 25 100 65 25 100 65 25 100 65 25 100 65 25 100 65 25 100 65 25 100 65 25 100 65 25 100 65 25 100 65 25 100 65 25 100 65 25 100 65 25 100 65 25 100 65 25 100 65 25 100 65 25 100 65 25 100 65 25 100 65 25 100 65 25 100 65 25 100 65 25 100 65 25 100 65 25 100 65 25 100 65 25 100 65 25 100 65 25 100 65 25 100 65 25 100 65 25 100 65 25 100 65 25 100 65 25 100 65 25 100 65 25 100 65 25 100 65 25 100 65 25 100 65 25 100 65 25 100 65 25 100 65 25 100 65 25 100 65 25 100 65 25 100 65 25 100 65 25 100 65 25 100 65 25 100 65 25 100 65 25 100 65 25 100 65 25 100 65 25 100 65 25 100 65 25 100 65 25 100 65 25 100 65 25 100 65 25 100 65 25 100 65 25 100 65 25 100 65 25 100 65 25 100 65 25 100 65 25 100 65 25 100 65 25 100 65 25 100 65 25 100 65 25 100 65 25 100 65 25 100 65 25 100 65 25 100 65 25 100 65 25 100 65 25 100 65 25 100 65 25 100 65 25 100 65 25 100 65 25 100 65 25 100 65 25 100 65 25 100 65 25 100 65 25 100 65 25 100 65 25 100 65 25 100 65 25 100 65 25 100 65 25 100 65 25 100 65 25 100 65 25 100 65 25 100 65 25 100 65 25 100 65 25 100 65 25 100 65 25 100 65 25 100 65 25 100 65 25 100 65 25 100 65 25 100 65 25 100 65 25 100 65 25 100 65 25 100 65 25 100 65 25 100 65 25 100 65 25 100 65 25 100 65 25 100 65 25 100 65 25 100 65 25 100 65 25 100 65 25 100 65 25 100 65 25 100 65 25 100 65 25 100 65 25 100 65 25 100 65 25 100 65 25 100 65 25 100 65 25 100 65 25 100 65 25 100 65 25 100 65 25 100 65 25 100 65 25 100 65 25 100 65 25 100 65 25 100 65 25 100 65 25 100 65 25 100 65 25 100 65 25 100 65 25 100 65 25 100 65 25 100 65 25 100 65 25 100 65 25 100 65 25 100 65 25 100 65 25 100 65 25 100 65 25 100 65 25 100 65 25 100 65 25 100 65 25 100 65 25 100 65 25 100 65 25 100 65 25 100 65 25 100 65 25 100 65 25 100 65 25 100 65 25 100 65 25 100 65 25 100 65 25 100 65 25 100 65 25 100 65 25 100 65 25 100 65 25 100 65 25 100 65 25 100 65 25 100 65 25 100 65 25 100 65 25 100 65 25 100 65 25 100 65 25 100 65 25 100 65 25 100 65 25 100 65 25 100 65 25 100 65 25 100 65 25 100 65 25 100 65 25 100 65 25 100 65 25 100 65 25 100 65 25 100 65 25 100 65 25 100 65 25 100 65 25 100 65 25 100 65 25 100 65 25 100 65 25 100 65 25 100 65 25 100 65 25 100 65 25 100 65 25 100 65 25 100 65 25 100 65 25 100 65 25 100 65 25 100 65 25 100 65 25 100 65 25 100 65 25 100 65 25 100 65 25 100 65 25 100 65 25 100 65
25 100 65 25 100 65 25 100 65 25 100 65 25 100 65 25 100 65 25 100 65 25 100 65 25 100 65 25 100 65 25 100 65 25 100 65 25 100 65 25 100 65 25 100 65 25 100 65 25 100 65 25 100 65 25 100 65 25 100 65 25 100 65 25 100 65 25 100 65 25 100 65 25 100 65 25 100 65 25 100 65 25 100 65 25 100 65 25 100 65 25 100 65 25 100 65 25 100 65 25 100 65 25 100 65 25 100 65 25 100 65 25 100 65 25 100 65 25 100 65 25 100 65 25 100 65 25 100 65 25 100 65 25 100 65 25 100 65 25 100 65 25 100 65 25 100 65 25 100 65 25 100 65 25 100 65 25 100 65 25 100 65 25 100 65 25 100 65 25 100 65 25 100 65 25 100 65 25 100 65 25 100 65 25 100 65 25 100 65 25 100 65 25 100 65 25 100 65 25 100 65 25 100 65 25 100 65 25 100 65 25 100 65 25 100 65 25 100 65 25 100 65 25 100 65 25 100 65 25 100 65 25 100 65 25 100 65 25 100 65 25 100 65 25 100 65 25 100 65 25 100 65 25 100 65 25 100 65 25 100 65 25 100 65 25 100 65 25 100 65 25 100 65 25 100 65 25 100 65 25 100 65 25 100 65 25 100 65 25 100 65 25 100 65 25 100 65 25 100 65 25 100 65 25 100 65 25 100 65 25 100 65 25 100 65 25 100 65 25 100 65 25 100 65 25 100 65 25 100 65 25 100 65 25 100 65 25 100 65 25 100 65 25 100 65 25 100 65 25 100 65 25 100 65 25 100 65 25 100 65 25 100 65 25 100 65 25 100 65 25 100 65 25 100 65 25 100 65 25 100 65 25 100 65 25 100 65 25 100 65 25 100 65 25 100 65 25 100 65 25 100 65 25 100 65 25 100 65 25 100 65 25 100 65 25 100 65 25 100 65 25 100 65 25 100 65 25 100 65 25 100 65 25 100 65 25 100 65 25 100 65 25 100 65 25 100 65 25 100 65 25 100 65 25 100 65 25 100 65 25 100 65 25 100 65 25 100 65 25 100 65 25 100 65 25 100 65 25 100 65 25 100 65 25 100 65 25 100 65 25 100 65 25 100 65 25 100 65 25 100 65 25 100 65 25 100 65 25 100 65 25 100 65 25 100 65 25 100 65 25 100 65 25 100 65 25 100 65 25 100 65 25 100 65 25 100 65 25 100 65 25 100 65 25 100 65 25 100 65 25 100 65 25 100 65 25 100 65 25 100 65 25 100 65 25 100 65 25 100 65 25 100 65 25 100 65 25 100 65 25 100 65 25 100 65 25 100 65 25 100 65 25 100 65 25 100 65 25 100 65 25 100 65 25 100 65 25 100 65 25 100 65 25 100 65 25 100 65 25 100 65 25 100 65 25 100 65 25 100 65 25 100 65 25 100 65 25 100 65 25 100 65 25 100 65 25 100 65 25 100 65 25 100 65 25 100 65 25 100 65 25 100 65 25 100 65 25 100 65 25 100 65 25 100 65 25 100 65 25 100 65 25 100 65 25 100 65 25 100 65 25 100 65 25 100 65 25 100 65 25 100 65 25 100 65 25 100 65 25 100 65 25 100 65 25 100 65 25 100 65 25 100 65 25 100 65 25 100 65 25 100 65 25 100 65 25 100 65 25 100 65 25 100 65 25 100 65 25 100 65 25 100 65 25 100 65 25 100 65 25 100 65 25 100 65 25 100 65 25 100 65 25 100 65 25 100 65 25 100 65 25 100 65 25 100 65 25 100 65 25 100 65 25 100 65 25 100 65 25 100 65 25 100 65 25 100 65 25 100 65 25 100 65 25 100 65 25 100 65 25 100 65 25 100 65 25 100 65 25 100 65 25 100 65 25 100 65 25 100 65 25 100 65 25 100 65 25 100 65 25 100 65 25 100 65 25 100 65 25 100 65 25 100 65 25 100 65 25 100 65 25 100 65 25 100 65 25 100 65 25 100 65 25 100 65 25 100 65 25 100 65 25 100 65 25 100 65 25 100 65 25 100 65 25 100 65 25 100 65 25 100 65 25 100 65 25 100 65 25 100 65 25 100 65 25 100 65 25 100 65 25 100 65 25 100 65 25 100 65 25 100 65 25 100 65 25 100 65 25 100 65 25 100 65 25 100 65 25 100 65
25 100 65 25 100 65 25 100 65 25 100 65 25 100 65 25 100 65 25 100 65 25 100 65 25 100 65 25 100 65 25 100 65 25 100 65 25 100 65 25 100 65 25 100 65 25 100 65 25 100 65 25 100 65 25 100 65 25 100 65 25 100 65 25 100 65 25 100 65 25 100 65 25 100 65 25 100 65 25 100 65 25 100 65 25 100 65 25 100 65 25 100 65 25 100 65 25 100 65 25 100 65 25 100 65 25 100 65 25 100 65 25 100 65 25 100 65 25 100 65 25 100 65 25 100 65 25 100 65 25 100 65 25 100 65 25 100 65 25 100 65 25 100 65 25 100 65 25 100 65 25 100 65 25 100 65 25 100 65 25 100 65 25 100 65 25 100 65 25 100 65 25 100 65 25 100 65 25 100 65 25 100 65 25 100 65 25 100 65 25 100 65 25 100 65 25 100 65 25 100 65 25 100 65 25 100 65 25 100 65 25 100 65 25 100 65 25 100 65 25 100 65 25 100 65 25 100 65 25 100 65 25 100 65 25 100 65 25 100 65 25 100 65 25 100 65 25 100 65 25 100 65 25 100 65 25 100 65 25 100 65 25 100 65 25 100 65 25 100 65 25 100 65 25 100 65 25 100 65 25 100 65 25 100 65 25 100 65 25 100 65 25 100 65 25 100 65 25 100 65 25 100 65 25 100 65 25 100 65 25 100 65 25 100 65 25 100 65 25 100 65 25 100 65 25 100 65 25 100 65 25 100 65 25 100 65 25 100 65 25 100 65 25 100 65 25 100 65 25 100 65 25 100 65 25 100 65 25 100 65 25 100 65 25 100 65 25 100 65 25 100 65 25 100 65 25 100 65 25 100 65 25 100 65 25 100 65 25 100 65 25 100 65 25 100 65 25 100 65 25 100 65 25 100 65 25 100 65 25 100 65 25 100 65 25 100 65 25 100 65 25 100 65 25 100 65 25 100 65 25 100 65 25 100 65 25 100 65 25 100 65 25 100 65 25 100 65 25 100 65 25 100 65 25 100 65 25 100 65 25 100 65 25 100 65 25 100 65 25 100 65 25 100 65 25 100 65 25 100 65 25 100 65 25 100 65 25 100 65 25 100 65 25 100 65 25 100 65 25 100 65 25 100 65 25 100 65 25 100 65 25 100 65 25 100 65 25 100 65 25 100 65 25 100 65 25 100 65 25 100 65 25 100 65 25 100 65 25 100 65 25 100 65 25 100 65 25 100 65 25 100 65 25 100 65 25 100 65 25 100 65 25 100 65 25 100 65 25 100 65 25 100 65 25 100 65 25 100 65 25 100 65 25 100 65 25 100 65 25 100 65 25 100 65 25 100 65 25 100 65 25 100 65 25 100 65 25 100 65 25 100 65 25 100 65 25 100 65 25 100 65 25 100 65 25 100 65 25 100 65 25 100 65 25 100 65 25 100 65 25 100 65 25 100 65 25 100 65 25 100 65 25 100 65 25 100 65 25 100 65 25 100 65 25 100 65 25 100 65 25 100 65 25 100 65 25 100 65 25 100 65 25 100 65 25 100 65 25 100 65 25 100 65 25 100 65 25 100 65 25 100 65 25 100 65 25 100 65 25 100 65 25 100 65 25 100 65 25 100 65 25 100 65 25 100 65 25 100 65 25 100 65 25 100 65 25 100 65 25 100 65 25 100 65 25 100 65 25 100 65 25 100 65 25 100 65 25 100 65 25 100 65 25 100 65 25 100 65 25 100 65 25 100 65 25 100 65 25 100 65 25 100 65 25 100 65 25 100 65 25 100 65 25 100 65 25 100 65 25 100 65 25 100 65 25 100 65 25 100 65 25 100 65 25 100 65 25 100 65 25 100 65 25 100 65 25 100 65 25 100 65 25 100 65 25 100 65 25 100 65 25 100 65 25 100 65 25 100 65 25 100 65 25 100 65 25 100 65 25 100 65 25 100 65 25 100 65 25 100 65 25 100 65 25 100 65 25 100 65 25 100 65 25 100 65 25 100 65 25 100 65 25 100 65 25 100 65 25 100 65 25 100 65 25 100 65 25 100 65 25 100 65 25 100 65 25 100 65 25 100 65 25 100 65 25 100 65 25 100 65 25 100 65 25 100 65 25 100 65 25 100 65 25 100 65 25 100 65 25 100 65 25 100 65 25 100 65 25 100 65
25 100 65 25 100 65 25 100 65 25 100 65 25 100 65 25 100 65 25 100 65 25 100 65 25 100 65 25 100 65 25 100 65 25 100 65 25 100 65 25 100 65 25 100 65 25 100 65 25 100 65 25 100 65 25 100 65 25 100 65 25 100 65 25 100 65 25 100 65 25 100 65 25 100 65 25 100 65 25 100 65 25 100 65 25 100 65 25 100 65 25 100 65 25 100 65 25 100 65 25 100 65 25 100 65 25 100 65 25 100 65 25 100 65 25 100 65 25 100 65 25 100 65 25 100 65 25 100 65 25 100 65 25 100 65 25 100 65 25 100 65 25 100 65 25 100 65 25 100 65 25 100 65 25 100 65 25 100 65 25 100 65 25 100 65 25 100 65 25 100 65 25 100 65 25 100 65 25 100 65 25 100 65 25 100 65 25 100 65 25 100 65 25 100 65 25 100 65 25 100 65 25 100 65 25 100 65 25 100 65 25 100 65 25 100 65 25 100 65 25 100 65 25 100 65 25 100 65 25 100 65 25 100 65 25 100 65 25 100 65 25 100 65 25 100 65 25 100 65 25 100 65 25 100 65 25 100 65 25 100 65 25 100 65 25 100 65 25 100 65 25 100 65 25 100 65 25 100 65 25 100 65 25 100 65 25 100 65 25 100 65 25 100 65 25 100 65 25 100 65 25 100 65 25 100 65 25 100 65 25 100 65 25 100 65 25 100 65 25 100 65 25 100 65 25 100 65 25 100 65 25 100 65 25 100 65 25 100 65 25 100 65 25 100 65 25 100 65 25 100 65 25 100 65 25 100 65 25 100 65 25 100 65 25 100 65 25 100 65 25 100 65 25 100 65 25 100 65 25 100 65 25 100 65 25 100 65 25 100 65 25 100 65 25 100 65 25 100 65 25 100 65 25 100 65 25 100 65 25 100 65 25 100 65 25 100 65 25 100 65 25 100 65 25 100 65 25 100 65 25 100 65 25 100 65 25 100 65 25 100 65 25 100 65 25 100 65 25 100 65 25 100 65 25 100 65 25 100 65 25 100 65 25 100 65 25 100 65 25 100 65 25 100 65 25 100 65 25 100 65 25 100 65 25 100 65 25 100 65 25 100 65 25 100 65 25 100 65 25 100 65 25 100 65 25 100 65 25 100 65 25 100 65 25 100 65 25 100 65 25 100 65 25 100 65 25 100 65 25 100 65 25 100 65 25 100 65 25 100 65 25 100 65 25 100 65 25 100 65 25 100 65 25 100 65 25 100 65 25 100 65 25 100 65 25 100 65 25 100 65 25 100 65 25 100 65 25 100 65 25 100 65 25 100 65 25 100 65 25 100 65 25 100 65 25 100 65 25 100 65 25 100 65 25 100 65 25 100 65 25 100 65 25 100 65 25 100 65 25 100 65 25 100 65 25 100 65 25 100 65 25 100 65 25 100 65 25 100 65 25 100 65 25 100 65 25 100 65 25 100 65 25 100 65 25 100 65 25 100 65 25 100 65 25 100 65 25 100 65 25 100 65 25 100 65 25 100 65 25 100 65 25 100 65 25 100 65 25 100 65 25 100 65 25 100 65 25 100 65 25 100 65 25 100 65 25 100 65 25 100 65 25 100 65 25 100 65 25 100 65 25 100 65 25 100 65 25 100 65 25 100 65 25 100 65 25 100 65 25 100 65 25 100 65 25 100 65 25 100 65 25 100 65 25 100 65 25 100 65 25 100 65 25 100 65 25 100 65 25 100 65 25 100 65 25 100 65 25 100 65 25 100 65 25 100 65 25 100 65 25 100 65 25 100 65 25 100 65 25 100 65 25 100 65 25 100 65 25 100 65 25 100 65 25 100 65 25 100 65 25 100 65 25 100 65 25 100 65 25 100 65 25 100 65 25 100 65 25 100 65 25 100 65 25 100 65 25 100 65 25 100 65 25 100 65 25 100 65 25 100 65 25 100 65 25 100 65 25 100 65 25 100 65 25 100 65 25 100 65 25 100 65 25 100 65 25 100 65 25 100 65 25 100 65 25 100 65 25 100 65 25 100 65 25 100 65 25 100 65 25 100 65 25 100 65 25 100 65 25 100 65 25 100 65 25 100 65 25 100 65 25 100 65 25 100 65 25 100 65 25 100 65 25 100 65 25 100 65 25 100 65 25 100 65 25 100 65 25 100 65
25 100 65 25 100 65 25 100 65 25 100 65 25 100 65 25 100 65 25 100 65 25 100 65 25 100 65 25 100 65 25 100 65 25 100 65 25 100 65 25 100 65 25 100 65 25 100 65 25 100 65 25 100 65 25 100 65 25 100 65 25 100 65 25 100 65 25 100 65 25 100 65 25 100 65 25 100 65 25 100 65 25 100 65 25 100 65 25 100 65 25 100 65 25 100 65 25 100 65 25 100 65 25 100 65 25 100 65 25 100 65 25 100 65 25 100 65 25 100 65 25 100 65 25 100 65 25 100 65 25 100 65 25 100 65 25 100 65 25 100 65 25 100 65 25 100 65 25 100 65 25 100 65 25 100 65 25 100 65 25 100 65 25 100 65 25 100 65 25 100 65 25 100 65 25 100 65 25 100 65 25 100 65 25 100 65 25 100 65 25 100 65 25 100 65 25 100 65 25 100 65 25 100 65 25 100 65 25 100 65 25 100 65 25 100 65 25 100 65 25 100 65 25 100 65 25 100 65 25 100 65 25 100 65 25 100 65 25 100 65 25 100 65 25 100 65 25 100 65 25 100 65 25 100 65 25 100 65 25 100 65 25 100 65 25 100 65 25 100 65 25 100 65 25 100 65 25 100 65 25 100 65 25 100 65 25 100 65 25 100 65 25 100 65 25 100 65 25 100 65 25 100 65 25 100 65 25 100 65 25 100 65 25 100 65 25 100 65 25 100 65 25 100 65 25 100 65 25 100 65 25 100 65 25 100 65 25 100 65 25 100 65 25 100 65 25 100 65 25 100 65 25 100 65 25 100 65 25 100 65 25 100 65 25 100 65 25 100 65 25 100 65 25 100 65 25 100 65 25 100 65 25 100 65 25 100 65 25 100 65 25 100 65 25 100 65 25 100 65 25 100 65 25 100 65 25 100 65 25 100 65 25 100 65 25 100 65 25 100 65 25 100 65 25 100 65 25 100 65 25 100 65 25 100 65 25 100 65 25 100 65 25 100 65 25 100 65 25 100 65 25 100 65 25 100 65 25 100 65 25 100 65 25 100 65 25 100 65 25 100 65 25 100 65 25 100 65 25 100 65 25 100 65 25 100 65 25 100 65 25 100 65 25 100 65 25 100 65 25 100 65 25 100 65 25 100 65 25 100 65 25 100 65 25 100 65 25 100 65 25 100 65 25 100 65 25 100 65 25 100 65 25 100 65 25 100 65 25 100 65 25 100 65 25 100 65 25 100 65 25 100 65 25 100 65 25 100 65 25 100 65 25 100 65 25 100 65 25 100 65 25 100 65 25 100 65 25 100 65 25 100 65 25 100 65 25 100 65 25 100 65 25 100 65 25 100 65 25 100 65 25 100 65 25 100 65 25 100 65 25 100 65 25 100 65 25 100 65 25 100 65 25 100 65 25 100 65 25 100 65 25 100 65 25 100 65 25 100 65 25 100 65 25 100 65 25 100 65 25 100 65 25 100 65 25 100 65 25 100 65 25 100 65 25 100 65 25 100 65 25 100 65 25 100 65 25 100 65 25 100 65 25 100 65 25 100 65 25 100 65 25 100 65 25 100 65 25 100 65 25 100 65 25 100 65 25 100 65 25 100 65 25 100 65 25 100 65 25 100 65 25 100 65 25 100 65 25 100 65 25 100 65 25 100 65 25 100 65 25 100 65 25 100 65 25 100 65 25 100 65 25 100 65 25 100 65 25 100 65 25 100 65 25 100 65 25 100 65 25 100 65 25 100 65 25 100 65 25 100 65 25 100 65 25 100 65 25 100 65 25 100 65 25 100 65 25 100 65 25 100 65 25 100 65 25 100 65 25 100 65 25 100 65 25 100 65 25 100 65 25 100 65 25 100 65 25 100 65 25 100 65 25 100 65 25 100 65 25 100 65 25 100 65 25 100 65 25 100 65 25 100 65 25 100 65 25 100 65 25 100 65 25 100 65 25 100 65 25 100 65 25 100 65 25 100 65 25 100 65 25 100 65 25 100 65 25 100 65 25 100 65 25 100 65 25 100 65 25 100 65 25 100 65 25 100 65 25 100 65 25 100 65 25 100 65 25 100 65 25 100 65 25 100 65 25 100 65 25 100 65 25 100 65 25 100 65 25 100 65 25 100 65 25 100 65 25 100 65 25 100 65 25 100 65 25 100 65 25 100 65
25 100 65 25 100 65 25 100 65 25 100 65 25 100 65 25 100 65 25 100 65 25 100 65 25 100 65 25 100 65 25 100 65 25 100 65 25 100 65 25 100 65 25 100 65 25 100 65 25 100 65 25 100 65 25 100 65 25 100 65 25 100 65 25 100 65 25 100 65 25 100 65 25 100 65 25 100 65 25 100 65 25 100 65 25 100 65 25 100 65 25 100 65 25 100 65 25 100 65 25 100 65 25 100 65 25 100 65 25 100 65 25 100 65 25 100 65 25 100 65 25 100 65 25 100 65 25 100 65 25 100 65 25 100 65 25 100 65 25 100 65 25 100 65 25 100 65 25 100 65 25 100 65 25 100 65 25 100 65 25 100 65 25 100 65 25 100 65 25 100 65 25 100 65 25 100 65 25 100 65 25 100 65 25 100 65 25 100 65 25 100 65 25 100 65 25 100 65 25 100 65 25 100 65 25 100 65 25 100 65 25 100 65 25 100 65 25 100 65 25 100 65 25 100 65 25 100 65 25 100 65 25 100 65 25 100 65 25 100 65 25 100 65 25 100 65 25 100 65 25 100 65 25 100 65 25 100 65 25 100 65 25 100 65 25 100 65 25 100 65 25 100 65 25 100 65 25 100 65 25 100 65 25 100 65 25 100 65 25 100 65 25 100 65 25 100 65 25 100 65 25 100 65 25 100 65 25 100 65 25 100 65 25 100 65 25 100 65 25 100 65 25 100 65 25 100 65 25 100 65 25 100 65 25 100 65 25 100 65 25 100 65 25 100 65 25 100 65 25 100 65 25 100 65 25 100 65 25 100 65 25 100 65 25 100 65 25 100 65 25 100 65 25 100 65 25 100 65 25 100 65 25 100 65 25 100 65 25 100 65 25 100 65 25 100 65 25 100 65 25 100 65 25 100 65 25 100 65 25 100 65 25 100 65 25 100 65 25 100 65 25 100 65 25 100 65 25 100 65 25 100 65 25 100 65 25 100 65 25 100 65 25 100 65 25 100 65 25 100 65 25 100 65 25 100 65 25 100 65 25 100 65 25 100 65 25 100 65 25 100 65 25 100 65 25 100 65 25 100 65 25 100 65 25 100 65 25 100 65 25 100 65 25 100 65 25 100 65 25 100 65 25 100 65 25 100 65 25 100 65 25 100 65 25 100 65 25 100 65 25 100 65 25 100 65 25 100 65 25 100 65 25 100 65 25 100 65 25 100 65 25 100 65 25 100 65 25 100 65 25 100 65 25 100 65 25 100 65 25 100 65 25 100 65 25 100 65 25 100 65 25 100 65 25 100 65 25 100 65 25 100 65 25 100 65 25 100 65 25 100 65 25 100 65 25 100 65 25 100 65 25 100 65 25 100 65 25 100 65 25 100 65 25 100 65 25 100 65 25 100 65 25 100 65 25 100 65 25 100 65 25 100 65 25 100 65 25 100 65 25 100 65 25 100 65 25 100 65 25 100 65 25 100 65 25 100 65 25 100 65 25 100 65 25 100 65 25 100 65 25 100 65 25 100 65 25 100 65 25 100 65 25 100 65 25 100 65 25 100 65 25 100 65 25 100 65 25 100 65 25 100 65 25 100 65 25 100 65 25 100 65 25 100 65 25 100 65 25 100 65 25 100 65 25 100 65 25 100 65 25 100 65 25 100 65 25 100 65 25 100 65 25 100 65 25 100 65 25 100 65 25 100 65 25 100 65 25 100 65 25 100 65 25 100 65 25 100 65 25 100 65 25 100 65 25 100 65 25 100 65 25 100 65 25 100 65 25 100 65 25 100 65 25 100 65 25 100 65 25 100 65 25 100 65 25 100 65 25 100 65 25 100 65 25 100 65 25 100 65 25 100 65 25 100 65 25 100 65 25 100 65 25 100 65 25 100 65 25 100 65 25 100 65 25 100 65 25 100 65 25 100 65 25 100 65 25 100 65 25 100 65 25 100 65 25 100 65 25 100 65 25 100 65 25 100 65 25 100 65 25 100 65 25 100 65 25 100 65 25 100 65 25 100 65 25 100 65 25 100 65 25 100 65 25 100 65 25 100 65 25 100 65 25 100 65 25 100 65 25 100 65 25 100 65 25 100 65 25 100 65 25 100 65 25 100 65 25 100 65 25 100 65 25 100 65 25 100 65 25 100 65 25 100 65 25 100 65 25 100 65
25 100 65 25 100 65 25 100 65 25 100 65 25 100 65 25 100 65 25 100 65 25 100 65 25 100 65 25 100 65 25 100 65 25 100 65 25 100 65 25 100 65 25 100 65 25 100 65 25 100 65 25 100 65 25 100 65 25 100 65 25 100 65 25 100 65 25 100 65 25 100 65 25 100 65 25 100 65 25 100 65 25 100 65 25 100 65 25 100 65 25 100 65 25 100 65 25 100 65 25 100 65 25 100 65 25 100 65 25 100 65 25 100 65 25 100 65 25 100 65 25 100 65 25 100 65 25 100 65 25 100 65 25 100 65 25 100 65 25 100 65 25 100 65 25 100 65 25 100 65 25 100 65 25 100 65 25 100 65 25 100 65 25 100 65 25 100 65 25 100 65 25 100 65 25 100 65 25 100 65 25 100 65 25 100 65 25 100 65 25 100 65 25 100 65 25 100 65 25 100 65 25 100 65 25 100 65 25 100 65 25 100 65 25 100 65 25 100 65 25 100 65 25 100 65 25 100 65 25 100 65 25 100 65 25 100 65 25 100 65 25 100 65 25 100 65 25 100 65 25 100 65 25 100 65 25 100 65 25 100 65 25 100 65 25 100 65 25 100 65 25 100 65 25 100 65 25 100 65 25 100 65 25 100 65 25 100 65 25 100 65 25 100 65 25 100 65 25 100 65 25 100 65 25 100 65 25 100 65 25 100 65 25 100 65 25 100 65 25 100 65 25 100 65 25 100 65 25 100 65 25 100 65 25 100 65 25 100 65 25 100 65 25 100 65 25 100 65 25 100 65 25 100 65 25 100 65 25 100 65 25 100 65 25 100 65 25 100 65 25 100 65 25 100 65 25 100 65 25 100 65 25 100 65 25 100 65 25 100 65 25 100 65 25 100 65 25 100 65 25 100 65 25 100 65 25 100 65 25 100 65 25 100 65 25 100 65 25 100 65 25 100 65 25 100 65 25 100 65 25 100 65 25 100 65 25 100 65 25 100 65 25 100 65 25 100 65 25 100 65 25 100 65 25 100 65 25 100 65 25 100 65 25 100 65 25 100 65 25 100 65 25 100 65 25 100 65 25 100 65 25 100 65 25 100 65 25 100 65 25 100 65 25 100 65 25 100 65 25 100 65 25 100 65 25 100 65 25 100 65 25 100 65 25 100 65 25 100 65 25 100 65 25 100 65 25 100 65 25 100 65 25 100 65 25 100 65 25 100 65 25 100 65 25 100 65 25 100 65 25 100 65 25 100 65 25 100 65 25 100 65 25 100 65 25 100 65 25 100 65 25 100 65 25 100 65 25 100 65 25 100 65 25 100 65 25 100 65 25 100 65 25 100 65 25 100 65 25 100 65 25 100 65 25 100 65 25 100 65 25 100 65 25 100 65 25 100 65 25 100 65 25 100 65 25 100 65 25 100 65 25 100 65 25 100 65 25 100 65 25 100 65 25 100 65 25 100 65 25 100 65 25 100 65 25 100 65 25 100 65 25 100 65 25 100 65 25 100 65 25 100 65 25 100 65 25 100 65 25 100 65 25 100 65 25 100 65 25 100 65 25 100 65 25 100 65 25 100 65 25 100 65 25 100 65 25 100 65 25 100 65 25 100 65 25 100 65 25 100 65 25 100 65 25 100 65 25 100 65 25 100 65 25 100 65 25 100 65 25 100 65 25 100 65 25 100 65 25 100 65 25 100 65 25 100 65 25 100 65 25 100 65 25 100 65 25 100 65 25 100 65 25 100 65 25 100 65 25 100 65 25 100 65 25 100 65 25 100 65 25 100 65 25 100 65 25 100 65 25 100 65 25 100 65 25 100 65 25 100 65 25 100 65 25 100 65 25 100 65 25 100 65 25 100 65 25 100 65 25 100 65 25 100 65 25 100 65 25 100 65 25 100 65 25 100 65 25 100 65 25 100 65 25 100 65 25 100 65 25 100 65 25 100 65 25 100 65 25 100 65 25 100 65 25 100 65 25 100 65 25 100 65 25 100 65 25 100 65 25 100 65 25 100 65 25 100 65 25 100 65 25 100 65 25 100 65 25 100 65 25 100 65 25 100 65 25 100 65 25 100 65 25 100 65 25 100 65 25 100 65 25 100 65 25 100 65 25 100 65 25 100 65 25 100 65 25 100 65 25 100 65 25 100 65 25 100 65 25 100 65
25 100 65 25 100 65 25 100 65 25 100 65 25 100 65 25 100 65 25 100 65 25 100 65 25 100 65 25 100 65 25 100 65 25 100 65 25 100 65 25 100 65 25 100 65 25 100 65 25 100 65 25 100 65 25 100 65 25 100 65 25 100 65 25 100 65 25 100 65 25 100 65 25 100 65 25 100 65 25 100 65 25 100 65 25 100 65 25 100 65 25 100 65 25 100 65 25 100 65 25 100 65 25 100 65 25 100 65 25 100 65 25 100 65 25 100 65 25 100 65 25 100 65 25 100 65 25 100 65 25 100 65 25 100 65 25 100 65 25 100 65 25 100 65 25 100 65 25 100 65 25 100 65 25 100 65 25 100 65 25 100 65 25 100 65 25 100 65 25 100 65 25 100 65 25 100 65 25 100 65 25 100 65 25 100 65 25 100 65 25 100 65 25 100 65 25 100 65 25 100 65 25 100 65 25 100 65 25 100 65 25 100 65 25 100 65 25 100 65 25 100 65 25 100 65 25 100 65 25 100 65 25 100 65 25 100 65 25 100 65 25 100 65 25 100 65 25 100 65 25 100 65 25 100 65 25 100 65 25 100 65 25 100 65 25 100 65 25 100 65 25 100 65 25 100 65 25 100 65 25 100 65 25 100 65 25 100 65 25 100 65 25 100 65 25 100 65 25 100 65 25 100 65 25 100 65 25 100 65 25 100 65 25 100 65 25 100 65 25 100 65 25 100 65 25 100 65 25 100 65 25 100 65 25 100 65 25 100 65 25 100 65 25 100 65 25 100 65 25 100 65 25 100 65 25 100 65 25 100 65 25 100 65 25 100 65 25 100 65 25 100 65 25 100 65 25 100 65 25 100 65 25 100 65 25 100 65 25 100 65 25 100 65 25 100 65 25 100 65 25 100 65 25 100 65 25 100 65 25 100 65 25 100 65 25 100 65 25 100 65 25 100 65 25 100 65 25 100 65 25 100 65 25 100 65 25 100 65 25 100 65 25 100 65 25 100 65 25 100 65 25 100 65 25 100 65 25 100 65 25 100 65 25 100 65 25 100 65 25 100 65 25 100 65 25 100 65 25 100 65 25 100 65 25 100 65 25 100 65 25 100 65 25 100 65 25 100 65 25 100 65 25 100 65 25 100 65 25 100 65 25 100 65 25 100 65 25 100 65 25 100 65 25 100 65 25 100 65 25 100 65 25 100 65 25 100 65 25 100 65 25 100 65 25 100 65 25 100 65 25 100 65 25 100 65 25 100 65 25 100 65 25 100 65 25 100 65 25 100 65 25 100 65 25 100 65 25 100 65 25 100 65 25 100 65 25 100 65 25 100 65 25 100 65 25 100 65 25 100 65 25 100 65 25 100 65 25 100 65 25 100 65 25 100 65 25 100 65 25 100 65 25 100 65 25 100 65 25 100 65 25 100 65 25 100 65 25 100 65 25 100 65 25 100 65 25 100 65 25 100 65 25 100 65 25 100 65 25 100 65 25 100 65 25 100 65 25 100 65 25 100 65 25 100 65 25 100 65 25 100 65 25 100 65 25 100 65 25 100 65 25 100 65 25 100 65 25 100 65 25 100 65 25 100 65 25 100 65 25 100 65 25 100 65 25 100 65 25 100 65 25 100 65 25 100 65 25 100 65 25 100 65 25 100 65 25 100 65 25 100 65 25 100 65 25 100 65 25 100 65 25 100 65 25 100 65 25 100 65 25 100 65 25 100 65 25 100 65 25 100 65 25 100 65 25 100 65 25 100 65 25 100 65 25 100 65 25 100 65 25 100 65 25 100 65 25 100 65 25 100 65 25 100 65 25 100 65 25 100 65 25 100 65 25 100 65 25 100 65 25 100 65 25 100 65 25 100 65 25 100 65 25 100 65 25 100 65 25 100 65 25 100 65 25 100 65 25 100 65 25 100 65 25 100 65 25 100 65 25 100 65 25 100 65 25 100 65 25 100 65 25 100 65 25 100 65 25 100 65 25 100 65 25 100 65 25 100 65 25 100 65 25 100 65 25 100 65 25 100 65 25 100 65 25 100 65 25 100 65 25 100 65 25 100 65 25 100 65 25 100 65 25 100 65 25 100 65 25 100 65 25 100 65 25 100 65 25 100 65 25 100 65 25 100 65 25 100 65 25 100 65 25 100 65 25 100 65 25 100 65
25 100 65 25 100 65 25 100 65 25 100 65 25 100 65 25 100 65 25 100 65 25 100 65 25 100 65 25 100 65 25 100 65 25 100 65 25 100 65 25 100 65 25 100 65 25 100 65 25 100 65 25 100 65 25 100 65 25 100 65 25 100 65 25 100 65 25 100 65 25 100 65 25 100 65 25 100 65 25 100 65 25 100 65 25 100 65 25 100 65 25 100 65 25 100 65 25 100 65 25 100 65 25 100 65 25 100 65 25 100 65 25 100 65 25 100 65 25 100 65 25 100 65 25 100 65 25 100 65 25 100 65 25 100 65 25 100 65 25 100 65 25 100 65 25 100 65 25 100 65 25 100 65 25 100 65 25 100 65 25 100 65 25 100 65 25 100 65 25 100 65 25 100 65 25 100 65 25 100 65 25 100 65 25 100 65 25 100 65 25 100 65 25 100 65 25 100 65 25 100 65 25 100 65 25 100 65 25 100 65 25 100 65 25 100 65 25 100 65 25 100 65 25 100 65 25 100 65 25 100 65 25 100 65 25 100 65 25 100 65 25 100 65 25 100 65 25 100 65 25 100 65 25 100 65 25 100 65 25 100 65 25 100 65 25 100 65 25 100 65 25 100 65 25 100 65 25 100 65 25 100 65 25 100 65 25 100 65 25 100 65 25 100 65 25 100 65 25 100 65 25 100 65 25 100 65 25 100 65 25 100 65 25 100 65 25 100 65 25 100 65 25 100 65 25 100 65 25 100 65 25 100 65 25 100 65 25 100 65 25 100 65 25 100 65 25 100 65 25 100 65 25 100 65 25 100 65 25 100 65 25 100 65 25 100 65 25 100 65 25 100 65 25 100 65 25 100 65 25 100 65 25 100 65 25 100 65 25 100 65 25 100 65 25 100 65 25 100 65 25 100 65 25 100 65 25 100 65 25 100 65 25 100 65 25 100 65 25 100 65 25 100 65 25 100 65 25 100 65 25 100 65 25 100 65 25 100 65 25 100 65 25 100 65 25 100 65 25 100 65 25 100 65 25 100 65 25 100 65 25 100 65 25 100 65 25 100 65 25 100 65 25 100 65 25 100 65 25 100 65 25 100 65 25 100 65 25 100 65 25 100 65 25 100 65 25 100 65 25 100 65 25 100 65 25 100 65 25 100 65 25 100 65 25 100 65 25 100 65 25 100 65 25 100 65 25 100 65 25 100 65 25 100 65 25 100 65 25 100 65 25 100 65 25 100 65 25 100 65 25 100 65 25 100 65 25 100 65 25 100 65 25 100 65 25 100 65 25 100 65 25 100 65 25 100 65 25 100 65 25 100 65 25 100 65 25 100 65 25 100 65 25 100 65 25 100 65 25 100 65 25 100 65 25 100 65 25 100 65 25 100 65 25 100 65 25 100 65 25 100 65 25 100 65 25 100 65 25 100 65 25 100 65 25 100 65 25 100 65 25 100 65 25 100 65 25 100 65 25 100 65 25 100 65 25 100 65 25 100 65 25 100 65 25 100 65 25 100 65 25 100 65 25 100 65 25 100 65 25 100 65 25 100 65 25 100 65 25 100 65 25 100 65 25 100 65 25 100 65 25 100 65 25 100 65 25 100 65 25 100 65 25 100 65 25 100 65 25 100 65 25 100 65 25 100 65 25 100 65 25 100 65 25 100 65 25 100 65 25 100 65 25 100 65 25 100 65 25 100 65 25 100 65 25 100 65 25 100 65 25 100 65 25 100 65 25 100 65 25 100 65 25 100 65 25 100 65 25 100 65 25 100 65 25 100 65 25 100 65 25 100 65 25 100 65 25 100 65 25 100 65 25 100 65 25 100 65 25 100 65 25 100 65 25 100 65 25 100 65 25 100 65 25 100 65 25 100 65 25 100 65 25 100 65 25 100 65 25 100 65 25 100 65 25 100 65 25 100 65 25 100 65 25 100 65 25 100 65 25 100 65 25 100 65 25 100 65 25 100 65 25 100 65 25 100 65 25 100 65 25 100 65 25 100 65 25 100 65 25 100 65 25 100 65 25 100 65 25 100 65 25 100 65 25 100 65 25 100 65 25 100 65 25 100 65 25 100 65 25 100 65 25 100 65 25 100 65 25 100 65 25 100 65 25 100 65 25 100 65 25 100 65 25 100 65 25 100 65 25 100 65 25 100 65 25 100 65 25 100 65
25 100 65 25 100 65 25 100 65 25 100 65 25 100 65 25 100 65 25 100 65 25 100 65 25 100 65 25 100 65 25 100 65 25 100 65 25 100 65 25 100 65 25 100 65 25 100 65 25 100 65 25 100 65 25 100 65 25 100 65 25 100 65 25 100 65 25 100 65 25 100 65 25 100 65 25 100 65 25 100 65 25 100 65 25 100 65 25 100 65 25 100 65 25 100 65 25 100 65 25 100 65 25 100 65 25 100 65 25 100 65 25 100 65 25 100 65 25 100 65 25 100 65 25 100 65 25 100 65 25 100 65 25 100 65 25 100 65 25 100 65 25 100 65 25 100 65 25 100 65 25 100 65 25 100 65 25 100 65 25 100 65 25 100 65 25 100 65 25 100 65 25 100 65 25 100 65 25 100 65 25 100 65 25 100 65 25 100 65 25 100 65 25 100 65 25 100 65 25 100 65 25 100 65 25 100 65 25 100 65 25 100 65 25 100 65 25 100 65 25 100 65 25 100 65 25 100 65 25 100 65 25 100 65 25 100 65 25 100 65 25 100 65 25 100 65 25 100 65 25 100 65 25 100 65 25 100 65 25 100 65 25 100 65 25 100 65 25 100 65 25 100 65 25 100 65 25 100 65 25 100 65 25 100 65 25 100 65 25 100 65 25 100 65 25 100 65 25 100 65 25 100 65 25 100 65 25 100 65 25 100 65 25 100 65 25 100 65 25 100 65 25 100 65 25 100 65 25 100 65 25 100 65 25 100 65 25 100 65 25 100 65 25 100 65 25 100 65 25 100 65 25 100 65 25 100 65 25 100 65 25 100 65 25 100 65 25 100 65 25 100 65 25 100 65 25 100 65 25 100 65 25 100 65 25 100 65 25 100 65 25 100 65 25 100 65 25 100 65 25 100 65 25 100 65 25 100 65 25 100 65 25 100 65 25 100 65 25 100 65 25 100 65 25 100 65 25 100 65 25 100 65 25 100 65 25 100 65 25 100 65 25 100 65 25 100 65 25 100 65 25 100 65 25 100 65 25 100 65 25 100 65 25 100 65 25 100 65 25 100 65 25 100 65 25 100 65 25 100 65 25 100 65 25 100 65 25 100 65 25 100 65 25 100 65 25 100 65 25 100 65 25 100 65 25 100 65 25 100 65 25 100 65 25 100 65 25 100 65 25 100 65 25 100 65 25 100 65 25 100 65 25 100 65 25 100 65 25 100 65 25 100 65 25 100 65 25 100 65 25 100 65 25 100 65 25 100 65 25 100 65 25 100 65 25 100 65 25 100 65 25 100 65 25 100 65 25 100 65 25 100 65 25 100 65 25 100 65 25 100 65 25 100 65 25 100 65 25 100 65 25 100 65 25 100 65 25 100 65 25 100 65 25 100 65 25 100 65 25 100 65 25 100 65 25 100 65 25 100 65 25 100 65 25 100 65 25 100 65 25 100 65 25 100 65 25 100 65 25 100 65 25 100 65 25 100 65 25 100 65 25 100 65 25 100 65 25 100 65 25 100 65 25 100 65 25 100 65 25 100 65 25 100 65 25 100 65 25 100 65 25 100 65 25 100 65 25 100 65 25 100 65 25 100 65 25 100 65 25 100 65 25 100 65 25 100 65 25 100 65 25 100 65 25 100 65 25 100 65 25 100 65 25 100 65 25 100 65 25 100 65 25 100 65 25 100 65 25 100 65 25 100 65 25 100 65 25 100 65 25 100 65 25 100 65 25 100 65 25 100 65 25 100 65 25 100 65 25 100 65 25 100 65 25 100 65 25 100 65 25 100 65 25 100 65 25 100 65 25 100 65 25 100 65 25 100 65 25 100 65 25 100 65 25 100 65 25 100 65 25 100 65 25 100 65 25 100 65 25 100 65 25 100 65 25 100 65 25 100 65 25 100 65 25 100 65 25 100 65 25 100 65 25 100 65 25 100 65 25 100 65 25 100 65 25 100 65 25 100 65 25 100 65 25 100 65 25 100 65 25 100 65 25 100 65 25 100 65 25 100 65 25 100 65 25 100 65 25 100 65 25 100 65 25 100 65 25 100 65 25 100 65 25 100 65 25 100 65 25 100 65 25 100 65 25 100 65 25 100 65 25 100 65 25 100 65 25 100 65 25 100 65 25 100 65 25 100 65 25 100 65 25 100 65 25 100 65 25 100 65
